;FLAVOR:Marlin
;TIME:4364
;Filament used: 2.90532m
;Layer height: 0.2
;MINX:86.482
;MINY:87.306
;MINZ:0.2
;MAXX:133.457
;MAXY:133.486
;MAXZ:46.2
;Generated with Creality Slicer 4.8.2-218
M140 S80
M105
M190 S80
M104 S245
M105
M109 S245
M82 ;absolute extrusion mode

G28 ;Home

G92 E0 ;Reset Extruder
G1 Z2.0 F3000 ;Move Z Axis up
G1 X10.1 Y20 Z0.28 F5000.0 ;Move to start position
G1 X10.1 Y200.0 Z0.28 F1500.0 E15 ;Draw the first line
G1 X10.4 Y200.0 Z0.28 F5000.0 ;Move to side a little
G1 X10.4 Y20 Z0.28 F1500.0 E30 ;Draw the second line
G92 E0 ;Reset Extruder
G1 Z2.0 F3000 ;Move Z Axis up

G92 E0
G92 E0
G1 F2700 E-5
;LAYER_COUNT:231
;LAYER:0
M107
G0 F6000 X93.421 Y93.331 Z0.2
;TYPE:SKIRT
G1 F2700 E0
G1 F1200 X93.84 Y92.926 E0.01938
G1 X94.193 Y92.602 E0.03532
G1 X94.443 Y92.38 E0.04644
G1 X94.904 Y91.982 E0.0667
G1 X95.346 Y91.619 E0.08572
G1 X95.668 Y91.369 E0.09928
G1 X95.92 Y91.179 E0.10977
G1 X96.363 Y90.855 E0.12803
G1 X96.734 Y90.595 E0.1431
G1 X97.193 Y90.292 E0.16139
G1 X97.46 Y90.122 E0.17192
G1 X98.009 Y89.785 E0.19334
G1 X98.523 Y89.489 E0.21307
G1 X98.916 Y89.276 E0.22794
G1 X99.202 Y89.126 E0.23868
G1 X99.642 Y88.904 E0.25507
G1 X100.131 Y88.672 E0.27307
G1 X100.597 Y88.465 E0.29003
G1 X100.891 Y88.34 E0.30066
G1 X101.374 Y88.142 E0.31802
G1 X102.256 Y87.824 E0.3492
G1 X103.162 Y87.581 E0.3804
G1 X104.085 Y87.417 E0.41158
G1 X105.364 Y87.322 E0.45424
G1 X106.392 Y87.306 E0.48844
G1 X113.678 Y87.306 E0.73077
G1 X114.529 Y87.317 E0.75908
G1 X115.465 Y87.371 E0.79026
G1 X116.394 Y87.504 E0.82147
G1 X117.307 Y87.715 E0.85264
G1 X118.484 Y88.114 E0.89397
G1 X119.042 Y88.339 E0.91399
G1 X119.391 Y88.487 E0.92659
G1 X119.837 Y88.685 E0.94282
G1 X120.391 Y88.95 E0.96325
G1 X120.752 Y89.135 E0.97674
G1 X120.996 Y89.264 E0.98592
G1 X121.523 Y89.551 E1.00588
G1 X122.04 Y89.851 E1.02576
G1 X122.432 Y90.093 E1.04108
G1 X122.681 Y90.251 E1.05089
G1 X123.107 Y90.53 E1.06783
G1 X123.388 Y90.72 E1.07911
G1 X123.741 Y90.971 E1.09352
G1 X123.966 Y91.137 E1.10282
G1 X124.216 Y91.327 E1.11326
G1 X124.741 Y91.738 E1.13544
G1 X125.179 Y92.1 E1.15434
G1 X125.486 Y92.367 E1.16787
G1 X125.699 Y92.557 E1.17736
G1 X126.094 Y92.919 E1.19518
G1 X126.517 Y93.329 E1.21478
G1 X126.864 Y93.683 E1.23126
G1 X127.09 Y93.92 E1.24216
G1 X127.44 Y94.299 E1.25931
G1 X127.711 Y94.603 E1.27286
G1 X127.923 Y94.854 E1.28379
G1 X128.17 Y95.154 E1.29671
G1 X128.341 Y95.368 E1.30582
G1 X128.661 Y95.777 E1.32309
G1 X128.86 Y96.039 E1.33404
G1 X129.103 Y96.375 E1.34783
G1 X129.311 Y96.674 E1.35994
G1 X129.449 Y96.878 E1.36814
G1 X129.742 Y97.32 E1.38577
G1 X130.079 Y97.862 E1.407
G1 X130.344 Y98.317 E1.42451
G1 X130.491 Y98.577 E1.43445
G1 X130.737 Y99.027 E1.45151
G1 X130.928 Y99.391 E1.46518
G1 X131.066 Y99.671 E1.47556
G1 X131.202 Y99.957 E1.48609
G1 X131.325 Y100.225 E1.4959
G1 X131.578 Y100.796 E1.51667
G1 X131.781 Y101.286 E1.53431
G1 X131.948 Y101.718 E1.54972
G1 X132.07 Y102.048 E1.56142
G1 X132.243 Y102.542 E1.57883
G1 X132.384 Y102.973 E1.59391
G1 X132.455 Y103.209 E1.60211
G1 X132.563 Y103.583 E1.61506
G1 X132.637 Y103.852 E1.62434
G1 X132.785 Y104.418 E1.64379
G1 X132.926 Y105.026 E1.66455
G1 X133.022 Y105.502 E1.6807
G1 X133.079 Y105.807 E1.69102
G1 X133.167 Y106.317 E1.70824
G1 X133.221 Y106.661 E1.71982
G1 X133.266 Y107 E1.73119
G1 X133.304 Y107.324 E1.74204
G1 X133.332 Y107.585 E1.75077
G1 X133.386 Y108.165 E1.77015
G1 X133.425 Y108.759 E1.78995
G1 X133.445 Y109.275 E1.80712
G1 X133.452 Y109.59 E1.8176
G1 X133.457 Y110.085 E1.83407
G1 X133.453 Y110.536 E1.84907
G1 X133.446 Y110.762 E1.85659
G1 X133.428 Y111.175 E1.87034
G1 X133.408 Y111.502 E1.88123
G1 X133.369 Y112.033 E1.89894
G1 X133.339 Y112.38 E1.91053
G1 X133.3 Y112.721 E1.92194
G1 X133.253 Y113.087 E1.93421
G1 X133.211 Y113.383 E1.94416
G1 X133.117 Y113.985 E1.96442
G1 X133.015 Y114.545 E1.98336
G1 X132.928 Y114.96 E1.99746
G1 X132.853 Y115.291 E2.00875
G1 X132.724 Y115.824 E2.02699
G1 X132.628 Y116.197 E2.0398
G1 X132.542 Y116.498 E2.05021
G1 X132.454 Y116.792 E2.06042
G1 X132.37 Y117.06 E2.06976
G1 X132.171 Y117.668 E2.09103
G1 X131.955 Y118.269 E2.11228
G1 X131.788 Y118.694 E2.12746
G1 X131.681 Y118.956 E2.13688
G1 X131.475 Y119.443 E2.15446
G1 X131.328 Y119.777 E2.1666
G1 X131.168 Y120.117 E2.1791
G1 X131.028 Y120.402 E2.18966
G1 X130.918 Y120.619 E2.19775
G1 X130.631 Y121.172 E2.21847
G1 X130.31 Y121.749 E2.24044
G1 X130.096 Y122.107 E2.25431
G1 X129.966 Y122.318 E2.26255
G1 X129.668 Y122.792 E2.28117
G1 X129.44 Y123.141 E2.29504
G1 X129.268 Y123.389 E2.30508
G1 X129.04 Y123.71 E2.31817
G1 X128.859 Y123.957 E2.32836
G1 X128.545 Y124.374 E2.34572
G1 X128.297 Y124.693 E2.35916
G1 X128.097 Y124.937 E2.36965
G1 X127.86 Y125.218 E2.38188
G1 X127.679 Y125.427 E2.39107
G1 X127.309 Y125.844 E2.40962
G1 X127.053 Y126.124 E2.42223
G1 X126.806 Y126.379 E2.43404
G1 X126.575 Y126.611 E2.44493
G1 X126.353 Y126.828 E2.45526
G1 X125.861 Y127.295 E2.47782
G1 X125.449 Y127.667 E2.49628
G1 X125.189 Y127.89 E2.50767
G1 X124.96 Y128.081 E2.51759
G1 X124.498 Y128.456 E2.53738
G1 X124.032 Y128.814 E2.55693
G1 X123.659 Y129.085 E2.57226
G1 X123.398 Y129.269 E2.58288
G1 X122.934 Y129.586 E2.60157
G1 X122.45 Y129.898 E2.62073
G1 X122.046 Y130.144 E2.63646
G1 X121.759 Y130.313 E2.64754
G1 X121.268 Y130.592 E2.66632
G1 X120.735 Y130.876 E2.68641
G1 X120.315 Y131.085 E2.70201
G1 X120.039 Y131.217 E2.71218
G1 X119.56 Y131.439 E2.72974
G1 X119.186 Y131.605 E2.74335
G1 X118.867 Y131.738 E2.75485
G1 X118.58 Y131.852 E2.76512
G1 X118.343 Y131.943 E2.77356
G1 X117.809 Y132.141 E2.79251
G1 X117.266 Y132.326 E2.81159
G1 X116.786 Y132.476 E2.82831
G1 X116.45 Y132.575 E2.83996
G1 X115.975 Y132.707 E2.85636
G1 X115.677 Y132.786 E2.86661
G1 X115.274 Y132.882 E2.88039
G1 X114.906 Y132.963 E2.89293
G1 X114.614 Y133.023 E2.90284
G1 X114.093 Y133.123 E2.92049
G1 X113.691 Y133.193 E2.93406
G1 X113.396 Y133.237 E2.94398
G1 X112.991 Y133.292 E2.95757
G1 X112.682 Y133.329 E2.96792
G1 X112.187 Y133.382 E2.98448
G1 X111.767 Y133.42 E2.99851
G1 X111.455 Y133.441 E3.00891
G1 X111.111 Y133.459 E3.02036
G1 X110.832 Y133.47 E3.02965
G1 X110.237 Y133.486 E3.04945
G1 X109.645 Y133.486 E3.06914
G1 X109.199 Y133.474 E3.08398
G1 X108.865 Y133.46 E3.0951
G1 X108.29 Y133.427 E3.11425
G1 X107.958 Y133.403 E3.12532
G1 X107.599 Y133.369 E3.13732
G1 X107.285 Y133.334 E3.14783
G1 X106.997 Y133.298 E3.15748
G1 X106.433 Y133.22 E3.17642
G1 X105.891 Y133.131 E3.19468
G1 X105.411 Y133.04 E3.21093
G1 X105.082 Y132.973 E3.2221
G1 X104.558 Y132.857 E3.23995
G1 X103.976 Y132.711 E3.25991
G1 X103.525 Y132.585 E3.27548
G1 X103.215 Y132.494 E3.28623
G1 X102.624 Y132.31 E3.30682
G1 X102.05 Y132.114 E3.32699
G1 X101.688 Y131.979 E3.33984
G1 X101.402 Y131.867 E3.35006
G1 X100.886 Y131.658 E3.36857
G1 X100.502 Y131.495 E3.38245
G1 X100.215 Y131.366 E3.39291
G1 X99.931 Y131.233 E3.40334
G1 X99.677 Y131.11 E3.41273
G1 X99.153 Y130.848 E3.43222
G1 X98.628 Y130.567 E3.45202
G1 X98.233 Y130.342 E3.46714
G1 X98.001 Y130.206 E3.47608
G1 X97.498 Y129.903 E3.49562
G1 X96.93 Y129.537 E3.51809
G1 X96.55 Y129.275 E3.53344
G1 X96.334 Y129.122 E3.54225
G1 X95.915 Y128.818 E3.55946
G1 X95.537 Y128.532 E3.57523
G1 X95.066 Y128.152 E3.59536
G1 X94.806 Y127.934 E3.60664
G1 X94.341 Y127.532 E3.62709
G1 X93.91 Y127.14 E3.64646
G1 X93.623 Y126.864 E3.65971
G1 X93.422 Y126.665 E3.66911
G1 X93.016 Y126.254 E3.68833
G1 X92.763 Y125.989 E3.70052
G1 X92.538 Y125.743 E3.7116
G1 X92.325 Y125.502 E3.7223
G1 X92.139 Y125.286 E3.73178
G1 X91.759 Y124.833 E3.75145
G1 X91.413 Y124.399 E3.76991
G1 X91.14 Y124.038 E3.78496
G1 X90.934 Y123.756 E3.79658
G1 X90.593 Y123.274 E3.81622
G1 X90.376 Y122.957 E3.82899
G1 X90.215 Y122.707 E3.83888
G1 X90.024 Y122.403 E3.85082
G1 X89.871 Y122.152 E3.8606
G1 X89.574 Y121.65 E3.88
G1 X89.27 Y121.101 E3.90087
G1 X89.057 Y120.689 E3.9163
G1 X88.928 Y120.432 E3.92586
G1 X88.696 Y119.953 E3.94357
G1 X88.513 Y119.557 E3.95807
G1 X88.386 Y119.264 E3.9687
G1 X88.181 Y118.766 E3.98661
G1 X87.957 Y118.194 E4.00704
G1 X87.736 Y117.576 E4.02887
G1 X87.605 Y117.172 E4.04299
G1 X87.522 Y116.903 E4.05236
G1 X87.357 Y116.346 E4.07168
G1 X87.251 Y115.966 E4.0848
G1 X87.184 Y115.699 E4.09396
G1 X87.106 Y115.374 E4.10507
G1 X87.034 Y115.056 E4.11592
G1 X86.907 Y114.448 E4.13658
G1 X86.802 Y113.868 E4.15618
G1 X86.734 Y113.425 E4.17109
G1 X86.691 Y113.115 E4.1815
G1 X86.625 Y112.585 E4.19926
G1 X86.571 Y112.044 E4.21734
G1 X86.537 Y111.588 E4.23255
G1 X86.517 Y111.241 E4.24411
G1 X86.491 Y110.634 E4.26432
G1 X86.482 Y110.058 E4.28348
G1 X86.486 Y109.639 E4.29742
G1 X86.494 Y109.295 E4.30886
G1 X86.519 Y108.683 E4.32923
G1 X86.557 Y108.121 E4.34797
G1 X86.594 Y107.72 E4.36136
G1 X86.629 Y107.388 E4.37247
G1 X86.7 Y106.811 E4.3918
G1 X86.751 Y106.447 E4.40403
G1 X86.801 Y106.133 E4.4146
G1 X86.855 Y105.827 E4.42494
G1 X86.91 Y105.542 E4.43459
G1 X87.027 Y104.968 E4.45408
G1 X87.156 Y104.409 E4.47316
G1 X87.274 Y103.953 E4.48882
G1 X87.368 Y103.612 E4.50059
G1 X87.52 Y103.094 E4.51854
G1 X87.649 Y102.684 E4.53284
G1 X87.723 Y102.463 E4.54059
G1 X87.843 Y102.12 E4.55268
G1 X87.956 Y101.813 E4.56356
G1 X88.162 Y101.276 E4.58269
G1 X88.334 Y100.852 E4.59791
G1 X88.425 Y100.643 E4.60549
G1 X88.575 Y100.308 E4.61769
G1 X88.7 Y100.04 E4.62753
G1 X88.945 Y99.53 E4.64635
G1 X89.113 Y99.193 E4.65887
G1 X89.246 Y98.943 E4.66829
G1 X89.421 Y98.623 E4.68042
G1 X89.585 Y98.334 E4.69147
G1 X89.886 Y97.821 E4.71126
G1 X90.203 Y97.313 E4.73117
G1 X90.464 Y96.919 E4.74689
G1 X90.636 Y96.667 E4.75704
G1 X91.034 Y96.103 E4.78
G1 X91.098 Y96.015 E4.78362
G1 X91.353 Y95.678 E4.79767
G1 X91.572 Y95.4 E4.80944
G1 X91.745 Y95.186 E4.8186
G1 X92.114 Y94.741 E4.83782
G1 X92.369 Y94.444 E4.85084
G1 X92.568 Y94.224 E4.86071
G1 X92.818 Y93.954 E4.87295
G1 X93.032 Y93.728 E4.8833
G1 X93.421 Y93.331 E4.90179
G0 F6000 X93.707 Y93.611
G1 F1200 X94.11 Y93.221 E4.92044
G1 X94.463 Y92.897 E4.93638
G1 X94.704 Y92.683 E4.9471
G1 X95.165 Y92.285 E4.96735
G1 X95.591 Y91.935 E4.98569
G1 X95.913 Y91.685 E4.99925
G1 X96.156 Y91.502 E5.00937
G1 X96.599 Y91.178 E5.02762
G1 X96.96 Y90.925 E5.04228
G1 X97.146 Y90.8 E5.04974
G1 X97.412 Y90.626 E5.06031
G1 X97.67 Y90.463 E5.07046
G1 X98.219 Y90.126 E5.09189
G1 X98.713 Y89.841 E5.11085
G1 X99.106 Y89.628 E5.12572
G1 X99.382 Y89.483 E5.13609
G1 X99.822 Y89.261 E5.15248
G1 X100.294 Y89.038 E5.16985
G1 X100.76 Y88.831 E5.18681
G1 X101.042 Y88.71 E5.19701
G1 X101.525 Y88.512 E5.21437
G1 X102.392 Y88.2 E5.24502
G1 X103.282 Y87.965 E5.27564
G1 X104.189 Y87.807 E5.30626
G1 X105.371 Y87.721 E5.34568
G1 X106.217 Y87.707 E5.37382
G1 X113.678 Y87.706 E5.62197
G1 X114.523 Y87.717 E5.65008
G1 X115.442 Y87.77 E5.6807
G1 X116.353 Y87.903 E5.71132
G1 X117.249 Y88.115 E5.74194
G1 X118.334 Y88.485 E5.78007
G1 X118.892 Y88.71 E5.80008
G1 X119.229 Y88.853 E5.81226
G1 X119.675 Y89.051 E5.82849
G1 X120.208 Y89.306 E5.84814
G1 X120.569 Y89.491 E5.86163
G1 X120.805 Y89.615 E5.8705
G1 X121.332 Y89.902 E5.89045
G1 X121.83 Y90.191 E5.90961
G1 X122.222 Y90.433 E5.92493
G1 X122.462 Y90.586 E5.93439
G1 X122.888 Y90.865 E5.95133
G1 X123.159 Y91.048 E5.96221
G1 X123.503 Y91.293 E5.97625
G1 X123.728 Y91.459 E5.98555
G1 X123.969 Y91.642 E5.99562
G1 X124.494 Y92.053 E6.01779
G1 X124.916 Y92.402 E6.03601
G1 X125.223 Y92.669 E6.04954
G1 X125.429 Y92.852 E6.05871
G1 X125.824 Y93.214 E6.07653
G1 X126.232 Y93.609 E6.09541
G1 X126.579 Y93.963 E6.1119
G1 X126.796 Y94.192 E6.12239
G1 X127.146 Y94.571 E6.13955
G1 X127.407 Y94.864 E6.1526
G1 X127.614 Y95.108 E6.16325
G1 X127.861 Y95.408 E6.17617
G1 X128.026 Y95.614 E6.18495
G1 X128.346 Y96.023 E6.20222
G1 X128.613 Y96.378 E6.217
G1 X128.775 Y96.604 E6.22624
G1 X128.983 Y96.903 E6.23836
G1 X129.116 Y97.099 E6.24624
G1 X129.409 Y97.541 E6.26387
G1 X129.734 Y98.063 E6.28433
G1 X129.999 Y98.518 E6.30184
G1 X130.14 Y98.768 E6.31139
G1 X130.386 Y99.218 E6.32844
G1 X130.572 Y99.573 E6.34177
G1 X130.705 Y99.843 E6.35178
G1 X130.841 Y100.129 E6.36232
G1 X130.959 Y100.387 E6.37175
G1 X131.212 Y100.958 E6.39253
G1 X131.408 Y101.43 E6.40952
G1 X131.575 Y101.862 E6.42493
G1 X131.692 Y102.18 E6.4362
G1 X131.865 Y102.674 E6.45361
G1 X132.002 Y103.092 E6.46824
G1 X132.071 Y103.32 E6.47616
G1 X132.179 Y103.694 E6.48911
G1 X132.25 Y103.953 E6.49804
G1 X132.398 Y104.519 E6.5175
G1 X132.534 Y105.105 E6.53751
G1 X132.63 Y105.581 E6.55366
G1 X132.685 Y105.875 E6.56361
G1 X132.773 Y106.385 E6.58082
G1 X132.825 Y106.72 E6.59209
G1 X132.869 Y107.046 E6.60304
G1 X132.907 Y107.37 E6.61389
G1 X132.933 Y107.622 E6.62231
G1 X132.987 Y108.202 E6.64169
G1 X133.025 Y108.774 E6.66075
G1 X133.045 Y109.29 E6.67793
G1 X133.052 Y109.594 E6.68804
G1 X133.057 Y110.089 E6.70451
G1 X133.053 Y110.527 E6.71907
G1 X133.046 Y110.745 E6.72633
G1 X133.028 Y111.158 E6.74008
G1 X133.01 Y111.472 E6.75054
G1 X132.971 Y112.003 E6.76825
G1 X132.941 Y112.341 E6.77953
G1 X132.904 Y112.67 E6.79055
G1 X132.857 Y113.036 E6.80282
G1 X132.816 Y113.321 E6.8124
G1 X132.722 Y113.923 E6.83266
G1 X132.623 Y114.463 E6.85092
G1 X132.536 Y114.878 E6.86502
G1 X132.465 Y115.196 E6.87586
G1 X132.336 Y115.729 E6.8941
G1 X132.241 Y116.093 E6.90661
G1 X132.159 Y116.384 E6.91667
G1 X132.071 Y116.678 E6.92688
G1 X131.99 Y116.935 E6.93584
G1 X131.791 Y117.543 E6.95712
G1 X131.583 Y118.123 E6.97761
G1 X131.416 Y118.548 E6.9928
G1 X131.313 Y118.801 E7.00188
G1 X131.107 Y119.288 E7.01947
G1 X130.963 Y119.613 E7.03129
G1 X130.809 Y119.941 E7.04334
G1 X130.669 Y120.226 E7.05391
G1 X130.563 Y120.435 E7.0617
G1 X130.276 Y120.988 E7.08242
G1 X129.966 Y121.544 E7.1036
G1 X129.752 Y121.902 E7.11747
G1 X129.628 Y122.105 E7.12538
G1 X129.33 Y122.579 E7.144
G1 X129.053 Y122.997 E7.16068
G1 X128.942 Y123.157 E7.16716
G1 X128.714 Y123.478 E7.18025
G1 X128.54 Y123.716 E7.19006
G1 X128.226 Y124.133 E7.20742
G1 X127.984 Y124.444 E7.22053
G1 X127.791 Y124.679 E7.23064
G1 X127.554 Y124.96 E7.24287
G1 X127.38 Y125.161 E7.25171
G1 X127.01 Y125.578 E7.27025
G1 X126.76 Y125.851 E7.28256
G1 X126.523 Y126.097 E7.29392
G1 X126.292 Y126.329 E7.30481
G1 X126.077 Y126.538 E7.31479
G1 X125.585 Y127.005 E7.33735
G1 X125.189 Y127.363 E7.3551
G1 X124.929 Y127.586 E7.3665
G1 X124.708 Y127.77 E7.37606
G1 X124.246 Y128.145 E7.39585
G1 X123.797 Y128.491 E7.41471
G1 X123.424 Y128.762 E7.43004
G1 X123.173 Y128.938 E7.44024
G1 X122.709 Y129.255 E7.45893
G1 X122.242 Y129.557 E7.47742
G1 X121.838 Y129.803 E7.49316
G1 X121.562 Y129.965 E7.5038
G1 X121.071 Y130.244 E7.52258
G1 X120.556 Y130.518 E7.54199
G1 X120.136 Y130.727 E7.55759
G1 X119.871 Y130.854 E7.56736
G1 X119.392 Y131.076 E7.58492
G1 X119.027 Y131.238 E7.5982
G1 X118.719 Y131.366 E7.6093
G1 X118.204 Y131.568 E7.6277
G1 X117.67 Y131.766 E7.64664
G1 X117.147 Y131.944 E7.66502
G1 X116.667 Y132.094 E7.68174
G1 X116.343 Y132.19 E7.69298
G1 X115.868 Y132.322 E7.70938
G1 X115.46 Y132.427 E7.72339
G1 X115.188 Y132.491 E7.73268
G1 X114.82 Y132.572 E7.74522
G1 X114.539 Y132.63 E7.75476
G1 X114.018 Y132.73 E7.77241
G1 X113.626 Y132.798 E7.78564
G1 X113.342 Y132.841 E7.79519
G1 X112.937 Y132.896 E7.80879
G1 X112.639 Y132.932 E7.81877
G1 X112.144 Y132.985 E7.83533
G1 X111.735 Y133.021 E7.84898
G1 X111.434 Y133.042 E7.85902
G1 X111.09 Y133.06 E7.87048
G1 X110.821 Y133.07 E7.87943
G1 X110.226 Y133.086 E7.89923
G1 X109.656 Y133.086 E7.91818
G1 X109.21 Y133.074 E7.93302
G1 X108.888 Y133.061 E7.94374
G1 X108.313 Y133.028 E7.9629
G1 X107.989 Y133.005 E7.9737
G1 X107.644 Y132.972 E7.98523
G1 X107.33 Y132.937 E7.99574
G1 X107.052 Y132.902 E8.00506
G1 X106.488 Y132.824 E8.02399
G1 X105.966 Y132.738 E8.04159
G1 X105.486 Y132.647 E8.05784
G1 X105.169 Y132.582 E8.0686
