;FLAVOR:Marlin
;TIME:5272
;Filament used: 1.44743m
;Layer height: 0.12
;MINX:84.252
;MINY:84.179
;MINZ:0.12
;MAXX:135.789
;MAXY:135.815
;MAXZ:36.24
;Generated with Creality Slicer 4.8.2-218
M140 S80
M105
M190 S80
M104 S245
M105
M109 S245
M82 ;absolute extrusion mode

G28 ;Home

G92 E0 ;Reset Extruder
G1 Z2.0 F3000 ;Move Z Axis up
G1 X10.1 Y20 Z0.28 F5000.0 ;Move to start position
G1 X10.1 Y200.0 Z0.28 F1500.0 E15 ;Draw the first line
G1 X10.4 Y200.0 Z0.28 F5000.0 ;Move to side a little
G1 X10.4 Y20 Z0.28 F1500.0 E30 ;Draw the second line
G92 E0 ;Reset Extruder
G1 Z2.0 F3000 ;Move Z Axis up

G92 E0
G92 E0
G1 F2700 E-5
;LAYER_COUNT:302
;LAYER:0
M107
G0 F6000 X91.518 Y92.03 Z0.12
;TYPE:SKIRT
G1 F2700 E0
G1 F1200 X91.853 Y91.698 E0.00941
G1 X92.547 Y91.067 E0.02813
G1 X93.015 Y90.697 E0.04004
G1 X94.227 Y89.793 E0.07021
G1 X94.448 Y89.632 E0.07567
G1 X95.656 Y88.713 E0.10596
G1 X96.11 Y88.36 E0.11743
G1 X96.875 Y87.817 E0.13615
G1 X97.442 Y87.474 E0.14938
G1 X97.87 Y87.232 E0.15919
G1 X98.163 Y87.072 E0.16585
G1 X98.355 Y86.971 E0.17018
G1 X98.671 Y86.811 E0.17725
G1 X98.844 Y86.727 E0.18109
G1 X99.256 Y86.537 E0.19014
G1 X99.706 Y86.341 E0.19994
G1 X100.581 Y86.004 E0.21865
G1 X101.157 Y85.827 E0.23067
G1 X102.368 Y85.492 E0.25575
G1 X102.493 Y85.46 E0.25832
G1 X104.777 Y84.794 E0.3058
G1 X105.203 Y84.677 E0.31462
G1 X106.54 Y84.405 E0.34185
G1 X106.869 Y84.359 E0.34848
G1 X107.538 Y84.286 E0.36191
G1 X108.488 Y84.212 E0.38092
G1 X109.191 Y84.18 E0.39496
G1 X109.264 Y84.179 E0.39642
G1 X110.498 Y84.231 E0.42107
G1 X111.769 Y84.358 E0.44656
G1 X112.1 Y84.395 E0.45321
G1 X114.12 Y84.566 E0.49366
G1 X114.643 Y84.618 E0.50415
G1 X115.805 Y84.802 E0.52763
G1 X116.002 Y84.844 E0.53165
G1 X116.482 Y84.957 E0.54149
G1 X116.908 Y85.068 E0.55027
G1 X117.219 Y85.154 E0.55671
G1 X117.462 Y85.225 E0.56176
G1 X117.943 Y85.378 E0.57184
G1 X118.369 Y85.524 E0.58082
G1 X119.243 Y85.866 E0.59955
G1 X119.764 Y86.112 E0.61105
G1 X120.704 Y86.587 E0.63207
G1 X120.967 Y86.725 E0.638
G1 X122.703 Y87.586 E0.67667
G1 X123.246 Y87.848 E0.6887
G1 X124.072 Y88.291 E0.7074
G1 X124.62 Y88.638 E0.72035
G1 X124.956 Y88.865 E0.72844
G1 X125.551 Y89.296 E0.7431
G1 X126.275 Y89.859 E0.7614
G1 X126.99 Y90.466 E0.78012
G1 X127.683 Y91.167 E0.79979
G1 X128.602 Y92.185 E0.82716
G1 X128.821 Y92.434 E0.83378
G1 X130.355 Y94.089 E0.87881
G1 X130.963 Y94.803 E0.89753
G1 X131.302 Y95.262 E0.90891
G1 X131.679 Y95.801 E0.92204
G1 X131.862 Y96.07 E0.92853
G1 X132.104 Y96.451 E0.93754
G1 X132.227 Y96.653 E0.94226
G1 X132.462 Y97.057 E0.95159
G1 X132.679 Y97.45 E0.96054
G1 X133.096 Y98.29 E0.97926
G1 X133.332 Y98.86 E0.99157
G1 X133.784 Y100.054 E1.01705
G1 X133.83 Y100.18 E1.01973
G1 X134.731 Y102.463 E1.06871
G1 X134.827 Y102.717 E1.07412
G1 X135.2 Y103.905 E1.09897
G1 X135.257 Y104.13 E1.1036
G1 X135.366 Y104.604 E1.11331
G1 X135.403 Y104.783 E1.11696
G1 X135.472 Y105.144 E1.12429
G1 X135.609 Y105.94 E1.14041
G1 X135.676 Y106.383 E1.14935
G1 X135.769 Y107.317 E1.16808
G1 X135.787 Y107.997 E1.18166
G1 X135.779 Y109.271 E1.20708
G1 X135.771 Y109.708 E1.21581
G1 X135.789 Y111.729 E1.25614
G1 X135.787 Y112.152 E1.26458
G1 X135.709 Y113.363 E1.2888
G1 X135.681 Y113.597 E1.2935
G1 X135.603 Y114.136 E1.30437
G1 X135.579 Y114.277 E1.30722
G1 X135.519 Y114.6 E1.31378
G1 X135.347 Y115.455 E1.33118
G1 X135.246 Y115.906 E1.34041
G1 X135.22 Y116.012 E1.34258
G1 X134.958 Y116.913 E1.36131
G1 X134.778 Y117.406 E1.37178
G1 X134.326 Y118.557 E1.39646
G1 X134.178 Y118.918 E1.40425
G1 X133.623 Y120.396 E1.43575
G1 X133.291 Y121.245 E1.45394
G1 X132.758 Y122.404 E1.4794
G1 X132.666 Y122.577 E1.48331
G1 X132.43 Y122.998 E1.49294
G1 X132.193 Y123.4 E1.50226
G1 X132.051 Y123.635 E1.50774
G1 X131.94 Y123.813 E1.51192
G1 X131.645 Y124.261 E1.52263
G1 X131.378 Y124.646 E1.53198
G1 X130.811 Y125.393 E1.55069
G1 X130.409 Y125.851 E1.56285
G1 X129.55 Y126.779 E1.58809
G1 X128.461 Y127.994 E1.62065
G1 X127.679 Y128.848 E1.64376
G1 X126.81 Y129.697 E1.668
G1 X126.658 Y129.83 E1.67203
G1 X126.286 Y130.142 E1.68172
G1 X126.166 Y130.238 E1.68479
G1 X125.785 Y130.528 E1.69434
G1 X125.023 Y131.085 E1.71318
G1 X124.243 Y131.606 E1.7319
G1 X123.396 Y132.071 E1.75118
G1 X122.25 Y132.635 E1.77667
G1 X121.708 Y132.892 E1.78864
G1 X119.988 Y133.769 E1.82717
G1 X119.58 Y133.969 E1.83624
G1 X118.507 Y134.426 E1.85951
G1 X118.337 Y134.488 E1.86312
G1 X117.803 Y134.668 E1.87437
G1 X117.387 Y134.796 E1.88305
G1 X117.072 Y134.887 E1.8896
G1 X116.865 Y134.944 E1.89388
G1 X116.413 Y135.058 E1.90318
G1 X115.957 Y135.163 E1.91252
G1 X115.035 Y135.335 E1.93124
G1 X114.423 Y135.404 E1.94353
G1 X112.59 Y135.559 E1.98024
G1 X110.678 Y135.753 E2.01859
G1 X109.842 Y135.806 E2.03531
G1 X109.479 Y135.815 E2.04255
G1 X108.402 Y135.789 E2.06405
G1 X108.211 Y135.775 E2.06787
G1 X107.851 Y135.742 E2.07509
G1 X106.977 Y135.649 E2.09263
G1 X106.487 Y135.586 E2.10249
G1 X105.565 Y135.414 E2.1212
G1 X104.972 Y135.26 E2.13343
G1 X103.835 Y134.928 E2.15707
G1 X103.454 Y134.811 E2.16502
G1 X101.244 Y134.199 E2.21079
G1 X100.352 Y133.91 E2.2295
G1 X99.842 Y133.706 E2.24046
G1 X99.206 Y133.433 E2.25427
G1 X98.673 Y133.187 E2.26599
G1 X98.424 Y133.064 E2.27153
G1 X97.882 Y132.777 E2.28377
G1 X97.454 Y132.535 E2.29358
G1 X96.658 Y132.039 E2.3123
G1 X96.182 Y131.695 E2.32402
G1 X95.018 Y130.803 E2.35328
G1 X94.945 Y130.746 E2.35513
G1 X93.534 Y129.699 E2.39019
G1 X92.976 Y129.276 E2.40417
G1 X92.152 Y128.585 E2.42563
G1 X91.992 Y128.437 E2.42998
G1 X91.524 Y127.978 E2.44306
G1 X91.382 Y127.83 E2.44715
G1 X91.087 Y127.51 E2.45584
G1 X90.526 Y126.877 E2.47272
G1 X90.075 Y126.334 E2.4868
G1 X90.019 Y126.262 E2.48862
G1 X89.325 Y125.26 E2.51295
G1 X88.697 Y124.234 E2.53695
G1 X88.425 Y123.777 E2.54756
G1 X87.878 Y122.916 E2.56792
G1 X87.144 Y121.733 E2.5957
G1 X86.515 Y120.569 E2.62211
G1 X86.423 Y120.371 E2.62646
G1 X86.237 Y119.947 E2.6357
G1 X86.087 Y119.585 E2.64352
G1 X85.961 Y119.267 E2.65035
G1 X85.877 Y119.045 E2.65509
G1 X85.708 Y118.566 E2.66522
G1 X85.564 Y118.125 E2.67448
G1 X85.311 Y117.222 E2.6932
G1 X85.193 Y116.648 E2.70489
G1 X84.946 Y115.259 E2.73304
G1 X84.504 Y112.971 E2.77955
G1 X84.431 Y112.563 E2.78782
G1 X84.29 Y111.383 E2.81153
G1 X84.276 Y111.167 E2.81585
G1 X84.255 Y110.672 E2.82574
G1 X84.252 Y110.2 E2.83516
G1 X84.266 Y109.199 E2.85514
G1 X84.302 Y108.449 E2.87012
G1 X84.468 Y107.225 E2.89477
G1 X84.742 Y105.817 E2.9234
G1 X84.774 Y105.661 E2.92658
G1 X85.029 Y104.223 E2.95572
G1 X85.221 Y103.214 E2.97622
G1 X85.501 Y102.077 E2.99959
G1 X85.555 Y101.899 E3.0033
G1 X85.737 Y101.351 E3.01482
G1 X85.903 Y100.892 E3.02456
G1 X86.011 Y100.606 E3.03066
G1 X86.094 Y100.395 E3.03519
G1 X86.288 Y99.932 E3.0452
G1 X86.47 Y99.525 E3.0541
G1 X86.889 Y98.686 E3.07282
G1 X87.197 Y98.164 E3.08491
G1 X87.995 Y96.894 E3.11484
G1 X88.181 Y96.602 E3.12175
G1 X89.036 Y95.19 E3.15469
G1 X89.363 Y94.668 E3.16699
G1 X90.09 Y93.643 E3.19206
G1 X90.217 Y93.484 E3.19613
G1 X90.531 Y93.109 E3.20589
G1 X90.844 Y92.751 E3.21538
G1 X91.025 Y92.548 E3.2208
G1 X91.161 Y92.4 E3.22481
G1 X91.518 Y92.03 E3.23507
G0 F6000 X91.799 Y92.314
G1 F1200 X92.134 Y91.982 E3.24449
G1 X92.816 Y91.363 E3.26287
G1 X93.255 Y91.017 E3.27402
G1 X94.462 Y90.116 E3.30408
G1 X94.715 Y89.932 E3.31032
G1 X95.869 Y89.053 E3.33927
G1 X96.355 Y88.676 E3.35155
G1 X97.106 Y88.144 E3.36991
G1 X97.639 Y87.822 E3.38234
G1 X98.067 Y87.58 E3.39215
G1 X98.349 Y87.426 E3.39856
G1 X98.541 Y87.325 E3.40289
G1 X98.846 Y87.171 E3.40971
G1 X99.019 Y87.087 E3.41355
G1 X99.416 Y86.904 E3.42227
G1 X99.866 Y86.708 E3.43207
G1 X100.725 Y86.377 E3.45044
G1 X101.264 Y86.212 E3.46169
G1 X102.287 Y85.928 E3.48288
G1 X102.577 Y85.852 E3.48886
G1 X104.889 Y85.178 E3.53692
G1 X105.307 Y85.063 E3.54557
G1 X106.595 Y84.801 E3.5718
G1 X106.924 Y84.755 E3.57843
G1 X107.569 Y84.685 E3.59138
G1 X108.519 Y84.611 E3.61039
G1 X109.197 Y84.58 E3.62394
G1 X109.27 Y84.579 E3.62539
G1 X110.459 Y84.63 E3.64914
G1 X111.725 Y84.756 E3.67453
G1 X112.062 Y84.794 E3.6813
G1 X114.283 Y84.983 E3.72578
G1 X114.602 Y85.016 E3.73218
G1 X115.721 Y85.193 E3.75479
G1 X115.918 Y85.235 E3.75881
G1 X116.381 Y85.344 E3.7683
G1 X116.807 Y85.455 E3.77709
G1 X117.107 Y85.538 E3.7833
G1 X117.35 Y85.609 E3.78835
G1 X117.814 Y85.757 E3.79807
G1 X118.24 Y85.903 E3.80706
G1 X119.097 Y86.239 E3.82543
G1 X119.584 Y86.469 E3.83617
G1 X120.524 Y86.944 E3.85719
G1 X120.766 Y87.071 E3.86265
G1 X122.568 Y87.965 E3.90279
G1 X123.072 Y88.208 E3.91396
G1 X123.883 Y88.644 E3.93233
G1 X124.396 Y88.97 E3.94446
G1 X124.732 Y89.197 E3.95255
G1 X125.305 Y89.612 E3.96667
G1 X126.029 Y90.175 E3.98497
G1 X126.731 Y90.771 E4.00335
G1 X127.386 Y91.435 E4.02196
G1 X128.204 Y92.34 E4.04631
G1 X128.492 Y92.668 E4.05502
G1 X130.062 Y94.361 E4.1011
G1 X130.658 Y95.063 E4.11947
G1 X130.974 Y95.492 E4.13011
G1 X131.351 Y96.031 E4.14323
G1 X131.529 Y96.292 E4.14954
G1 X131.763 Y96.659 E4.15822
G1 X131.886 Y96.861 E4.16294
G1 X132.111 Y97.25 E4.17191
G1 X132.328 Y97.643 E4.18087
G1 X132.738 Y98.468 E4.19925
G1 X132.958 Y99.002 E4.21078
G1 X133.408 Y100.19 E4.23613
G1 X133.458 Y100.327 E4.23904
G1 X134.356 Y102.604 E4.28789
G1 X134.452 Y102.858 E4.29331
G1 X134.812 Y104.003 E4.31726
G1 X134.869 Y104.228 E4.32189
G1 X134.975 Y104.685 E4.33125
G1 X135.012 Y104.864 E4.3349
G1 X135.077 Y105.212 E4.34197
G1 X135.214 Y106.008 E4.35808
G1 X135.28 Y106.44 E4.3668
G1 X135.371 Y107.356 E4.38517
G1 X135.387 Y107.995 E4.39793
G1 X135.379 Y109.264 E4.42326
G1 X135.371 Y109.68 E4.43156
G1 X135.389 Y111.732 E4.47251
G1 X135.387 Y112.148 E4.48081
G1 X135.312 Y113.315 E4.50415
G1 X135.284 Y113.549 E4.50885
G1 X135.209 Y114.069 E4.51934
G1 X135.185 Y114.21 E4.52219
G1 X135.127 Y114.522 E4.52852
G1 X134.955 Y115.377 E4.54593
G1 X134.858 Y115.811 E4.5548
G1 X134.832 Y115.917 E4.55698
G1 X134.574 Y116.801 E4.57536
G1 X134.406 Y117.26 E4.58511
G1 X133.956 Y118.405 E4.60966
G1 X133.798 Y118.791 E4.61799
G1 X133.25 Y120.25 E4.64909
G1 X132.918 Y121.099 E4.66728
G1 X132.405 Y122.216 E4.69181
G1 X132.313 Y122.389 E4.69572
G1 X132.085 Y122.795 E4.70501
G1 X131.848 Y123.197 E4.71433
G1 X131.711 Y123.423 E4.7196
G1 X131.6 Y123.601 E4.72379
G1 X131.316 Y124.033 E4.7341
G1 X131.049 Y124.418 E4.74345
G1 X130.492 Y125.151 E4.76182
G1 X130.116 Y125.58 E4.77321
G1 X129.214 Y126.554 E4.7997
G1 X128.166 Y127.724 E4.83105
G1 X127.384 Y128.578 E4.85415
G1 X126.546 Y129.396 E4.87752
G1 X126.394 Y129.529 E4.88155
G1 X126.036 Y129.829 E4.89088
G1 X125.916 Y129.925 E4.89394
G1 X125.549 Y130.206 E4.90317
G1 X124.787 Y130.763 E4.922
G1 X124.021 Y131.273 E4.94037
G1 X123.219 Y131.712 E4.95861
G1 X122.079 Y132.273 E4.98397
G1 X121.548 Y132.525 E4.9957
G1 X119.812 Y133.41 E5.03458
G1 X119.404 Y133.61 E5.04365
G1 X118.37 Y134.05 E5.06608
G1 X118.2 Y134.112 E5.06969
G1 X117.685 Y134.285 E5.08053
G1 X117.269 Y134.413 E5.08921
G1 X116.966 Y134.502 E5.09552
G1 X116.759 Y134.559 E5.0998
G1 X116.324 Y134.669 E5.10876
G1 X115.868 Y134.774 E5.11809
G1 X114.962 Y134.941 E5.13648
G1 X114.389 Y135.006 E5.14799
G1 X112.519 Y135.164 E5.18544
G1 X110.638 Y135.355 E5.22317
G1 X109.832 Y135.406 E5.23928
G1 X109.469 Y135.415 E5.24653
G1 X108.431 Y135.39 E5.26725
G1 X108.24 Y135.376 E5.27107
G1 X107.893 Y135.344 E5.27803
G1 X107.019 Y135.251 E5.29557
G1 X106.544 Y135.19 E5.30512
G1 X105.639 Y135.021 E5.3235
G1 X105.083 Y134.875 E5.33497
G1 X103.952 Y134.545 E5.35848
G1 X103.563 Y134.426 E5.3666
G1 X101.351 Y133.813 E5.4124
G1 X100.475 Y133.529 E5.43078
G1 X100 Y133.339 E5.44099
G1 X99.364 Y133.066 E5.4548
G1 X98.85 Y132.829 E5.4661
G1 X98.601 Y132.706 E5.47164
G1 X98.079 Y132.429 E5.48343
G1 X97.651 Y132.187 E5.49325
G1 X96.87 Y131.7 E5.51161
G1 X96.425 Y131.377 E5.52259
G1 X95.266 Y130.489 E5.55172
G1 X95.202 Y130.438 E5.55336
G1 X93.775 Y129.38 E5.58881
G1 X93.217 Y128.957 E5.60278
G1 X92.423 Y128.291 E5.62346
G1 X92.263 Y128.143 E5.62781
G1 X91.812 Y127.701 E5.64041
G1 X91.67 Y127.553 E5.64451
G1 X91.386 Y127.245 E5.65287
G1 X90.825 Y126.612 E5.66975
G1 X90.391 Y126.089 E5.68331
G1 X90.335 Y126.017 E5.68513
G1 X89.666 Y125.05 E5.70859
G1 X89.041 Y124.029 E5.73248
G1 X88.763 Y123.563 E5.74331
G1 X88.218 Y122.706 E5.76358
G1 X87.484 Y121.523 E5.79136
G1 X86.878 Y120.401 E5.81681
G1 X86.786 Y120.203 E5.82117
G1 X86.606 Y119.794 E5.83009
G1 X86.456 Y119.432 E5.83791
G1 X86.335 Y119.125 E5.84449
G1 X86.251 Y118.903 E5.84923
G1 X86.089 Y118.442 E5.85898
G1 X85.945 Y118.001 E5.86824
G1 X85.697 Y117.114 E5.88662
G1 X85.587 Y116.578 E5.89754
G1 X85.343 Y115.208 E5.92531
G1 X84.896 Y112.895 E5.97232
G1 X84.825 Y112.494 E5.98045
G1 X84.689 Y111.358 E6.00328
G1 X84.675 Y111.142 E6.0076
G1 X84.655 Y110.664 E6.01714
G1 X84.652 Y110.206 E6.02628
G1 X84.666 Y109.205 E6.04626
G1 X84.701 Y108.481 E6.06073
G1 X84.861 Y107.301 E6.08449
G1 X85.134 Y105.898 E6.11301
G1 X85.166 Y105.746 E6.11611
G1 X85.395 Y104.442 E6.14254
G1 X85.614 Y103.289 E6.16596
G1 X85.884 Y102.193 E6.18848
G1 X85.938 Y102.015 E6.19219
G1 X86.113 Y101.487 E6.20329
G1 X86.279 Y101.028 E6.21303
G1 X86.383 Y100.753 E6.2189
G1 X86.466 Y100.542 E6.22343
G1 X86.653 Y100.095 E6.2331
G1 X86.835 Y99.688 E6.24199
G1 X87.247 Y98.865 E6.26036
G1 X87.536 Y98.377 E6.27168
G1 X88.332 Y97.109 E6.30156
G1 X88.521 Y96.812 E6.30858
G1 X89.287 Y95.545 E6.33813
G1 X89.702 Y94.881 E6.35375
G1 X90.403 Y93.893 E6.37793
G1 X90.53 Y93.734 E6.38199
G1 X90.832 Y93.372 E6.3914
G1 X91.145 Y93.014 E6.40089
G1 X91.456 Y92.671 E6.41013
G1 X91.799 Y92.314 E6.42001
G0 F6000 X92.081 Y92.598
G1 F1200 X92.416 Y92.266 E6.42942
G1 X93.085 Y91.659 E6.44745
G1 X93.494 Y91.338 E6.45782
G1 X94.698 Y90.44 E6.4878
G1 X94.939 Y90.265 E6.49374
G1 X96.118 Y89.367 E6.52331
G1 X96.601 Y88.992 E6.53552
G1 X97.338 Y88.471 E6.55353
G1 X97.836 Y88.17 E6.56514
G1 X98.264 Y87.928 E6.57495
G1 X98.535 Y87.78 E6.58112
G1 X98.727 Y87.679 E6.58545
G1 X99.021 Y87.53 E6.59202
G1 X99.194 Y87.446 E6.59586
G1 X99.576 Y87.271 E6.60425
G1 X100.026 Y87.075 E6.61404
G1 X100.869 Y86.751 E6.63206
G1 X101.371 Y86.598 E6.64254
G1 X102.568 Y86.267 E6.66732
G1 X102.692 Y86.235 E6.66988
G1 X105.001 Y85.562 E6.71787
G1 X105.411 Y85.45 E6.72635
G1 X106.651 Y85.197 E6.75161
G1 X106.98 Y85.151 E6.75824
G1 X107.6 Y85.084 E6.77068
G1 X108.55 Y85.01 E6.7897
G1 X109.202 Y84.98 E6.80272
G1 X109.275 Y84.979 E6.80418
G1 X110.419 Y85.028 E6.82703
G1 X111.68 Y85.153 E6.85232
G1 X112.02 Y85.191 E6.85915
G1 X114.052 Y85.363 E6.89984
G1 X114.561 Y85.414 E6.91005
G1 X115.638 Y85.584 E6.93181
G1 X115.835 Y85.626 E6.93583
G1 X116.28 Y85.732 E6.94496
G1 X116.706 Y85.843 E6.95374
G1 X116.995 Y85.922 E6.95972
G1 X117.238 Y85.993 E6.96477
G1 X117.684 Y86.135 E6.97412
G1 X118.11 Y86.281 E6.9831
G1 X118.95 Y86.611 E7.00111
G1 X119.403 Y86.826 E7.01112
G1 X120.502 Y87.383 E7.03571
G1 X120.621 Y87.446 E7.03839
G1 X122.31 Y88.284 E7.07602
G1 X122.898 Y88.568 E7.08905
G1 X123.693 Y88.997 E7.10708
G1 X124.172 Y89.301 E7.1184
G1 X124.508 Y89.528 E7.12649
G1 X125.059 Y89.928 E7.14008
G1 X125.783 Y90.491 E7.15838
G1 X126.471 Y91.076 E7.1764
G1 X127.089 Y91.703 E7.19397
G1 X128.001 Y92.714 E7.22115
G1 X128.218 Y92.961 E7.22771
G1 X129.768 Y94.633 E7.2732
G1 X130.353 Y95.322 E7.29124
G1 X130.646 Y95.721 E7.30112
G1 X131.023 Y96.26 E7.31425
G1 X131.196 Y96.514 E7.32038
G1 X131.421 Y96.867 E7.32873
G1 X131.544 Y97.069 E7.33345
G1 X131.761 Y97.444 E7.3421
G1 X131.978 Y97.837 E7.35106
G1 X132.379 Y98.646 E7.36908
G1 X132.584 Y99.144 E7.37982
G1 X133.032 Y100.327 E7.40507
G1 X133.081 Y100.462 E7.40794
G1 X133.982 Y102.746 E7.45693
G1 X134.078 Y103 E7.46235
G1 X134.425 Y104.101 E7.48539
G1 X134.482 Y104.326 E7.49002
