;FLAVOR:Marlin
;TIME:823
;Filament used: 0.278813m
;Layer height: 0.12
;MINX:87.3
;MINY:94
;MINZ:0.12
;MAXX:132.7
;MAXY:126
;MAXZ:3.96
;Generated with Creality Slicer 4.8.2-218
M140 S70
M105
M190 S70
M104 S235
M105
M109 S235
M82 ;absolute extrusion mode

G28 ;Home

G92 E0 ;Reset Extruder
G1 Z2.0 F3000 ;Move Z Axis up
G1 X10.1 Y20 Z0.28 F5000.0 ;Move to start position
G1 X10.1 Y200.0 Z0.28 F1500.0 E15 ;Draw the first line
G1 X10.4 Y200.0 Z0.28 F5000.0 ;Move to side a little
G1 X10.4 Y20 Z0.28 F1500.0 E30 ;Draw the second line
G92 E0 ;Reset Extruder
G1 Z2.0 F3000 ;Move Z Axis up

G92 E0
G92 E0
G1 F2700 E-5
;LAYER_COUNT:33
;LAYER:0
M107
G0 F6000 X90.498 Y97.264 Z0.12
;TYPE:SKIRT
G1 F2700 E0
G1 F1200 X91.186 Y96.627 E0.01871
G1 X91.926 Y96.051 E0.03742
G1 X92.712 Y95.539 E0.05614
G1 X93.539 Y95.097 E0.07486
G1 X94.401 Y94.727 E0.09358
G1 X95.291 Y94.431 E0.11229
G1 X96.203 Y94.213 E0.13101
G1 X97.13 Y94.072 E0.14972
G1 X98.001 Y94.013 E0.16714
G1 X98.322 Y94.004 E0.17355
G1 X98.63 Y94 E0.1797
G1 X120.993 Y94 E0.62597
G1 X121.849 Y94.011 E0.64306
G1 X122.785 Y94.065 E0.66177
G1 X123.713 Y94.197 E0.68047
G1 X124.627 Y94.409 E0.6992
G1 X125.519 Y94.698 E0.71791
G1 X126.384 Y95.061 E0.73663
G1 X127.214 Y95.497 E0.75534
G1 X128.005 Y96.002 E0.77407
G1 X128.749 Y96.573 E0.79278
G1 X129.442 Y97.205 E0.8115
G1 X130.079 Y97.893 E0.83021
G1 X130.654 Y98.634 E0.84893
G1 X131.165 Y99.42 E0.86764
G1 X131.607 Y100.248 E0.88637
G1 X131.976 Y101.11 E0.90508
G1 X132.271 Y102 E0.92379
G1 X132.489 Y102.912 E0.9425
G1 X132.629 Y103.84 E0.96123
G1 X132.687 Y104.701 E0.97845
G1 X132.696 Y105.021 E0.98484
G1 X132.7 Y105.33 E0.99101
G1 X132.699 Y114.4 E1.17201
G1 X132.69 Y115.127 E1.18652
G1 X132.639 Y116.064 E1.20525
G1 X132.507 Y116.992 E1.22395
G1 X132.298 Y117.906 E1.24266
G1 X132.011 Y118.799 E1.26138
G1 X131.649 Y119.665 E1.28011
G1 X131.215 Y120.496 E1.29882
G1 X130.711 Y121.287 E1.31754
G1 X130.142 Y122.032 E1.33625
G1 X129.511 Y122.727 E1.35498
G1 X128.824 Y123.365 E1.37369
G1 X128.085 Y123.942 E1.3924
G1 X127.299 Y124.454 E1.41112
G1 X126.473 Y124.897 E1.42982
G1 X125.611 Y125.269 E1.44856
G1 X124.722 Y125.565 E1.46726
G1 X123.81 Y125.785 E1.48598
G1 X122.883 Y125.926 E1.50469
G1 X121.999 Y125.987 E1.52238
G1 X121.678 Y125.996 E1.52878
G1 X121.37 Y126 E1.53493
G1 X98.865 Y125.999 E1.98404
G1 X98.167 Y125.99 E1.99797
G1 X97.231 Y125.938 E2.01668
G1 X96.302 Y125.806 E2.03541
G1 X95.388 Y125.596 E2.05412
G1 X94.495 Y125.309 E2.07284
G1 X93.63 Y124.946 E2.09156
G1 X92.799 Y124.512 E2.11027
G1 X92.008 Y124.008 E2.12899
G1 X91.263 Y123.438 E2.14771
G1 X90.569 Y122.807 E2.16643
G1 X89.932 Y122.12 E2.18512
G1 X89.355 Y121.38 E2.20385
G1 X88.843 Y120.594 E2.22257
G1 X88.4 Y119.767 E2.24129
G1 X88.029 Y118.906 E2.26
G1 X87.733 Y118.016 E2.27872
G1 X87.514 Y117.104 E2.29743
G1 X87.373 Y116.177 E2.31615
G1 X87.313 Y115.288 E2.33393
G1 X87.304 Y114.955 E2.34058
G1 X87.3 Y114.658 E2.3465
G1 X87.301 Y105.525 E2.52876
G1 X87.31 Y104.86 E2.54203
G1 X87.363 Y103.924 E2.56074
G1 X87.495 Y102.995 E2.57947
G1 X87.706 Y102.081 E2.59819
G1 X87.994 Y101.189 E2.61689
G1 X88.357 Y100.324 E2.63561
G1 X88.792 Y99.493 E2.65433
G1 X89.296 Y98.703 E2.67303
G1 X89.866 Y97.958 E2.69175
G1 X90.498 Y97.264 E2.71048
G0 F6000 X90.889 Y97.439
G1 F1200 X91.574 Y96.823 E2.72887
G1 X92.31 Y96.27 E2.74724
G1 X93.091 Y95.782 E2.76562
G1 X93.911 Y95.364 E2.78398
G1 X94.765 Y95.019 E2.80237
G1 X95.645 Y94.749 E2.82073
G1 X96.545 Y94.557 E2.8391
G1 X97.459 Y94.443 E2.85748
G1 X98.012 Y94.413 E2.86853
G1 X98.333 Y94.404 E2.87494
G1 X98.63 Y94.4 E2.88087
G1 X120.993 Y94.4 E3.32715
G1 X121.843 Y94.411 E3.34411
G1 X122.762 Y94.464 E3.36248
G1 X123.673 Y94.597 E3.38085
G1 X124.569 Y94.808 E3.39922
G1 X125.443 Y95.096 E3.41759
G1 X126.29 Y95.459 E3.43598
G1 X127.101 Y95.894 E3.45434
G1 X127.871 Y96.398 E3.47271
G1 X128.595 Y96.967 E3.49108
G1 X129.267 Y97.597 E3.50947
G1 X129.882 Y98.282 E3.52784
G1 X130.435 Y99.018 E3.54621
G1 X130.922 Y99.799 E3.56458
G1 X131.339 Y100.62 E3.58295
G1 X131.684 Y101.474 E3.60133
G1 X131.953 Y102.354 E3.6197
G1 X132.145 Y103.255 E3.63808
G1 X132.258 Y104.168 E3.65644
G1 X132.287 Y104.712 E3.66731
G1 X132.296 Y105.032 E3.6737
G1 X132.3 Y105.33 E3.67965
G1 X132.299 Y114.395 E3.86055
G1 X132.29 Y115.122 E3.87506
G1 X132.239 Y116.041 E3.89343
G1 X132.108 Y116.953 E3.91181
G1 X131.898 Y117.849 E3.93018
G1 X131.612 Y118.724 E3.94855
G1 X131.251 Y119.571 E3.96692
G1 X130.817 Y120.383 E3.9853
G1 X130.315 Y121.155 E4.00367
G1 X129.747 Y121.88 E4.02205
G1 X129.119 Y122.553 E4.04042
G1 X128.435 Y123.169 E4.05879
G1 X127.7 Y123.723 E4.07716
G1 X126.92 Y124.212 E4.09553
G1 X126.1 Y124.631 E4.11391
G1 X125.247 Y124.977 E4.13228
G1 X124.367 Y125.248 E4.15065
G1 X123.467 Y125.441 E4.16902
G1 X122.553 Y125.556 E4.1874
G1 X121.988 Y125.587 E4.1987
G1 X121.667 Y125.596 E4.20511
G1 X121.37 Y125.6 E4.21103
G1 X98.87 Y125.599 E4.66004
G1 X98.172 Y125.59 E4.67397
G1 X97.253 Y125.538 E4.69234
G1 X96.342 Y125.407 E4.71071
G1 X95.446 Y125.197 E4.72908
G1 X94.571 Y124.91 E4.74745
G1 X93.724 Y124.548 E4.76583
G1 X92.912 Y124.114 E4.78421
G1 X92.141 Y123.612 E4.80257
G1 X91.416 Y123.044 E4.82095
G1 X90.743 Y122.415 E4.83933
G1 X90.128 Y121.731 E4.85769
G1 X89.574 Y120.996 E4.87606
G1 X89.086 Y120.215 E4.89443
G1 X88.667 Y119.395 E4.91281
G1 X88.321 Y118.542 E4.93118
G1 X88.051 Y117.662 E4.94955
G1 X87.858 Y116.761 E4.96794
G1 X87.744 Y115.848 E4.9863
G1 X87.713 Y115.277 E4.99771
G1 X87.704 Y114.944 E5.00436
G1 X87.7 Y114.658 E5.01007
G1 X87.701 Y105.531 E5.19221
G1 X87.71 Y104.866 E5.20548
G1 X87.762 Y103.946 E5.22387
G1 X87.894 Y103.035 E5.24224
G1 X88.105 Y102.139 E5.26061
G1 X88.392 Y101.264 E5.27898
G1 X88.755 Y100.418 E5.29735
G1 X89.189 Y99.606 E5.31573
G1 X89.692 Y98.835 E5.3341
G1 X90.261 Y98.111 E5.35247
G1 X90.889 Y97.439 E5.37083
G0 F6000 X91.281 Y97.617
G1 F1200 X91.962 Y97.024 E5.38885
G1 X92.694 Y96.494 E5.40688
G1 X93.469 Y96.031 E5.4249
G1 X94.282 Y95.638 E5.44292
G1 X95.127 Y95.318 E5.46095
G1 X95.996 Y95.075 E5.47896
G1 X96.884 Y94.909 E5.49699
G1 X98.023 Y94.813 E5.5198
G1 X98.344 Y94.804 E5.52621
G1 X98.63 Y94.8 E5.53191
G1 X120.993 Y94.8 E5.97819
G1 X121.837 Y94.811 E5.99504
G1 X122.739 Y94.864 E6.01307
G1 X123.632 Y94.996 E6.03108
G1 X124.51 Y95.207 E6.0491
G1 X125.366 Y95.495 E6.06713
G1 X126.193 Y95.857 E6.08514
G1 X126.985 Y96.292 E6.10317
G1 X127.736 Y96.794 E6.1212
G1 X128.439 Y97.361 E6.13922
G1 X129.089 Y97.988 E6.15725
G1 X129.681 Y98.67 E6.17527
G1 X130.211 Y99.401 E6.19329
G1 X130.673 Y100.177 E6.21131
G1 X131.066 Y100.99 E6.22933
G1 X131.384 Y101.835 E6.24735
G1 X131.627 Y102.705 E6.26538
G1 X131.792 Y103.593 E6.2834
G1 X131.887 Y104.723 E6.30603
G1 X131.896 Y105.043 E6.31242
G1 X131.9 Y105.33 E6.31815
G1 X131.899 Y114.39 E6.49895
G1 X131.89 Y115.117 E6.51346
G1 X131.839 Y116.019 E6.53149
G1 X131.708 Y116.913 E6.54952
G1 X131.499 Y117.791 E6.56753
G1 X131.213 Y118.648 E6.58556
G1 X130.852 Y119.476 E6.60358
G1 X130.42 Y120.268 E6.62159
G1 X129.919 Y121.02 E6.63962
G1 X129.353 Y121.724 E6.65765
G1 X128.728 Y122.375 E6.67566
G1 X128.047 Y122.969 E6.69369
G1 X127.316 Y123.5 E6.71172
G1 X126.542 Y123.964 E6.72973
G1 X125.729 Y124.358 E6.74776
G1 X124.885 Y124.678 E6.76577
G1 X124.015 Y124.923 E6.78381
G1 X123.128 Y125.089 E6.80182
G1 X121.977 Y125.187 E6.82487
G1 X121.656 Y125.196 E6.83128
G1 X121.37 Y125.2 E6.83699
G1 X98.875 Y125.199 E7.2859
G1 X98.177 Y125.19 E7.29983
G1 X97.276 Y125.139 E7.31784
G1 X96.382 Y125.007 E7.33587
G1 X95.504 Y124.798 E7.35388
G1 X94.647 Y124.511 E7.37192
G1 X93.82 Y124.15 E7.38993
G1 X93.027 Y123.717 E7.40796
G1 X92.276 Y123.216 E7.42597
G1 X91.572 Y122.65 E7.444
G1 X90.921 Y122.024 E7.46202
G1 X90.328 Y121.343 E7.48004
G1 X89.798 Y120.612 E7.49806
G1 X89.334 Y119.837 E7.51609
G1 X88.94 Y119.024 E7.53412
G1 X88.62 Y118.18 E7.55213
G1 X88.376 Y117.31 E7.57016
G1 X88.21 Y116.422 E7.58819
G1 X88.113 Y115.267 E7.61132
G1 X88.104 Y114.934 E7.61797
G1 X88.1 Y114.658 E7.62348
G1 X88.101 Y105.536 E7.80551
G1 X88.11 Y104.871 E7.81879
G1 X88.162 Y103.969 E7.83682
G1 X88.294 Y103.076 E7.85483
G1 X88.504 Y102.198 E7.87285
G1 X88.791 Y101.341 E7.89088
G1 X89.153 Y100.514 E7.9089
G1 X89.586 Y99.722 E7.92691
G1 X90.088 Y98.971 E7.94494
G1 X90.655 Y98.267 E7.96298
G1 X91.281 Y97.617 E7.98099
G1 F2700 E2.98099
;MESH:BoardStand.stl
G0 F6000 X114.873 Y109.94
G0 X113.003 Y109.804
G0 X115.245 Y112.47
;TYPE:WALL-INNER
G1 F2700 E7.98099
G1 F1200 X115.974 Y112.496 E7.99554
G1 X116.682 Y112.311 E8.01015
G1 X117.307 Y111.93 E8.02475
G1 X117.794 Y111.385 E8.03934
G1 X118.088 Y110.757 E8.05318
G1 X118.184 Y110.329 E8.06193
G1 X118.184 Y109.635 E8.07578
G1 X117.973 Y108.933 E8.09041
G1 X117.569 Y108.324 E8.10499
G1 X117.008 Y107.857 E8.11956
G1 X116.334 Y107.571 E8.13417
G1 X115.608 Y107.491 E8.14875
G1 X114.891 Y107.623 E8.1633
G1 X114.239 Y107.958 E8.17792
G1 X113.713 Y108.465 E8.1925
G1 X113.354 Y109.104 E8.20713
G1 X113.196 Y109.818 E8.22172
G1 X113.249 Y110.546 E8.23629
G1 X113.51 Y111.229 E8.25088
G1 X113.957 Y111.808 E8.26548
G1 X114.552 Y112.234 E8.28008
G1 X115.245 Y112.47 E8.29469
G0 F6000 X115.318 Y112.072
G1 F1200 X115.93 Y112.094 E8.30691
G1 X116.524 Y111.939 E8.31916
G1 X117.048 Y111.619 E8.33142
G1 X117.457 Y111.162 E8.34366
G1 X117.707 Y110.627 E8.35544
G1 X117.784 Y110.285 E8.36244
G1 X117.784 Y109.694 E8.37423
G1 X117.607 Y109.105 E8.3865
G1 X117.268 Y108.594 E8.39874
G1 X116.797 Y108.202 E8.41097
G1 X116.232 Y107.962 E8.42322
G1 X115.623 Y107.895 E8.43545
G1 X115.021 Y108.006 E8.44766
G1 X114.474 Y108.287 E8.45993
G1 X114.033 Y108.712 E8.47216
G1 X113.732 Y109.248 E8.48442
G1 X113.599 Y109.847 E8.49667
G1 X113.644 Y110.458 E8.5089
G1 X113.863 Y111.031 E8.52114
G1 X114.238 Y111.517 E8.53339
G1 X114.737 Y111.874 E8.54563
G1 X115.318 Y112.072 E8.55788
G0 F6000 X115.391 Y111.674
;TYPE:WALL-OUTER
G1 F1200 X115.886 Y111.692 E8.56777
G1 X116.366 Y111.567 E8.57766
G1 X116.789 Y111.308 E8.58756
G1 X117.12 Y110.939 E8.59745
G1 X117.326 Y110.497 E8.60719
G1 X117.384 Y110.24 E8.61244
G1 X117.384 Y109.753 E8.62216
G1 X117.241 Y109.277 E8.63208
G1 X116.967 Y108.864 E8.64197
G1 X116.586 Y108.547 E8.65186
G1 X116.13 Y108.353 E8.66175
G1 X115.638 Y108.299 E8.67163
G1 X115.151 Y108.389 E8.68151
G1 X114.709 Y108.616 E8.69143
G1 X114.353 Y108.959 E8.70129
G1 X114.11 Y109.392 E8.7112
G1 X114.002 Y109.876 E8.7211
G1 X114.039 Y110.37 E8.73098
G1 X114.216 Y110.833 E8.74088
G1 X114.519 Y111.226 E8.75078
G1 X114.922 Y111.514 E8.76066
G1 X115.391 Y111.674 E8.77055
G0 F6000 X115.312 Y112.106
G1 F2700 E3.77055
G0 F6000 X113.823 Y111.947
G0 X115.125 Y110.598
G0 X104.991 Y110.457
G0 X106.555 Y111.491
G0 X104.574 Y112.496
;TYPE:WALL-INNER
G1 F2700 E8.77055
G1 F1200 X105.282 Y112.311 E8.78516
G1 X105.907 Y111.93 E8.79976
G1 X106.394 Y111.385 E8.81435
G1 X106.688 Y110.757 E8.82819
G1 X106.784 Y110.329 E8.83694
G1 X106.784 Y109.635 E8.85079
G1 X106.573 Y108.933 E8.86542
G1 X106.169 Y108.324 E8.88
G1 X105.608 Y107.857 E8.89457
G1 X104.934 Y107.571 E8.90918
G1 X104.208 Y107.491 E8.92376
G1 X103.491 Y107.623 E8.9383
G1 X102.839 Y107.958 E8.95293
G1 X102.313 Y108.465 E8.96751
G1 X101.954 Y109.104 E8.98214
G1 X101.796 Y109.818 E8.99673
G1 X101.849 Y110.546 E9.0113
G1 X102.11 Y111.229 E9.02589
G1 X102.557 Y111.808 E9.04049
G1 X103.152 Y112.234 E9.05509
G1 X103.845 Y112.47 E9.0697
G1 X104.574 Y112.496 E9.08426
G0 F6000 X104.53 Y112.094
G1 F1200 X105.124 Y111.939 E9.09651
G1 X105.648 Y111.619 E9.10876
G1 X106.057 Y111.162 E9.121
G1 X106.307 Y110.627 E9.13278
G1 X106.384 Y110.285 E9.13978
G1 X106.384 Y109.694 E9.15157
G1 X106.207 Y109.105 E9.16385
G1 X105.868 Y108.594 E9.17609
G1 X105.397 Y108.202 E9.18831
G1 X104.832 Y107.962 E9.20056
G1 X104.223 Y107.895 E9.21279
G1 X103.621 Y108.006 E9.22501
G1 X103.074 Y108.287 E9.23728
G1 X102.633 Y108.712 E9.2495
G1 X102.332 Y109.248 E9.26177
G1 X102.199 Y109.847 E9.27401
G1 X102.244 Y110.458 E9.28624
G1 X102.463 Y111.031 E9.29848
G1 X102.838 Y111.517 E9.31073
G1 X103.337 Y111.874 E9.32298
G1 X103.918 Y112.072 E9.33523
G1 X104.53 Y112.094 E9.34745
G0 F6000 X104.486 Y111.692
;TYPE:WALL-OUTER
G1 F1200 X104.966 Y111.567 E9.35734
G1 X105.389 Y111.308 E9.36724
G1 X105.72 Y110.939 E9.37714
G1 X105.926 Y110.497 E9.38687
G1 X105.984 Y110.24 E9.39212
G1 X105.984 Y109.753 E9.40184
G1 X105.841 Y109.277 E9.41176
G1 X105.567 Y108.864 E9.42165
G1 X105.186 Y108.547 E9.43154
G1 X104.73 Y108.353 E9.44143
G1 X104.238 Y108.299 E9.45131
G1 X103.751 Y108.389 E9.46119
G1 X103.309 Y108.616 E9.47111
G1 X102.953 Y108.959 E9.48097
G1 X102.71 Y109.392 E9.49088
G1 X102.602 Y109.876 E9.50078
G1 X102.639 Y110.37 E9.51067
G1 X102.816 Y110.833 E9.52056
G1 X103.119 Y111.226 E9.53046
G1 X103.522 Y111.514 E9.54035
G1 X103.991 Y111.674 E9.55023
G1 X104.486 Y111.692 E9.56012
G0 F6000 X104.533 Y112.129
G1 F2700 E4.56012
G0 F6000 X106.555 Y111.491
G0 X106.555 Y113.79
G0 X120.7 Y114
;TYPE:WALL-INNER
G1 F2700 E9.56012
G1 F1200 X99.3 Y114 E9.98718
G1 X99.3 Y106 E10.14683
G1 X120.7 Y106 E10.57389
G1 X120.7 Y114 E10.73354
G0 F6000 X121.1 Y114.4
G1 F1200 X98.9 Y114.4 E11.17656
G1 X98.9 Y105.6 E11.35217
G1 X121.1 Y105.6 E11.7952
G1 X121.1 Y114.4 E11.97081
G0 F6000 X121.5 Y114.8
;TYPE:WALL-OUTER
G1 F1200 X98.5 Y114.8 E12.4298
G1 X98.5 Y105.2 E12.62138
G1 X121.5 Y105.2 E13.08037
G1 X121.5 Y114.8 E13.27195
G0 F6000 X121.23 Y114.53
G0 X120.59 Y113.61
G0 X120.31 Y113.61
;TYPE:SKIN
G1 F1200 X99.69 Y113.61 E13.68344
G1 X99.69 Y106.39 E13.82753
G1 X120.31 Y106.39 E14.23902
G1 X120.31 Y113.61 E14.3831
G1 F2700 E9.3831
G0 F6000 X120.59 Y113.61
G0 X117.888 Y113.79
G0 X117.431 Y112.078
G0 X117.888 Y111.446
G0 X118.123 Y111.602
G1 F2700 E14.3831
G1 F1200 X118.459 Y110.884 E14.39892
G1 X118.574 Y110.372 E14.4094
G1 X118.574 Y109.578 E14.42524
G1 X118.33 Y108.765 E14.44218
G1 X117.862 Y108.061 E14.45905
G1 X117.213 Y107.52 E14.47591
G1 X116.434 Y107.189 E14.4928
G1 X115.594 Y107.097 E14.50967
G1 X114.764 Y107.25 E14.52651
G1 X114.009 Y107.638 E14.54345
G1 X113.401 Y108.224 E14.5603
G1 X112.986 Y108.963 E14.57721
G1 X112.802 Y109.789 E14.5941
G1 X112.865 Y110.632 E14.61097
G1 X113.167 Y111.422 E14.62785
G1 X113.684 Y112.091 E14.64472
G1 X114.372 Y112.585 E14.66162
G1 X115.173 Y112.858 E14.67851
G1 X116.017 Y112.888 E14.69537
G1 X116.836 Y112.674 E14.71226
G1 X117.559 Y112.233 E14.72916
G1 X118.123 Y111.602 E14.74605
G1 F2700 E9.74605
G0 F6000 X117.888 Y111.446
G0 X115.912 Y111.932
G0 X115.347 Y111.912
G0 X114.915 Y111.765
G0 X113.061 Y110.588
G0 X114.891 Y110.179
G0 X105.12 Y110.144
G0 X106.975 Y110.35
G0 X106.794 Y110.792
G0 X107.059 Y110.884
G1 F2700 E14.74605
G1 F1200 X107.174 Y110.372 E14.75652
G1 X107.174 Y109.578 E14.77237
G1 X106.93 Y108.765 E14.78931
G1 X106.462 Y108.061 E14.80618
G1 X105.813 Y107.52 E14.82304
G1 X105.034 Y107.189 E14.83993
G1 X104.194 Y107.097 E14.85679
G1 X103.364 Y107.25 E14.87363
G1 X102.609 Y107.638 E14.89057
G1 X102.001 Y108.224 E14.90742
G1 X101.586 Y108.963 E14.92434
G1 X101.402 Y109.789 E14.94123
G1 X101.465 Y110.632 E14.9581
G1 X101.767 Y111.422 E14.97497
G1 X102.284 Y112.091 E14.99185
G1 X102.972 Y112.585 E15.00875
G1 X103.773 Y112.858 E15.02564
G1 X104.617 Y112.888 E15.04249
G1 X105.436 Y112.674 E15.05938
G1 X106.159 Y112.233 E15.07628
G1 X106.723 Y111.602 E15.09317
G1 X107.059 Y110.884 E15.10899
G1 F2700 E10.10899
G0 F6000 X106.794 Y110.792
G0 X105.06 Y111.789
G0 X104.617 Y111.904
G0 X102.423 Y111.947
G0 X102.423 Y113.79
G0 X100.438 Y113.89
G0 X100.438 Y113.448
G1 F2700 E15.10899
G1 F1200 X99.849 Y112.86 E15.1256
G0 F6000 X99.849 Y112.294
G1 F1200 X101.003 Y113.448 E15.15817
