;FLAVOR:Marlin
;TIME:22167
;Filament used: 14.9366m
;Layer height: 0.2
;MINX:49
;MINY:69
;MINZ:0.2
;MAXX:171
;MAXY:151
;MAXZ:55
;Generated with Creality Slicer 4.8.2-218
M140 S80
M105
M190 S80
M104 S245
M105
M109 S245
M82 ;absolute extrusion mode

G28 ;Home

G92 E0 ;Reset Extruder
G1 Z2.0 F3000 ;Move Z Axis up
G1 X10.1 Y20 Z0.28 F5000.0 ;Move to start position
G1 X10.1 Y200.0 Z0.28 F1500.0 E15 ;Draw the first line
G1 X10.4 Y200.0 Z0.28 F5000.0 ;Move to side a little
G1 X10.4 Y20 Z0.28 F1500.0 E30 ;Draw the second line
G92 E0 ;Reset Extruder
G1 Z2.0 F3000 ;Move Z Axis up

G92 E0
G92 E0
G1 F2700 E-5
;LAYER_COUNT:275
;LAYER:0
M107
G0 F6000 X53.626 Y71.051 Z0.2
;TYPE:SKIRT
G1 F2700 E0
G1 F1200 X54.412 Y70.539 E0.0312
G1 X55.239 Y70.097 E0.06239
G1 X56.101 Y69.727 E0.09359
G1 X56.991 Y69.431 E0.12478
G1 X57.903 Y69.213 E0.15597
G1 X58.83 Y69.072 E0.18716
G1 X59.701 Y69.013 E0.21619
G1 X60.022 Y69.004 E0.22687
G1 X60.33 Y69 E0.23712
G1 X159.293 Y69 E3.52864
G1 X160.149 Y69.011 E3.55712
G1 X161.085 Y69.065 E3.5883
G1 X162.013 Y69.197 E3.61947
G1 X162.927 Y69.409 E3.65068
G1 X163.819 Y69.698 E3.68187
G1 X164.684 Y70.061 E3.71307
G1 X165.514 Y70.497 E3.74425
G1 X166.305 Y71.002 E3.77546
G1 X167.049 Y71.573 E3.80666
G1 X167.742 Y72.205 E3.83785
G1 X168.379 Y72.893 E3.86904
G1 X168.954 Y73.634 E3.90023
G1 X169.465 Y74.42 E3.93142
G1 X169.907 Y75.248 E3.96263
G1 X170.276 Y76.11 E3.99382
G1 X170.571 Y77 E4.025
G1 X170.789 Y77.912 E4.05619
G1 X170.929 Y78.84 E4.08741
G1 X170.987 Y79.701 E4.11611
G1 X170.996 Y80.021 E4.12676
G1 X171 Y80.33 E4.13703
G1 X170.999 Y139.4 E6.10171
G1 X170.99 Y140.127 E6.12589
G1 X170.939 Y141.064 E6.1571
G1 X170.807 Y141.992 E6.18828
G1 X170.598 Y142.906 E6.21946
G1 X170.311 Y143.799 E6.25066
G1 X169.949 Y144.665 E6.28188
G1 X169.515 Y145.496 E6.31306
G1 X169.011 Y146.287 E6.34426
G1 X168.442 Y147.032 E6.37544
G1 X167.811 Y147.727 E6.40666
G1 X167.124 Y148.365 E6.43784
G1 X166.385 Y148.942 E6.46903
G1 X165.599 Y149.454 E6.50023
G1 X164.773 Y149.897 E6.5314
G1 X163.911 Y150.269 E6.56263
G1 X163.022 Y150.565 E6.59379
G1 X162.11 Y150.785 E6.62499
G1 X161.183 Y150.926 E6.65618
G1 X160.299 Y150.987 E6.68565
G1 X159.978 Y150.996 E6.69633
G1 X159.67 Y151 E6.70658
G1 X60.565 Y150.999 E10.00282
G1 X59.867 Y150.99 E10.02604
G1 X58.931 Y150.938 E10.05722
G1 X58.002 Y150.806 E10.08843
G1 X57.088 Y150.596 E10.11962
G1 X56.195 Y150.309 E10.15082
G1 X55.33 Y149.946 E10.18202
G1 X54.499 Y149.512 E10.2132
G1 X53.708 Y149.008 E10.2444
G1 X52.963 Y148.438 E10.2756
G1 X52.269 Y147.807 E10.30679
G1 X51.632 Y147.12 E10.33795
G1 X51.055 Y146.38 E10.36916
G1 X50.543 Y145.594 E10.40036
G1 X50.1 Y144.767 E10.43157
G1 X49.729 Y143.906 E10.46275
G1 X49.433 Y143.016 E10.49395
G1 X49.214 Y142.104 E10.52514
G1 X49.073 Y141.177 E10.55633
G1 X49.013 Y140.288 E10.58596
G1 X49.004 Y139.955 E10.59704
G1 X49 Y139.658 E10.60692
G1 X49.001 Y80.525 E12.57369
G1 X49.01 Y79.86 E12.59581
G1 X49.063 Y78.924 E12.627
G1 X49.195 Y77.995 E12.6582
G1 X49.406 Y77.081 E12.6894
G1 X49.694 Y76.189 E12.72058
G1 X50.057 Y75.324 E12.75178
G1 X50.492 Y74.493 E12.78298
G1 X50.996 Y73.703 E12.81414
G1 X51.566 Y72.958 E12.84534
G1 X52.198 Y72.264 E12.87656
G1 X52.886 Y71.627 E12.90775
G1 X53.626 Y71.051 E12.93894
G0 F6000 X54.01 Y71.27
G1 F1200 X54.791 Y70.782 E12.96957
G1 X55.611 Y70.364 E13.00018
G1 X56.465 Y70.019 E13.03082
G1 X57.345 Y69.749 E13.06143
G1 X58.245 Y69.557 E13.09204
G1 X59.159 Y69.443 E13.12267
G1 X59.712 Y69.413 E13.14109
G1 X60.033 Y69.404 E13.15177
G1 X60.33 Y69.4 E13.16165
G1 X159.293 Y69.4 E16.45318
G1 X160.143 Y69.411 E16.48145
G1 X161.062 Y69.464 E16.51207
G1 X161.973 Y69.597 E16.54269
G1 X162.869 Y69.808 E16.5733
G1 X163.743 Y70.096 E16.60391
G1 X164.59 Y70.459 E16.63456
G1 X165.401 Y70.894 E16.66517
G1 X166.171 Y71.398 E16.69578
G1 X166.895 Y71.967 E16.72641
G1 X167.567 Y72.597 E16.75704
G1 X168.182 Y73.282 E16.78766
G1 X168.735 Y74.018 E16.81828
G1 X169.222 Y74.799 E16.84889
G1 X169.639 Y75.62 E16.87952
G1 X169.984 Y76.474 E16.91015
G1 X170.253 Y77.354 E16.94076
G1 X170.445 Y78.255 E16.9714
G1 X170.558 Y79.168 E17.002
G1 X170.587 Y79.712 E17.02012
G1 X170.596 Y80.032 E17.03076
G1 X170.6 Y80.33 E17.04068
G1 X170.599 Y139.395 E19.00519
G1 X170.59 Y140.122 E19.02937
G1 X170.539 Y141.041 E19.05998
G1 X170.408 Y141.953 E19.09063
G1 X170.198 Y142.849 E19.12124
G1 X169.912 Y143.724 E19.15185
G1 X169.551 Y144.571 E19.18248
G1 X169.117 Y145.383 E19.2131
G1 X168.615 Y146.155 E19.24373
G1 X168.047 Y146.88 E19.27436
G1 X167.419 Y147.553 E19.30498
G1 X166.735 Y148.169 E19.33559
G1 X166 Y148.723 E19.3662
G1 X165.22 Y149.212 E19.39682
G1 X164.4 Y149.631 E19.42745
G1 X163.547 Y149.977 E19.45807
G1 X162.667 Y150.248 E19.48869
G1 X161.767 Y150.441 E19.51931
G1 X160.853 Y150.556 E19.54995
G1 X160.288 Y150.587 E19.56877
G1 X159.967 Y150.596 E19.57945
G1 X159.67 Y150.6 E19.58933
G1 X60.57 Y150.599 E22.88541
G1 X59.872 Y150.59 E22.90862
G1 X58.953 Y150.538 E22.93924
G1 X58.042 Y150.407 E22.96985
G1 X57.146 Y150.197 E23.00046
G1 X56.271 Y149.91 E23.03109
G1 X55.424 Y149.548 E23.06172
G1 X54.612 Y149.114 E23.09235
G1 X53.841 Y148.612 E23.12295
G1 X53.116 Y148.044 E23.15358
G1 X52.443 Y147.415 E23.18422
G1 X51.828 Y146.731 E23.21481
G1 X51.274 Y145.996 E23.24542
G1 X50.786 Y145.215 E23.27605
G1 X50.367 Y144.395 E23.30668
G1 X50.021 Y143.542 E23.3373
G1 X49.751 Y142.662 E23.36791
G1 X49.558 Y141.761 E23.39856
G1 X49.444 Y140.848 E23.42916
G1 X49.413 Y140.277 E23.44818
G1 X49.404 Y139.944 E23.45926
G1 X49.4 Y139.658 E23.46878
G1 X49.401 Y80.531 E25.43535
G1 X49.41 Y79.866 E25.45747
G1 X49.462 Y78.946 E25.48812
G1 X49.594 Y78.035 E25.51873
G1 X49.805 Y77.139 E25.54935
G1 X50.092 Y76.264 E25.57998
G1 X50.455 Y75.418 E25.6106
G1 X50.889 Y74.606 E25.64122
G1 X51.392 Y73.835 E25.67184
G1 X51.961 Y73.111 E25.70246
G1 X52.589 Y72.439 E25.73306
G1 X53.274 Y71.823 E25.7637
G1 X54.01 Y71.27 E25.79432
G0 F6000 X54.394 Y71.494
G1 F1200 X55.169 Y71.031 E25.82434
G1 X55.982 Y70.638 E25.85438
G1 X56.827 Y70.318 E25.88443
G1 X57.696 Y70.075 E25.91444
G1 X58.584 Y69.909 E25.94449
G1 X59.723 Y69.813 E25.9825
G1 X60.044 Y69.804 E25.99318
G1 X60.33 Y69.8 E26.0027
G1 X159.293 Y69.8 E29.29422
G1 X160.137 Y69.811 E29.32229
G1 X161.039 Y69.864 E29.35235
G1 X161.932 Y69.996 E29.38237
G1 X162.81 Y70.207 E29.41241
G1 X163.666 Y70.495 E29.44244
G1 X164.493 Y70.857 E29.47247
G1 X165.285 Y71.292 E29.50252
G1 X166.036 Y71.794 E29.53257
G1 X166.739 Y72.361 E29.56261
G1 X167.389 Y72.988 E29.59265
G1 X167.981 Y73.67 E29.62268
G1 X168.511 Y74.401 E29.65271
G1 X168.973 Y75.177 E29.68275
G1 X169.366 Y75.99 E29.71279
G1 X169.684 Y76.835 E29.74282
G1 X169.927 Y77.705 E29.77286
G1 X170.092 Y78.593 E29.8029
G1 X170.187 Y79.723 E29.84062
G1 X170.196 Y80.043 E29.85126
G1 X170.2 Y80.33 E29.86081
G1 X170.199 Y139.39 E31.82515
G1 X170.19 Y140.117 E31.84934
G1 X170.139 Y141.019 E31.87938
G1 X170.008 Y141.913 E31.90944
G1 X169.799 Y142.791 E31.93945
G1 X169.513 Y143.648 E31.9695
G1 X169.152 Y144.476 E31.99955
G1 X168.72 Y145.268 E32.02955
G1 X168.219 Y146.02 E32.05961
G1 X167.653 Y146.724 E32.08965
G1 X167.028 Y147.375 E32.11967
G1 X166.347 Y147.969 E32.14972
G1 X165.616 Y148.5 E32.17977
G1 X164.842 Y148.964 E32.20979
G1 X164.029 Y149.358 E32.23984
G1 X163.185 Y149.678 E32.26986
G1 X162.315 Y149.923 E32.29992
G1 X161.428 Y150.089 E32.32993
G1 X160.277 Y150.187 E32.36835
G1 X159.956 Y150.196 E32.37904
G1 X159.67 Y150.2 E32.38855
G1 X60.575 Y150.199 E35.68446
G1 X59.877 Y150.19 E35.70768
G1 X58.976 Y150.139 E35.73769
G1 X58.082 Y150.007 E35.76775
G1 X57.204 Y149.798 E35.79777
G1 X56.347 Y149.511 E35.82783
G1 X55.52 Y149.15 E35.85784
G1 X54.727 Y148.717 E35.88789
G1 X53.976 Y148.216 E35.91792
G1 X53.272 Y147.65 E35.94796
G1 X52.621 Y147.024 E35.978
G1 X52.028 Y146.343 E36.00804
G1 X51.498 Y145.612 E36.03807
G1 X51.034 Y144.837 E36.06811
G1 X50.64 Y144.024 E36.09816
G1 X50.32 Y143.18 E36.12818
G1 X50.076 Y142.31 E36.15823
G1 X49.91 Y141.422 E36.18828
G1 X49.813 Y140.267 E36.22683
G1 X49.804 Y139.934 E36.23791
G1 X49.8 Y139.658 E36.24709
G1 X49.801 Y80.536 E38.2135
G1 X49.81 Y79.871 E38.23562
G1 X49.862 Y78.969 E38.26567
G1 X49.994 Y78.076 E38.29569
G1 X50.204 Y77.198 E38.32572
G1 X50.491 Y76.341 E38.35578
G1 X50.853 Y75.514 E38.3858
G1 X51.286 Y74.722 E38.41583
G1 X51.788 Y73.971 E38.44587
G1 X52.355 Y73.267 E38.47594
G1 X52.981 Y72.617 E38.50595
G1 X53.662 Y72.024 E38.53598
G1 X54.394 Y71.494 E38.56604
G1 F2700 E33.56604
;MESH:CaseLid.stl
G0 F6000 X67.026 Y99.829
G0 X66.288 Y98.561
G0 X65.754 Y99.8
G0 X65.7 Y100.199
G0 X65.754 Y100.599
G0 X65.914 Y100.976
G0 X66.153 Y101.291
G0 X66.481 Y101.538
G0 X67.688 Y101.845
;TYPE:WALL-INNER
G1 F2700 E38.56604
G1 F1200 X68.102 Y101.67 E38.58099
G1 X68.451 Y101.405 E38.59557
G1 X68.725 Y101.043 E38.61067
G1 X68.892 Y100.639 E38.62521
G1 X68.949 Y100.199 E38.63996
G1 X68.892 Y99.755 E38.65485
G1 X68.715 Y99.34 E38.66986
G1 X68.449 Y98.992 E38.68443
G1 X68.089 Y98.718 E38.69947
G1 X67.685 Y98.551 E38.71401
G1 X67.244 Y98.494 E38.7288
G1 X66.801 Y98.551 E38.74366
G1 X66.385 Y98.727 E38.75868
G1 X66.037 Y98.994 E38.77327
G1 X65.764 Y99.355 E38.78833
G1 X65.597 Y99.757 E38.8028
G1 X65.538 Y100.199 E38.81764
G1 X65.598 Y100.642 E38.8325
G1 X65.773 Y101.057 E38.84748
G1 X66.039 Y101.406 E38.86208
G1 X66.4 Y101.679 E38.87713
G1 X66.803 Y101.846 E38.89164
G1 X67.244 Y101.905 E38.90644
G1 X67.688 Y101.845 E38.92134
G0 F6000 X67.582 Y101.456
;TYPE:WALL-OUTER
G1 F1200 X67.9 Y101.321 E38.93283
G1 X68.165 Y101.12 E38.94389
G1 X68.375 Y100.843 E38.95546
G1 X68.502 Y100.535 E38.96654
G1 X68.546 Y100.199 E38.97781
G1 X68.502 Y99.861 E38.98914
G1 X68.367 Y99.543 E39.00063
G1 X68.164 Y99.278 E39.01174
G1 X67.888 Y99.068 E39.02327
G1 X67.581 Y98.941 E39.03432
G1 X67.244 Y98.897 E39.04563
G1 X66.907 Y98.941 E39.05693
G1 X66.588 Y99.076 E39.06845
G1 X66.323 Y99.279 E39.07955
G1 X66.114 Y99.555 E39.09107
G1 X65.987 Y99.862 E39.10212
G1 X65.942 Y100.199 E39.11343
G1 X65.987 Y100.536 E39.12474
G1 X66.122 Y100.855 E39.13626
G1 X66.324 Y101.12 E39.14734
G1 X66.6 Y101.329 E39.15885
G1 X66.908 Y101.456 E39.16993
G1 X67.244 Y101.501 E39.18121
G1 X67.582 Y101.456 E39.19255
G0 F6000 X67.698 Y101.88
G1 F2700 E34.19255
G0 F6000 X67.244 Y102.097
G0 X67.24 Y100.628
G0 X67.245 Y117.549
G0 X67.244 Y116.082
G0 X68.334 Y116.887
G0 X68.575 Y117.202
G0 X68.735 Y117.578
G0 X68.788 Y117.979
G0 X68.735 Y118.377
G0 X68.584 Y118.742
G0 X67.688 Y119.625
;TYPE:WALL-INNER
G1 F2700 E39.19255
G1 F1200 X68.102 Y119.45 E39.2075
G1 X68.451 Y119.185 E39.22208
G1 X68.725 Y118.823 E39.23718
G1 X68.892 Y118.419 E39.25172
G1 X68.949 Y117.979 E39.26647
G1 X68.892 Y117.535 E39.28136
G1 X68.715 Y117.12 E39.29637
G1 X68.449 Y116.772 E39.31094
G1 X68.089 Y116.498 E39.32598
G1 X67.685 Y116.331 E39.34052
G1 X67.244 Y116.274 E39.35531
G1 X66.801 Y116.331 E39.37017
G1 X66.385 Y116.507 E39.38519
G1 X66.037 Y116.774 E39.39978
G1 X65.764 Y117.135 E39.41483
G1 X65.597 Y117.537 E39.42931
G1 X65.538 Y117.979 E39.44414
G1 X65.598 Y118.422 E39.45901
G1 X65.773 Y118.837 E39.47399
G1 X66.039 Y119.186 E39.48859
G1 X66.4 Y119.459 E39.50364
G1 X66.803 Y119.626 E39.51815
G1 X67.244 Y119.685 E39.53295
G1 X67.688 Y119.625 E39.54785
G0 F6000 X67.582 Y119.236
;TYPE:WALL-OUTER
G1 F1200 X67.9 Y119.101 E39.55934
G1 X68.165 Y118.9 E39.5704
G1 X68.375 Y118.623 E39.58196
G1 X68.502 Y118.315 E39.59305
G1 X68.546 Y117.979 E39.60432
G1 X68.502 Y117.641 E39.61565
G1 X68.367 Y117.323 E39.62714
G1 X68.164 Y117.058 E39.63825
G1 X67.888 Y116.848 E39.64978
G1 X67.581 Y116.721 E39.66083
G1 X67.244 Y116.677 E39.67213
G1 X66.907 Y116.721 E39.68344
G1 X66.588 Y116.856 E39.69496
G1 X66.323 Y117.059 E39.70606
G1 X66.114 Y117.335 E39.71758
G1 X65.987 Y117.642 E39.72863
G1 X65.942 Y117.979 E39.73994
G1 X65.987 Y118.316 E39.75124
G1 X66.122 Y118.635 E39.76276
G1 X66.324 Y118.9 E39.77385
G1 X66.6 Y119.109 E39.78536
G1 X66.908 Y119.236 E39.79644
G1 X67.244 Y119.281 E39.80772
G1 X67.582 Y119.236 E39.81906
G0 F6000 X67.698 Y119.66
G1 F2700 E34.81906
G0 F6000 X68.892 Y118.919
G0 X67.618 Y118.193
G0 X115.135 Y118.198
G0 X113.867 Y118.933
G0 X115.504 Y119.685
;TYPE:WALL-INNER
G1 F2700 E39.81906
G1 F1200 X115.948 Y119.625 E39.83396
G1 X116.362 Y119.45 E39.84891
G1 X116.711 Y119.185 E39.86348
G1 X116.985 Y118.823 E39.87859
G1 X117.152 Y118.419 E39.89312
G1 X117.209 Y117.979 E39.90788
G1 X117.152 Y117.535 E39.92277
G1 X116.975 Y117.12 E39.93778
G1 X116.709 Y116.772 E39.95234
G1 X116.349 Y116.498 E39.96739
G1 X115.945 Y116.331 E39.98193
G1 X115.504 Y116.274 E39.99672
G1 X115.061 Y116.331 E40.01158
G1 X114.645 Y116.507 E40.0266
G1 X114.297 Y116.774 E40.04119
G1 X114.024 Y117.135 E40.05624
G1 X113.857 Y117.537 E40.07072
G1 X113.798 Y117.979 E40.08555
G1 X113.858 Y118.422 E40.10042
G1 X114.033 Y118.837 E40.1154
G1 X114.299 Y119.186 E40.13
G1 X114.66 Y119.459 E40.14505
G1 X115.063 Y119.626 E40.15956
G1 X115.504 Y119.685 E40.17436
G0 F6000 X115.504 Y119.281
;TYPE:WALL-OUTER
G1 F1200 X115.842 Y119.236 E40.1857
G1 X116.16 Y119.101 E40.19719
G1 X116.425 Y118.9 E40.20825
G1 X116.635 Y118.623 E40.21981
G1 X116.762 Y118.315 E40.23089
G1 X116.806 Y117.979 E40.24217
G1 X116.762 Y117.641 E40.2535
G1 X116.627 Y117.323 E40.26499
G1 X116.424 Y117.058 E40.27609
G1 X116.148 Y116.848 E40.28763
G1 X115.841 Y116.721 E40.29868
G1 X115.504 Y116.677 E40.30998
G1 X115.167 Y116.721 E40.32129
G1 X114.848 Y116.856 E40.33281
G1 X114.583 Y117.059 E40.34391
G1 X114.374 Y117.335 E40.35543
G1 X114.247 Y117.642 E40.36648
G1 X114.202 Y117.979 E40.37778
G1 X114.247 Y118.316 E40.38909
G1 X114.382 Y118.635 E40.40061
G1 X114.584 Y118.9 E40.4117
G1 X114.86 Y119.109 E40.42321
G1 X115.168 Y119.236 E40.43429
G1 X115.504 Y119.281 E40.44557
G0 F6000 X115.504 Y119.721
G1 F2700 E35.44557
G0 F6000 X114.741 Y119.318
G0 X114.413 Y119.071
G0 X114.174 Y118.756
G0 X114.014 Y118.379
G0 X113.96 Y117.979
G0 X114.014 Y117.58
G0 X114.165 Y117.216
G0 X114.364 Y116.952
G0 X115.504 Y116.082
G0 X115.505 Y117.549
G0 X115.5 Y100.628
G0 X115.504 Y102.097
G0 X115.504 Y101.905
;TYPE:WALL-INNER
G1 F2700 E40.44557
G1 F1200 X115.948 Y101.845 E40.46047
G1 X116.362 Y101.67 E40.47542
G1 X116.711 Y101.405 E40.48999
G1 X116.985 Y101.043 E40.50509
G1 X117.152 Y100.639 E40.51963
G1 X117.209 Y100.199 E40.53439
G1 X117.152 Y99.755 E40.54928
G1 X116.975 Y99.34 E40.56428
G1 X116.709 Y98.992 E40.57885
G1 X116.349 Y98.718 E40.5939
G1 X115.945 Y98.551 E40.60844
G1 X115.504 Y98.494 E40.62323
G1 X115.061 Y98.551 E40.63809
G1 X114.645 Y98.727 E40.65311
G1 X114.297 Y98.994 E40.6677
G1 X114.024 Y99.355 E40.68275
G1 X113.857 Y99.757 E40.69723
G1 X113.798 Y100.199 E40.71206
G1 X113.858 Y100.642 E40.72693
G1 X114.033 Y101.057 E40.74191
G1 X114.299 Y101.406 E40.7565
G1 X114.66 Y101.679 E40.77156
G1 X115.063 Y101.846 E40.78607
G1 X115.504 Y101.905 E40.80087
G0 F6000 X115.504 Y101.501
;TYPE:WALL-OUTER
G1 F1200 X115.842 Y101.456 E40.81221
G1 X116.16 Y101.321 E40.8237
G1 X116.425 Y101.12 E40.83476
G1 X116.635 Y100.843 E40.84632
G1 X116.762 Y100.535 E40.8574
G1 X116.806 Y100.199 E40.86867
G1 X116.762 Y99.861 E40.88001
G1 X116.627 Y99.543 E40.8915
G1 X116.424 Y99.278 E40.9026
G1 X116.148 Y99.068 E40.91414
G1 X115.841 Y98.941 E40.92519
G1 X115.504 Y98.897 E40.93649
G1 X115.167 Y98.941 E40.9478
G1 X114.848 Y99.076 E40.95932
G1 X114.583 Y99.279 E40.97042
G1 X114.374 Y99.555 E40.98193
G1 X114.247 Y99.862 E40.99298
G1 X114.202 Y100.199 E41.00429
G1 X114.247 Y100.536 E41.0156
G1 X114.382 Y100.855 E41.02712
G1 X114.584 Y101.12 E41.0382
G1 X114.86 Y101.329 E41.04972
G1 X115.168 Y101.456 E41.0608
G1 X115.504 Y101.501 E41.07207
