;FLAVOR:Marlin
;TIME:22064
;Filament used: 15.4658m
;Layer height: 0.2
;MINX:49
;MINY:69
;MINZ:0.2
;MAXX:171
;MAXY:151
;MAXZ:50
;Generated with Creality Slicer 4.8.2-218
M140 S70
M105
M190 S70
M104 S235
M105
M109 S235
M82 ;absolute extrusion mode

G28 ;Home

G92 E0 ;Reset Extruder
G1 Z2.0 F3000 ;Move Z Axis up
G1 X10.1 Y20 Z0.28 F5000.0 ;Move to start position
G1 X10.1 Y200.0 Z0.28 F1500.0 E15 ;Draw the first line
G1 X10.4 Y200.0 Z0.28 F5000.0 ;Move to side a little
G1 X10.4 Y20 Z0.28 F1500.0 E30 ;Draw the second line
G92 E0 ;Reset Extruder
G1 Z2.0 F3000 ;Move Z Axis up

G92 E0
G92 E0
G1 F2700 E-5
;LAYER_COUNT:250
;LAYER:0
M107
G0 F6000 X53.626 Y71.051 Z0.2
;TYPE:SKIRT
G1 F2700 E0
G1 F1200 X54.412 Y70.539 E0.0312
G1 X55.239 Y70.097 E0.06239
G1 X56.101 Y69.727 E0.09359
G1 X56.991 Y69.431 E0.12478
G1 X57.903 Y69.213 E0.15597
G1 X58.83 Y69.072 E0.18716
G1 X59.701 Y69.013 E0.21619
G1 X60.022 Y69.004 E0.22687
G1 X60.33 Y69 E0.23712
G1 X159.293 Y69 E3.52864
G1 X160.149 Y69.011 E3.55712
G1 X161.085 Y69.065 E3.5883
G1 X162.013 Y69.197 E3.61947
G1 X162.927 Y69.409 E3.65068
G1 X163.819 Y69.698 E3.68187
G1 X164.684 Y70.061 E3.71307
G1 X165.514 Y70.497 E3.74425
G1 X166.305 Y71.002 E3.77546
G1 X167.049 Y71.573 E3.80666
G1 X167.742 Y72.205 E3.83785
G1 X168.379 Y72.893 E3.86904
G1 X168.954 Y73.634 E3.90023
G1 X169.465 Y74.42 E3.93142
G1 X169.907 Y75.248 E3.96263
G1 X170.276 Y76.11 E3.99382
G1 X170.571 Y77 E4.025
G1 X170.789 Y77.912 E4.05619
G1 X170.929 Y78.84 E4.08741
G1 X170.987 Y79.701 E4.11611
G1 X170.996 Y80.021 E4.12676
G1 X171 Y80.33 E4.13703
G1 X170.999 Y139.4 E6.10171
G1 X170.99 Y140.127 E6.12589
G1 X170.939 Y141.064 E6.1571
G1 X170.807 Y141.992 E6.18828
G1 X170.598 Y142.906 E6.21946
G1 X170.311 Y143.799 E6.25066
G1 X169.949 Y144.665 E6.28188
G1 X169.515 Y145.496 E6.31306
G1 X169.011 Y146.287 E6.34426
G1 X168.442 Y147.032 E6.37544
G1 X167.811 Y147.727 E6.40666
G1 X167.124 Y148.365 E6.43784
G1 X166.385 Y148.942 E6.46903
G1 X165.599 Y149.454 E6.50023
G1 X164.773 Y149.897 E6.5314
G1 X163.911 Y150.269 E6.56263
G1 X163.022 Y150.565 E6.59379
G1 X162.11 Y150.785 E6.62499
G1 X161.183 Y150.926 E6.65618
G1 X160.299 Y150.987 E6.68565
G1 X159.978 Y150.996 E6.69633
G1 X159.67 Y151 E6.70658
G1 X60.565 Y150.999 E10.00282
G1 X59.867 Y150.99 E10.02604
G1 X58.931 Y150.938 E10.05722
G1 X58.002 Y150.806 E10.08843
G1 X57.088 Y150.596 E10.11962
G1 X56.195 Y150.309 E10.15082
G1 X55.33 Y149.946 E10.18202
G1 X54.499 Y149.512 E10.2132
G1 X53.708 Y149.008 E10.2444
G1 X52.963 Y148.438 E10.2756
G1 X52.269 Y147.807 E10.30679
G1 X51.632 Y147.12 E10.33795
G1 X51.055 Y146.38 E10.36916
G1 X50.543 Y145.594 E10.40036
G1 X50.1 Y144.767 E10.43157
G1 X49.729 Y143.906 E10.46275
G1 X49.433 Y143.016 E10.49395
G1 X49.214 Y142.104 E10.52514
G1 X49.073 Y141.177 E10.55633
G1 X49.013 Y140.288 E10.58596
G1 X49.004 Y139.955 E10.59704
G1 X49 Y139.658 E10.60692
G1 X49.001 Y80.525 E12.57369
G1 X49.01 Y79.86 E12.59581
G1 X49.063 Y78.924 E12.627
G1 X49.195 Y77.995 E12.6582
G1 X49.406 Y77.081 E12.6894
G1 X49.694 Y76.189 E12.72058
G1 X50.057 Y75.324 E12.75178
G1 X50.492 Y74.493 E12.78298
G1 X50.996 Y73.703 E12.81414
G1 X51.566 Y72.958 E12.84534
G1 X52.198 Y72.264 E12.87656
G1 X52.886 Y71.627 E12.90775
G1 X53.626 Y71.051 E12.93894
G0 F6000 X54.01 Y71.27
G1 F1200 X54.791 Y70.782 E12.96957
G1 X55.611 Y70.364 E13.00018
G1 X56.465 Y70.019 E13.03082
G1 X57.345 Y69.749 E13.06143
G1 X58.245 Y69.557 E13.09204
G1 X59.159 Y69.443 E13.12267
G1 X59.712 Y69.413 E13.14109
G1 X60.033 Y69.404 E13.15177
G1 X60.33 Y69.4 E13.16165
G1 X159.293 Y69.4 E16.45318
G1 X160.143 Y69.411 E16.48145
G1 X161.062 Y69.464 E16.51207
G1 X161.973 Y69.597 E16.54269
G1 X162.869 Y69.808 E16.5733
G1 X163.743 Y70.096 E16.60391
G1 X164.59 Y70.459 E16.63456
G1 X165.401 Y70.894 E16.66517
G1 X166.171 Y71.398 E16.69578
G1 X166.895 Y71.967 E16.72641
G1 X167.567 Y72.597 E16.75704
G1 X168.182 Y73.282 E16.78766
G1 X168.735 Y74.018 E16.81828
G1 X169.222 Y74.799 E16.84889
G1 X169.639 Y75.62 E16.87952
G1 X169.984 Y76.474 E16.91015
G1 X170.253 Y77.354 E16.94076
G1 X170.445 Y78.255 E16.9714
G1 X170.558 Y79.168 E17.002
G1 X170.587 Y79.712 E17.02012
G1 X170.596 Y80.032 E17.03076
G1 X170.6 Y80.33 E17.04068
G1 X170.599 Y139.395 E19.00519
G1 X170.59 Y140.122 E19.02937
G1 X170.539 Y141.041 E19.05998
G1 X170.408 Y141.953 E19.09063
G1 X170.198 Y142.849 E19.12124
G1 X169.912 Y143.724 E19.15185
G1 X169.551 Y144.571 E19.18248
G1 X169.117 Y145.383 E19.2131
G1 X168.615 Y146.155 E19.24373
G1 X168.047 Y146.88 E19.27436
G1 X167.419 Y147.553 E19.30498
G1 X166.735 Y148.169 E19.33559
G1 X166 Y148.723 E19.3662
G1 X165.22 Y149.212 E19.39682
G1 X164.4 Y149.631 E19.42745
G1 X163.547 Y149.977 E19.45807
G1 X162.667 Y150.248 E19.48869
G1 X161.767 Y150.441 E19.51931
G1 X160.853 Y150.556 E19.54995
G1 X160.288 Y150.587 E19.56877
G1 X159.967 Y150.596 E19.57945
G1 X159.67 Y150.6 E19.58933
G1 X60.57 Y150.599 E22.88541
G1 X59.872 Y150.59 E22.90862
G1 X58.953 Y150.538 E22.93924
G1 X58.042 Y150.407 E22.96985
G1 X57.146 Y150.197 E23.00046
G1 X56.271 Y149.91 E23.03109
G1 X55.424 Y149.548 E23.06172
G1 X54.612 Y149.114 E23.09235
G1 X53.841 Y148.612 E23.12295
G1 X53.116 Y148.044 E23.15358
G1 X52.443 Y147.415 E23.18422
G1 X51.828 Y146.731 E23.21481
G1 X51.274 Y145.996 E23.24542
G1 X50.786 Y145.215 E23.27605
G1 X50.367 Y144.395 E23.30668
G1 X50.021 Y143.542 E23.3373
G1 X49.751 Y142.662 E23.36791
G1 X49.558 Y141.761 E23.39856
G1 X49.444 Y140.848 E23.42916
G1 X49.413 Y140.277 E23.44818
G1 X49.404 Y139.944 E23.45926
G1 X49.4 Y139.658 E23.46878
G1 X49.401 Y80.531 E25.43535
G1 X49.41 Y79.866 E25.45747
G1 X49.462 Y78.946 E25.48812
G1 X49.594 Y78.035 E25.51873
G1 X49.805 Y77.139 E25.54935
G1 X50.092 Y76.264 E25.57998
G1 X50.455 Y75.418 E25.6106
G1 X50.889 Y74.606 E25.64122
G1 X51.392 Y73.835 E25.67184
G1 X51.961 Y73.111 E25.70246
G1 X52.589 Y72.439 E25.73306
G1 X53.274 Y71.823 E25.7637
G1 X54.01 Y71.27 E25.79432
G0 F6000 X54.394 Y71.494
G1 F1200 X55.169 Y71.031 E25.82434
G1 X55.982 Y70.638 E25.85438
G1 X56.827 Y70.318 E25.88443
G1 X57.696 Y70.075 E25.91444
G1 X58.584 Y69.909 E25.94449
G1 X59.723 Y69.813 E25.9825
G1 X60.044 Y69.804 E25.99318
G1 X60.33 Y69.8 E26.0027
G1 X159.293 Y69.8 E29.29422
G1 X160.137 Y69.811 E29.32229
G1 X161.039 Y69.864 E29.35235
G1 X161.932 Y69.996 E29.38237
G1 X162.81 Y70.207 E29.41241
G1 X163.666 Y70.495 E29.44244
G1 X164.493 Y70.857 E29.47247
G1 X165.285 Y71.292 E29.50252
G1 X166.036 Y71.794 E29.53257
G1 X166.739 Y72.361 E29.56261
G1 X167.389 Y72.988 E29.59265
G1 X167.981 Y73.67 E29.62268
G1 X168.511 Y74.401 E29.65271
G1 X168.973 Y75.177 E29.68275
G1 X169.366 Y75.99 E29.71279
G1 X169.684 Y76.835 E29.74282
G1 X169.927 Y77.705 E29.77286
G1 X170.092 Y78.593 E29.8029
G1 X170.187 Y79.723 E29.84062
G1 X170.196 Y80.043 E29.85126
G1 X170.2 Y80.33 E29.86081
G1 X170.199 Y139.39 E31.82515
G1 X170.19 Y140.117 E31.84934
G1 X170.139 Y141.019 E31.87938
G1 X170.008 Y141.913 E31.90944
G1 X169.799 Y142.791 E31.93945
G1 X169.513 Y143.648 E31.9695
G1 X169.152 Y144.476 E31.99955
G1 X168.72 Y145.268 E32.02955
G1 X168.219 Y146.02 E32.05961
G1 X167.653 Y146.724 E32.08965
G1 X167.028 Y147.375 E32.11967
G1 X166.347 Y147.969 E32.14972
G1 X165.616 Y148.5 E32.17977
G1 X164.842 Y148.964 E32.20979
G1 X164.029 Y149.358 E32.23984
G1 X163.185 Y149.678 E32.26986
G1 X162.315 Y149.923 E32.29992
G1 X161.428 Y150.089 E32.32993
G1 X160.277 Y150.187 E32.36835
G1 X159.956 Y150.196 E32.37904
G1 X159.67 Y150.2 E32.38855
G1 X60.575 Y150.199 E35.68446
G1 X59.877 Y150.19 E35.70768
G1 X58.976 Y150.139 E35.73769
G1 X58.082 Y150.007 E35.76775
G1 X57.204 Y149.798 E35.79777
G1 X56.347 Y149.511 E35.82783
G1 X55.52 Y149.15 E35.85784
G1 X54.727 Y148.717 E35.88789
G1 X53.976 Y148.216 E35.91792
G1 X53.272 Y147.65 E35.94796
G1 X52.621 Y147.024 E35.978
G1 X52.028 Y146.343 E36.00804
G1 X51.498 Y145.612 E36.03807
G1 X51.034 Y144.837 E36.06811
G1 X50.64 Y144.024 E36.09816
G1 X50.32 Y143.18 E36.12818
G1 X50.076 Y142.31 E36.15823
G1 X49.91 Y141.422 E36.18828
G1 X49.813 Y140.267 E36.22683
G1 X49.804 Y139.934 E36.23791
G1 X49.8 Y139.658 E36.24709
G1 X49.801 Y80.536 E38.2135
G1 X49.81 Y79.871 E38.23562
G1 X49.862 Y78.969 E38.26567
G1 X49.994 Y78.076 E38.29569
G1 X50.204 Y77.198 E38.32572
G1 X50.491 Y76.341 E38.35578
G1 X50.853 Y75.514 E38.3858
G1 X51.286 Y74.722 E38.41583
G1 X51.788 Y73.971 E38.44587
G1 X52.355 Y73.267 E38.47594
G1 X52.981 Y72.617 E38.50595
G1 X53.662 Y72.024 E38.53598
G1 X54.394 Y71.494 E38.56604
G1 F2700 E33.56604
;MESH:Case.stl
G0 F6000 X60.81 Y79.335
G0 X60.81 Y80.81
G0 X60.782 Y139.218
G0 X159.4 Y139.4
;TYPE:WALL-INNER
G1 F2700 E38.56604
G1 F1200 X60.6 Y139.4 E41.85214
G1 X60.6 Y80.6 E43.80784
G1 X159.4 Y80.6 E47.09394
G1 X159.4 Y139.4 E49.04964
G0 F6000 X159.8 Y139.8
;TYPE:WALL-OUTER
G1 F1200 X60.2 Y139.8 E52.36235
G1 X60.2 Y80.2 E54.34465
G1 X159.8 Y80.2 E57.65736
G1 X159.8 Y139.8 E59.63966
G0 F6000 X159.53 Y139.53
G0 X159.29 Y139.01
G0 X159.01 Y139.01
;TYPE:SKIN
G1 F1200 X60.99 Y139.01 E62.89982
G1 X60.99 Y80.99 E64.82958
G1 X159.01 Y80.99 E68.08973
G1 X159.01 Y139.01 E70.01949
G1 F2700 E65.01949
G0 F6000 X159.29 Y139.01
G0 X159.29 Y81.35
G0 X158.849 Y81.35
G1 F2700 E70.01949
G1 F1200 X158.648 Y81.149 E70.02894
G0 F6000 X158.082 Y81.149
G1 F1200 X158.849 Y81.916 E70.06502
G0 F6000 X158.849 Y82.481
G1 F1200 X157.517 Y81.149 E70.12767
G0 F6000 X156.951 Y81.149
G1 F1200 X158.849 Y83.047 E70.21695
G0 F6000 X158.849 Y83.613
G1 F1200 X156.385 Y81.149 E70.33285
G0 F6000 X155.82 Y81.149
G1 F1200 X158.849 Y84.178 E70.47532
G0 F6000 X158.849 Y84.744
G1 F1200 X155.254 Y81.149 E70.64442
G0 F6000 X154.688 Y81.149
G1 F1200 X158.849 Y85.31 E70.84014
G0 F6000 X158.849 Y85.875
G1 F1200 X154.123 Y81.149 E71.06244
G0 F6000 X153.557 Y81.149
G1 F1200 X158.849 Y86.441 E71.31136
G0 F6000 X158.849 Y87.007
G1 F1200 X152.991 Y81.149 E71.5869
G0 F6000 X152.426 Y81.149
G1 F1200 X158.849 Y87.573 E71.88904
G0 F6000 X158.849 Y88.138
G1 F1200 X151.86 Y81.149 E72.21778
G0 F6000 X151.294 Y81.149
G1 F1200 X158.849 Y88.704 E72.57315
G0 F6000 X158.849 Y89.27
G1 F1200 X150.729 Y81.149 E72.95511
G0 F6000 X150.163 Y81.149
G1 F1200 X158.849 Y89.835 E73.36367
G0 F6000 X158.849 Y90.401
G1 F1200 X149.597 Y81.149 E73.79886
G0 F6000 X149.031 Y81.149
G1 F1200 X158.849 Y90.967 E74.26067
G0 F6000 X158.849 Y91.532
G1 F1200 X148.466 Y81.149 E74.74905
G0 F6000 X147.9 Y81.149
G1 F1200 X158.849 Y92.098 E75.26406
G0 F6000 X158.849 Y92.664
G1 F1200 X147.334 Y81.149 E75.80569
G0 F6000 X146.769 Y81.149
G1 F1200 X158.849 Y93.229 E76.37389
G0 F6000 X158.849 Y93.795
G1 F1200 X146.203 Y81.149 E76.96872
G0 F6000 X145.637 Y81.149
G1 F1200 X158.849 Y94.361 E77.59018
G0 F6000 X158.849 Y94.926
G1 F1200 X145.072 Y81.149 E78.2382
G0 F6000 X144.506 Y81.149
G1 F1200 X158.849 Y95.492 E78.91285
G0 F6000 X158.849 Y96.058
G1 F1200 X143.94 Y81.149 E79.61413
G0 F6000 X143.375 Y81.149
G1 F1200 X158.849 Y96.624 E80.342
G0 F6000 X158.849 Y97.189
G1 F1200 X142.809 Y81.149 E81.09647
G0 F6000 X142.243 Y81.149
G1 F1200 X158.849 Y97.755 E81.87757
G0 F6000 X158.849 Y98.321
G1 F1200 X141.678 Y81.149 E82.68526
G0 F6000 X141.112 Y81.149
G1 F1200 X158.849 Y98.886 E83.51956
G0 F6000 X158.849 Y99.452
G1 F1200 X140.546 Y81.149 E84.38047
G0 F6000 X139.98 Y81.149
G1 F1200 X158.849 Y100.018 E85.26801
G0 F6000 X158.849 Y100.583
G1 F1200 X139.415 Y81.149 E86.18213
G0 F6000 X138.849 Y81.149
G1 F1200 X158.849 Y101.149 E87.12287
G0 F6000 X158.849 Y101.715
G1 F1200 X138.283 Y81.149 E88.09023
G0 F6000 X137.718 Y81.149
G1 F1200 X158.849 Y102.28 E89.08417
G0 F6000 X158.849 Y102.846
G1 F1200 X137.152 Y81.149 E90.10473
G0 F6000 X136.586 Y81.149
G1 F1200 X158.849 Y103.412 E91.15191
G0 F6000 X158.849 Y103.977
G1 F1200 X136.021 Y81.149 E92.22567
G0 F6000 X135.455 Y81.149
G1 F1200 X158.849 Y104.543 E93.32605
G0 F6000 X158.849 Y105.109
G1 F1200 X134.889 Y81.149 E94.45306
G0 F6000 X134.324 Y81.149
G1 F1200 X158.849 Y105.674 E95.60664
G0 F6000 X158.849 Y106.24
G1 F1200 X133.758 Y81.149 E96.78684
G0 F6000 X133.192 Y81.149
G1 F1200 X158.849 Y106.806 E97.99367
G0 F6000 X158.849 Y107.372
G1 F1200 X132.627 Y81.149 E99.2271
G0 F6000 X132.061 Y81.149
G1 F1200 X158.849 Y107.937 E100.48712
G0 F6000 X158.849 Y108.503
G1 F1200 X131.495 Y81.149 E101.77377
G0 F6000 X130.93 Y81.149
G1 F1200 X158.849 Y109.069 E103.08702
G0 F6000 X158.849 Y109.634
G1 F1200 X130.364 Y81.149 E104.42686
G0 F6000 X129.798 Y81.149
G1 F1200 X158.849 Y110.2 E105.79333
G0 F6000 X158.849 Y110.766
G1 F1200 X129.232 Y81.149 E107.18643
G0 F6000 X128.667 Y81.149
G1 F1200 X158.849 Y111.331 E108.6061
G0 F6000 X158.849 Y111.897
G1 F1200 X128.101 Y81.149 E110.05239
G0 F6000 X127.535 Y81.149
G1 F1200 X158.849 Y112.463 E111.5253
G0 F6000 X158.849 Y113.028
G1 F1200 X126.97 Y81.149 E113.02479
G0 F6000 X126.404 Y81.149
G1 F1200 X158.849 Y113.594 E114.55091
G0 F6000 X158.849 Y114.16
G1 F1200 X125.838 Y81.149 E116.10364
G0 F6000 X125.273 Y81.149
G1 F1200 X158.849 Y114.725 E117.68295
G0 F6000 X158.849 Y115.291
G1 F1200 X124.707 Y81.149 E119.28889
G0 F6000 X124.141 Y81.149
G1 F1200 X158.849 Y115.857 E120.92145
G0 F6000 X158.849 Y116.423
G1 F1200 X123.576 Y81.149 E122.5806
G0 F6000 X123.01 Y81.149
G1 F1200 X158.849 Y116.988 E124.26636
G0 F6000 X158.849 Y117.554
G1 F1200 X122.444 Y81.149 E125.97874
G0 F6000 X121.879 Y81.149
G1 F1200 X158.849 Y118.12 E127.71772
G0 F6000 X158.849 Y118.685
G1 F1200 X121.313 Y81.149 E129.4833
G0 F6000 X120.747 Y81.149
G1 F1200 X158.849 Y119.251 E131.2755
G0 F6000 X158.849 Y119.817
G1 F1200 X120.181 Y81.149 E133.09432
G0 F6000 X119.616 Y81.149
G1 F1200 X158.849 Y120.382 E134.93972
G0 F6000 X158.849 Y120.948
G1 F1200 X119.05 Y81.149 E136.81175
G0 F6000 X118.484 Y81.149
G1 F1200 X158.849 Y121.514 E138.71039
G0 F6000 X158.849 Y122.079
G1 F1200 X117.919 Y81.149 E140.63561
G0 F6000 X117.353 Y81.149
G1 F1200 X158.849 Y122.645 E142.58746
G0 F6000 X158.849 Y123.211
G1 F1200 X116.787 Y81.149 E144.56593
G0 F6000 X116.222 Y81.149
G1 F1200 X158.849 Y123.776 E146.57097
G0 F6000 X158.849 Y124.342
G1 F1200 X115.656 Y81.149 E148.60263
G0 F6000 X115.09 Y81.149
G1 F1200 X158.849 Y124.908 E150.66092
G0 F6000 X158.849 Y125.473
G1 F1200 X114.525 Y81.149 E152.74579
G0 F6000 X113.959 Y81.149
G1 F1200 X158.849 Y126.039 E154.85728
G0 F6000 X158.849 Y126.605
G1 F1200 X113.393 Y81.149 E156.99539
G0 F6000 X112.828 Y81.149
G1 F1200 X158.849 Y127.171 E159.1601
G0 F6000 X158.849 Y127.736
G1 F1200 X112.262 Y81.149 E161.35141
G0 F6000 X111.696 Y81.149
G1 F1200 X158.849 Y128.302 E163.56934
G0 F6000 X158.849 Y128.868
G1 F1200 X111.131 Y81.149 E165.81387
G0 F6000 X110.565 Y81.149
G1 F1200 X158.849 Y129.433 E168.085
G0 F6000 X158.849 Y129.999
G1 F1200 X109.999 Y81.149 E170.38276
G0 F6000 X109.433 Y81.149
G1 F1200 X158.849 Y130.565 E172.70714
G0 F6000 X158.849 Y131.13
G1 F1200 X108.868 Y81.149 E175.05809
G0 F6000 X108.302 Y81.149
G1 F1200 X158.849 Y131.696 E177.43566
G0 F6000 X158.849 Y132.262
G1 F1200 X107.736 Y81.149 E179.83986
G0 F6000 X107.171 Y81.149
G1 F1200 X158.849 Y132.827 E182.27064
G0 F6000 X158.849 Y133.393
G1 F1200 X106.605 Y81.149 E184.72804
G0 F6000 X106.039 Y81.149
G1 F1200 X158.849 Y133.959 E187.21206
G0 F6000 X158.849 Y134.524
G1 F1200 X105.474 Y81.149 E189.72265
G0 F6000 X104.908 Y81.149
G1 F1200 X158.849 Y135.09 E192.25987
G0 F6000 X158.849 Y135.656
G1 F1200 X104.342 Y81.149 E194.82371
G0 F6000 X103.777 Y81.149
G1 F1200 X158.849 Y136.222 E197.41415
G0 F6000 X158.849 Y136.787
G1 F1200 X103.211 Y81.149 E200.0312
G0 F6000 X102.645 Y81.149
G1 F1200 X158.849 Y137.353 E202.67486
G0 F6000 X158.849 Y137.919
G1 F1200 X102.08 Y81.149 E205.34512
G0 F6000 X101.514 Y81.149
G1 F1200 X158.849 Y138.484 E208.04199
