;FLAVOR:Marlin
;TIME:331
;Filament used: 0.0538101m
;Layer height: 0.12
;MINX:97
;MINY:96
;MINZ:0.12
;MAXX:123
;MAXY:124
;MAXZ:6
;Generated with Creality Slicer 4.8.2-218
M140 S70
M105
M190 S70
M104 S235
M105
M109 S235
M82 ;absolute extrusion mode

G28 ;Home

G92 E0 ;Reset Extruder
G1 Z2.0 F3000 ;Move Z Axis up
G1 X10.1 Y20 Z0.28 F5000.0 ;Move to start position
G1 X10.1 Y200.0 Z0.28 F1500.0 E15 ;Draw the first line
G1 X10.4 Y200.0 Z0.28 F5000.0 ;Move to side a little
G1 X10.4 Y20 Z0.28 F1500.0 E30 ;Draw the second line
G92 E0 ;Reset Extruder
G1 Z2.0 F3000 ;Move Z Axis up

G92 E0
G92 E0
G1 F2700 E-5
;LAYER_COUNT:50
;LAYER:0
M107
G0 F6000 X100.198 Y99.264 Z0.12
;TYPE:SKIRT
G1 F2700 E0
G1 F1200 X100.886 Y98.627 E0.01871
G1 X101.626 Y98.051 E0.03742
G1 X102.412 Y97.539 E0.05614
G1 X103.239 Y97.097 E0.07486
G1 X104.101 Y96.727 E0.09358
G1 X104.991 Y96.431 E0.11229
G1 X105.903 Y96.213 E0.13101
G1 X106.83 Y96.072 E0.14972
G1 X107.701 Y96.013 E0.16714
G1 X108.022 Y96.004 E0.17355
G1 X108.33 Y96 E0.1797
G1 X111.293 Y96 E0.23883
G1 X112.149 Y96.011 E0.25591
G1 X113.085 Y96.065 E0.27462
G1 X114.013 Y96.197 E0.29333
G1 X114.927 Y96.409 E0.31205
G1 X115.819 Y96.698 E0.33076
G1 X116.684 Y97.061 E0.34948
G1 X117.514 Y97.497 E0.36819
G1 X118.305 Y98.002 E0.38692
G1 X119.049 Y98.573 E0.40564
G1 X119.742 Y99.205 E0.42435
G1 X120.379 Y99.893 E0.44306
G1 X120.954 Y100.634 E0.46178
G1 X121.465 Y101.42 E0.48049
G1 X121.907 Y102.248 E0.49922
G1 X122.276 Y103.11 E0.51793
G1 X122.571 Y104 E0.53664
G1 X122.789 Y104.912 E0.55536
G1 X122.929 Y105.84 E0.57409
G1 X122.987 Y106.701 E0.59131
G1 X122.996 Y107.021 E0.59769
G1 X123 Y107.33 E0.60386
G1 X122.999 Y112.4 E0.70504
G1 X122.99 Y113.127 E0.71955
G1 X122.939 Y114.064 E0.73827
G1 X122.807 Y114.992 E0.75698
G1 X122.598 Y115.906 E0.77569
G1 X122.311 Y116.799 E0.79441
G1 X121.949 Y117.665 E0.81314
G1 X121.515 Y118.496 E0.83185
G1 X121.011 Y119.287 E0.85057
G1 X120.442 Y120.032 E0.86927
G1 X119.811 Y120.727 E0.88801
G1 X119.124 Y121.365 E0.90672
G1 X118.385 Y121.942 E0.92543
G1 X117.599 Y122.454 E0.94415
G1 X116.773 Y122.897 E0.96285
G1 X115.911 Y123.269 E0.98159
G1 X115.022 Y123.565 E1.00029
G1 X114.11 Y123.785 E1.01901
G1 X113.183 Y123.926 E1.03772
G1 X112.299 Y123.987 E1.0554
G1 X111.978 Y123.996 E1.06181
G1 X111.67 Y124 E1.06796
G1 X108.565 Y123.999 E1.12992
G1 X107.867 Y123.99 E1.14385
G1 X106.931 Y123.938 E1.16256
G1 X106.002 Y123.806 E1.18129
G1 X105.088 Y123.596 E1.2
G1 X104.195 Y123.309 E1.21872
G1 X103.33 Y122.946 E1.23744
G1 X102.499 Y122.512 E1.25615
G1 X101.708 Y122.008 E1.27487
G1 X100.963 Y121.438 E1.29359
G1 X100.269 Y120.807 E1.3123
G1 X99.632 Y120.12 E1.331
G1 X99.055 Y119.38 E1.34973
G1 X98.543 Y118.594 E1.36845
G1 X98.1 Y117.767 E1.38717
G1 X97.729 Y116.906 E1.40588
G1 X97.433 Y116.016 E1.4246
G1 X97.214 Y115.104 E1.44331
G1 X97.073 Y114.177 E1.46203
G1 X97.013 Y113.288 E1.47981
G1 X97.004 Y112.955 E1.48645
G1 X97 Y112.658 E1.49238
G1 X97.001 Y107.525 E1.59482
G1 X97.01 Y106.86 E1.60809
G1 X97.063 Y105.924 E1.6268
G1 X97.195 Y104.995 E1.64552
G1 X97.406 Y104.081 E1.66424
G1 X97.694 Y103.189 E1.68295
G1 X98.057 Y102.324 E1.70167
G1 X98.492 Y101.493 E1.72039
G1 X98.996 Y100.703 E1.73909
G1 X99.566 Y99.958 E1.75781
G1 X100.198 Y99.264 E1.77654
G0 F6000 X100.589 Y99.439
G1 F1200 X101.274 Y98.823 E1.79492
G1 X102.01 Y98.27 E1.81329
G1 X102.791 Y97.782 E1.83167
G1 X103.611 Y97.364 E1.85004
G1 X104.465 Y97.019 E1.86842
G1 X105.345 Y96.749 E1.88679
G1 X106.245 Y96.557 E1.90515
G1 X107.159 Y96.443 E1.92354
G1 X107.712 Y96.413 E1.93459
G1 X108.033 Y96.404 E1.941
G1 X108.33 Y96.4 E1.94692
G1 X111.293 Y96.4 E2.00605
G1 X112.143 Y96.411 E2.02302
G1 X113.062 Y96.464 E2.04139
G1 X113.973 Y96.597 E2.05976
G1 X114.869 Y96.808 E2.07813
G1 X115.743 Y97.096 E2.09649
G1 X116.59 Y97.459 E2.11488
G1 X117.401 Y97.894 E2.13325
G1 X118.171 Y98.398 E2.15161
G1 X118.895 Y98.967 E2.16999
G1 X119.567 Y99.597 E2.18837
G1 X120.182 Y100.282 E2.20674
G1 X120.735 Y101.018 E2.22512
G1 X121.222 Y101.799 E2.24348
G1 X121.639 Y102.62 E2.26186
G1 X121.984 Y103.474 E2.28024
G1 X122.253 Y104.354 E2.2986
G1 X122.445 Y105.255 E2.31699
G1 X122.558 Y106.168 E2.33535
G1 X122.587 Y106.712 E2.34622
G1 X122.596 Y107.032 E2.35261
G1 X122.6 Y107.33 E2.35855
G1 X122.599 Y112.395 E2.45963
G1 X122.59 Y113.122 E2.47414
G1 X122.539 Y114.041 E2.49251
G1 X122.408 Y114.953 E2.5109
G1 X122.198 Y115.849 E2.52926
G1 X121.912 Y116.724 E2.54763
G1 X121.551 Y117.571 E2.56601
G1 X121.117 Y118.383 E2.58438
G1 X120.615 Y119.155 E2.60276
G1 X120.047 Y119.88 E2.62114
G1 X119.419 Y120.553 E2.63951
G1 X118.735 Y121.169 E2.65787
G1 X118 Y121.723 E2.67624
G1 X117.22 Y122.212 E2.69461
G1 X116.4 Y122.631 E2.71299
G1 X115.547 Y122.977 E2.73136
G1 X114.667 Y123.248 E2.74974
G1 X113.767 Y123.441 E2.7681
G1 X112.853 Y123.556 E2.78649
G1 X112.288 Y123.587 E2.79778
G1 X111.967 Y123.596 E2.80419
G1 X111.67 Y123.6 E2.81012
G1 X108.57 Y123.599 E2.87198
G1 X107.872 Y123.59 E2.88591
G1 X106.953 Y123.538 E2.90428
G1 X106.042 Y123.407 E2.92265
G1 X105.146 Y123.197 E2.94101
G1 X104.271 Y122.91 E2.95939
G1 X103.424 Y122.548 E2.97777
G1 X102.612 Y122.114 E2.99614
G1 X101.841 Y121.612 E3.0145
G1 X101.116 Y121.044 E3.03288
G1 X100.443 Y120.415 E3.05127
G1 X99.828 Y119.731 E3.06962
G1 X99.274 Y118.996 E3.08799
G1 X98.786 Y118.215 E3.10637
G1 X98.367 Y117.395 E3.12474
G1 X98.021 Y116.542 E3.14311
G1 X97.751 Y115.662 E3.16148
G1 X97.558 Y114.761 E3.17987
G1 X97.444 Y113.848 E3.19823
G1 X97.413 Y113.277 E3.20965
G1 X97.404 Y112.944 E3.21629
G1 X97.4 Y112.658 E3.222
G1 X97.401 Y107.531 E3.32432
G1 X97.41 Y106.866 E3.33759
G1 X97.462 Y105.946 E3.35598
G1 X97.594 Y105.035 E3.37435
G1 X97.805 Y104.139 E3.39272
G1 X98.092 Y103.264 E3.41109
G1 X98.455 Y102.418 E3.42946
G1 X98.889 Y101.606 E3.44784
G1 X99.392 Y100.835 E3.46621
G1 X99.961 Y100.111 E3.48459
G1 X100.589 Y99.439 E3.50294
G0 F6000 X100.981 Y99.617
G1 F1200 X101.662 Y99.024 E3.52096
G1 X102.394 Y98.494 E3.539
G1 X103.169 Y98.031 E3.55701
G1 X103.982 Y97.638 E3.57503
G1 X104.827 Y97.318 E3.59306
G1 X105.696 Y97.075 E3.61107
G1 X106.584 Y96.909 E3.6291
G1 X107.723 Y96.813 E3.65191
G1 X108.044 Y96.804 E3.65832
G1 X108.33 Y96.8 E3.66403
G1 X111.293 Y96.8 E3.72316
G1 X112.137 Y96.811 E3.74
G1 X113.039 Y96.864 E3.75803
G1 X113.932 Y96.996 E3.77605
G1 X114.81 Y97.207 E3.79407
G1 X115.666 Y97.495 E3.81209
G1 X116.493 Y97.857 E3.8301
G1 X117.285 Y98.292 E3.84814
G1 X118.036 Y98.794 E3.86616
G1 X118.739 Y99.361 E3.88419
G1 X119.389 Y99.988 E3.90221
G1 X119.981 Y100.67 E3.92023
G1 X120.511 Y101.401 E3.93825
G1 X120.973 Y102.177 E3.95627
G1 X121.366 Y102.99 E3.97429
G1 X121.684 Y103.835 E3.99231
G1 X121.927 Y104.705 E4.01034
G1 X122.092 Y105.593 E4.02836
G1 X122.187 Y106.723 E4.05099
G1 X122.196 Y107.043 E4.05738
G1 X122.2 Y107.33 E4.06311
G1 X122.199 Y112.39 E4.16409
G1 X122.19 Y113.117 E4.1786
G1 X122.139 Y114.019 E4.19662
G1 X122.008 Y114.913 E4.21466
G1 X121.799 Y115.791 E4.23267
G1 X121.513 Y116.648 E4.2507
G1 X121.152 Y117.476 E4.26872
G1 X120.72 Y118.268 E4.28673
G1 X120.219 Y119.02 E4.30476
G1 X119.653 Y119.724 E4.32279
G1 X119.028 Y120.375 E4.34079
G1 X118.347 Y120.969 E4.35883
G1 X117.616 Y121.5 E4.37686
G1 X116.842 Y121.964 E4.39487
G1 X116.029 Y122.358 E4.4129
G1 X115.185 Y122.678 E4.43091
G1 X114.315 Y122.923 E4.44895
G1 X113.428 Y123.089 E4.46695
G1 X112.277 Y123.187 E4.49001
G1 X111.956 Y123.196 E4.49642
G1 X111.67 Y123.2 E4.50212
G1 X108.575 Y123.199 E4.56389
G1 X107.877 Y123.19 E4.57782
G1 X106.976 Y123.139 E4.59583
G1 X106.082 Y123.007 E4.61386
G1 X105.204 Y122.798 E4.63187
G1 X104.347 Y122.511 E4.64991
G1 X103.52 Y122.15 E4.66792
G1 X102.727 Y121.717 E4.68595
G1 X101.976 Y121.216 E4.70396
G1 X101.272 Y120.65 E4.72199
G1 X100.621 Y120.024 E4.74001
G1 X100.028 Y119.343 E4.75803
G1 X99.498 Y118.612 E4.77605
G1 X99.034 Y117.837 E4.79408
G1 X98.64 Y117.024 E4.81211
G1 X98.32 Y116.18 E4.83012
G1 X98.076 Y115.31 E4.84815
G1 X97.91 Y114.422 E4.86618
G1 X97.813 Y113.267 E4.88931
G1 X97.804 Y112.934 E4.89596
G1 X97.8 Y112.658 E4.90147
G1 X97.801 Y107.536 E5.00368
G1 X97.81 Y106.871 E5.01695
G1 X97.862 Y105.969 E5.03498
G1 X97.994 Y105.076 E5.053
G1 X98.204 Y104.198 E5.07101
G1 X98.491 Y103.341 E5.08905
G1 X98.853 Y102.514 E5.10706
G1 X99.286 Y101.722 E5.12508
G1 X99.788 Y100.971 E5.1431
G1 X100.355 Y100.267 E5.16114
G1 X100.981 Y99.617 E5.17915
G1 F2700 E0.17915
;MESH:BoltLocker.stl
G0 F6000 X108.414 Y106.335
G0 X108.414 Y107.414
G0 X109.182 Y111.818
G0 X111 Y112
;TYPE:WALL-INNER
G1 F2700 E5.17915
G1 F1200 X109 Y112 E5.21906
G1 X109 Y108 E5.29889
G1 X111 Y108 E5.3388
G1 X111 Y112 E5.41863
G0 F6000 X111.4 Y112.4
G1 F1200 X108.6 Y112.4 E5.4745
G1 X108.6 Y107.6 E5.57029
G1 X111.4 Y107.6 E5.62617
G1 X111.4 Y112.4 E5.72196
G0 F6000 X111.8 Y112.8
;TYPE:WALL-OUTER
G1 F1200 X108.2 Y112.8 E5.7938
G1 X108.2 Y107.2 E5.90555
G1 X111.8 Y107.2 E5.9774
G1 X111.8 Y112.8 E6.08915
G0 F6000 X111.53 Y112.53
G0 X110.89 Y111.61
G0 X110.61 Y111.61
;TYPE:SKIN
G1 F1200 X109.39 Y111.61 E6.1135
G1 X109.39 Y108.39 E6.17776
G1 X110.61 Y108.39 E6.2021
G1 X110.61 Y111.61 E6.26636
G0 F6000 X109.752 Y111.449
G1 F1200 X109.549 Y111.246 E6.27209
G0 F6000 X109.549 Y110.68
G1 F1200 X110.317 Y111.449 E6.29378
G0 F6000 X110.449 Y111.015
G1 F1200 X109.549 Y110.114 E6.31919
G0 F6000 X109.549 Y109.549
G1 F1200 X110.449 Y110.449 E6.34459
G0 F6000 X110.449 Y109.883
G1 F1200 X109.549 Y108.983 E6.36999
G0 F6000 X109.681 Y108.55
G1 F1200 X110.449 Y109.318 E6.39167
G0 F6000 X110.449 Y108.752
G1 F1200 X110.247 Y108.55 E6.39737
G0 F6000 X110.247 Y107.81
G1 F2700 E1.39737
;MESH:NONMESH
G0 F300 X110.247 Y107.81 Z0.24
G0 F6000 X110.818 Y108.182
G0 X111 Y112
;TIME_ELAPSED:22.927824
;LAYER:1
M106 S85
;TYPE:WALL-INNER
;MESH:BoltLocker.stl
G1 F2700 E6.39737
G1 F600 X109 Y112 E6.43728
G1 X109 Y108 E6.5171
G1 X111 Y108 E6.55702
G1 X111 Y112 E6.63684
G0 F6600 X111.4 Y112.4
G1 F600 X108.6 Y112.4 E6.69272
G1 X108.6 Y107.6 E6.78851
G1 X111.4 Y107.6 E6.84438
G1 X111.4 Y112.4 E6.94017
G0 F6600 X111.8 Y112.8
;TYPE:WALL-OUTER
G1 F600 X108.2 Y112.8 E7.01201
G1 X108.2 Y107.2 E7.12377
G1 X111.8 Y107.2 E7.19561
G1 X111.8 Y112.8 E7.30736
G0 F6600 X111.53 Y112.53
G0 X110.89 Y111.61
G0 X110.61 Y111.61
;TYPE:SKIN
G1 F600 X109.39 Y111.61 E7.33171
G1 X109.39 Y108.39 E7.39597
G1 X110.61 Y108.39 E7.42032
G1 X110.61 Y111.61 E7.48457
G0 F6600 X110.299 Y111.449
G1 F600 X110.449 Y111.299 E7.48881
G0 F6600 X110.449 Y110.733
G1 F600 X109.733 Y111.449 E7.50902
G0 F6600 X109.549 Y111.067
G1 F600 X110.449 Y110.167 E7.53441
G0 F6600 X110.449 Y109.602
G1 F600 X109.549 Y110.501 E7.5598
G0 F6600 X109.549 Y109.936
G1 F600 X110.449 Y109.036 E7.5852
G0 F6600 X110.37 Y108.549
G1 F600 X109.549 Y109.37 E7.60837
G0 F6600 X109.549 Y108.804
G1 F600 X109.805 Y108.549 E7.61558
G0 F6600 X109.805 Y107.81
G1 F2700 E2.61558
;MESH:NONMESH
G0 F300 X109.805 Y107.81 Z0.36
G0 F6600 X110.818 Y108.182
G0 X111 Y112
;TIME_ELAPSED:30.404798
;LAYER:2
M106 S170
;TYPE:WALL-INNER
;MESH:BoltLocker.stl
G1 F2700 E7.61558
G1 F600 X109 Y112 E7.65549
G1 X109 Y108 E7.73532
G1 X111 Y108 E7.77523
G1 X111 Y112 E7.85505
G0 F7200 X111.4 Y112.4
G1 F600 X108.6 Y112.4 E7.91093
G1 X108.6 Y107.6 E8.00672
G1 X111.4 Y107.6 E8.0626
G1 X111.4 Y112.4 E8.15839
G0 F7200 X111.8 Y112.8
;TYPE:WALL-OUTER
G1 F600 X108.2 Y112.8 E8.23023
G1 X108.2 Y107.2 E8.34198
G1 X111.8 Y107.2 E8.41383
G1 X111.8 Y112.8 E8.52558
G0 F7200 X111.53 Y112.53
G0 X110.89 Y111.61
G0 X110.61 Y111.61
;TYPE:SKIN
G1 F600 X109.39 Y111.61 E8.54993
G1 X109.39 Y108.39 E8.61418
G1 X110.61 Y108.39 E8.63853
G1 X110.61 Y111.61 E8.70279
G0 F7200 X109.752 Y111.449
G1 F600 X109.549 Y111.246 E8.70852
G0 F7200 X109.549 Y110.68
G1 F600 X110.317 Y111.449 E8.73021
G0 F7200 X110.449 Y111.015
G1 F600 X109.549 Y110.114 E8.75562
G0 F7200 X109.549 Y109.549
G1 F600 X110.449 Y110.449 E8.78102
G0 F7200 X110.449 Y109.883
G1 F600 X109.549 Y108.983 E8.80642
G0 F7200 X109.681 Y108.55
G1 F600 X110.449 Y109.318 E8.8281
G0 F7200 X110.449 Y108.752
G1 F600 X110.247 Y108.55 E8.8338
G0 F7200 X110.247 Y107.81
G1 F2700 E3.8338
;MESH:NONMESH
G0 F300 X110.247 Y107.81 Z0.48
G0 F7200 X110.818 Y108.182
G0 X111 Y112
;TIME_ELAPSED:37.889917
;LAYER:3
M106 S255
;TYPE:WALL-INNER
;MESH:BoltLocker.stl
G1 F2700 E8.8338
G1 F600 X109 Y112 E8.87371
G1 X109 Y108 E8.95353
G1 X111 Y108 E8.99345
G1 X111 Y112 E9.07327
G0 F7200 X111.4 Y112.4
G1 F600 X108.6 Y112.4 E9.12915
G1 X108.6 Y107.6 E9.22494
G1 X111.4 Y107.6 E9.28081
G1 X111.4 Y112.4 E9.3766
G0 F7200 X111.8 Y112.8
;TYPE:WALL-OUTER
G1 F600 X108.2 Y112.8 E9.44844
G1 X108.2 Y107.2 E9.5602
G1 X111.8 Y107.2 E9.63204
G1 X111.8 Y112.8 E9.74379
G0 F7200 X111.53 Y112.53
G0 X110.89 Y111.61
G0 X110.61 Y111.61
;TYPE:SKIN
G1 F600 X109.39 Y111.61 E9.76814
G1 X109.39 Y108.39 E9.8324
G1 X110.61 Y108.39 E9.85675
G1 X110.61 Y111.61 E9.921
G0 F7200 X110.299 Y111.449
G1 F600 X110.449 Y111.299 E9.92524
G0 F7200 X110.449 Y110.733
G1 F600 X109.733 Y111.449 E9.94544
G0 F7200 X109.549 Y111.067
G1 F600 X110.449 Y110.167 E9.97084
G0 F7200 X110.449 Y109.602
G1 F600 X109.549 Y110.501 E9.99623
G0 F7200 X109.549 Y109.936
G1 F600 X110.449 Y109.036 E10.02163
G0 F7200 X110.37 Y108.549
G1 F600 X109.549 Y109.37 E10.0448
G0 F7200 X109.549 Y108.804
G1 F600 X109.805 Y108.549 E10.05201
G0 F7200 X109.805 Y107.81
G1 F2700 E5.05201
;MESH:NONMESH
G0 F300 X109.805 Y107.81 Z0.6
G0 F7200 X110.818 Y108.182
G0 X111 Y112
;TIME_ELAPSED:45.370615
;LAYER:4
;TYPE:WALL-INNER
;MESH:BoltLocker.stl
G1 F2700 E10.05201
G1 F600 X109 Y112 E10.09192
G1 X109 Y108 E10.17175
G1 X111 Y108 E10.21166
G1 X111 Y112 E10.29148
G0 F7200 X111.4 Y112.4
G1 F600 X108.6 Y112.4 E10.34736
G1 X108.6 Y107.6 E10.44315
G1 X111.4 Y107.6 E10.49903
G1 X111.4 Y112.4 E10.59482
G0 F7200 X111.8 Y112.8
;TYPE:WALL-OUTER
G1 F600 X108.2 Y112.8 E10.66666
G1 X108.2 Y107.2 E10.77841
G1 X111.8 Y107.2 E10.85025
G1 X111.8 Y112.8 E10.96201
G0 F7200 X111.53 Y112.53
G0 X110.89 Y111.61
G0 X110.61 Y111.61
;TYPE:SKIN
G1 F600 X109.39 Y111.61 E10.98635
G1 X109.39 Y108.39 E11.05061
G1 X110.61 Y108.39 E11.07496
G1 X110.61 Y111.61 E11.13922
G0 F7200 X109.752 Y111.449
G1 F600 X109.549 Y111.246 E11.14495
G0 F7200 X109.549 Y110.68
G1 F600 X110.317 Y111.449 E11.16664
G0 F7200 X110.449 Y111.015
G1 F600 X109.549 Y110.114 E11.19205
G0 F7200 X109.549 Y109.549
G1 F600 X110.449 Y110.449 E11.21745
G0 F7200 X110.449 Y109.883
G1 F600 X109.549 Y108.983 E11.24285
G0 F7200 X109.681 Y108.55
G1 F600 X110.449 Y109.318 E11.26452
G0 F7200 X110.449 Y108.752
G1 F600 X110.247 Y108.55 E11.27023
G0 F7200 X110.247 Y107.81
G1 F2700 E6.27023
;MESH:NONMESH
G0 F300 X110.247 Y107.81 Z0.72
G0 F7200 X110.818 Y108.182
G0 X111 Y112
;TIME_ELAPSED:52.855734
;LAYER:5
;TYPE:WALL-INNER
;MESH:BoltLocker.stl
G1 F2700 E11.27023
G1 F600 X109 Y112 E11.31014
G1 X109 Y108 E11.38996
G1 X111 Y108 E11.42987
G1 X111 Y112 E11.5097
G0 F7200 X111.4 Y112.4
G1 F600 X108.6 Y112.4 E11.56558
G1 X108.6 Y107.6 E11.66136
G1 X111.4 Y107.6 E11.71724
G1 X111.4 Y112.4 E11.81303
G0 F7200 X111.8 Y112.8
;TYPE:WALL-OUTER
G1 F600 X108.2 Y112.8 E11.88487
G1 X108.2 Y107.2 E11.99663
G1 X111.8 Y107.2 E12.06847
G1 X111.8 Y112.8 E12.18022
G0 F7200 X111.53 Y112.53
G0 X110.89 Y111.61
G0 X110.61 Y111.61
;TYPE:SKIN
G1 F600 X109.39 Y111.61 E12.20457
G1 X109.39 Y108.39 E12.26883
G1 X110.61 Y108.39 E12.29317
G1 X110.61 Y111.61 E12.35743
G0 F7200 X110.299 Y111.449
G1 F600 X110.449 Y111.299 E12.36167
G0 F7200 X110.449 Y110.733
G1 F600 X109.733 Y111.449 E12.38187
G0 F7200 X109.549 Y111.067
G1 F600 X110.449 Y110.167 E12.40727
G0 F7200 X110.449 Y109.602
G1 F600 X109.549 Y110.501 E12.43266
