;FLAVOR:Marlin
;TIME:12557
;Filament used: 9.22941m
;Layer height: 0.2
;MINX:71
;MINY:74.5
;MINZ:0.2
;MAXX:149
;MAXY:145.5
;MAXZ:111.2
;Generated with Creality Slicer 4.8.2-218
M140 S80
M105
M190 S80
M104 S245
M105
M109 S245
M82 ;absolute extrusion mode

G28 ;Home

G92 E0 ;Reset Extruder
G1 Z2.0 F3000 ;Move Z Axis up
G1 X10.1 Y20 Z0.28 F5000.0 ;Move to start position
G1 X10.1 Y200.0 Z0.28 F1500.0 E15 ;Draw the first line
G1 X10.4 Y200.0 Z0.28 F5000.0 ;Move to side a little
G1 X10.4 Y20 Z0.28 F1500.0 E30 ;Draw the second line
G92 E0 ;Reset Extruder
G1 Z2.0 F3000 ;Move Z Axis up

G92 E0
G92 E0
G1 F2700 E-5
;LAYER_COUNT:556
;LAYER:0
M107
G0 F6000 X74.198 Y77.764 Z0.2
;TYPE:SKIRT
G1 F2700 E0
G1 F1200 X74.886 Y77.127 E0.03119
G1 X75.626 Y76.551 E0.06237
G1 X76.412 Y76.039 E0.09357
G1 X77.239 Y75.597 E0.12476
G1 X78.101 Y75.227 E0.15596
G1 X78.991 Y74.931 E0.18716
G1 X79.903 Y74.713 E0.21835
G1 X80.83 Y74.572 E0.24953
G1 X81.701 Y74.513 E0.27857
G1 X82.022 Y74.504 E0.28925
G1 X82.33 Y74.5 E0.29949
G1 X137.293 Y74.5 E2.12757
G1 X138.149 Y74.511 E2.15604
G1 X139.085 Y74.565 E2.18723
G1 X140.013 Y74.697 E2.2184
G1 X140.927 Y74.909 E2.24961
G1 X141.819 Y75.198 E2.2808
G1 X142.684 Y75.561 E2.312
G1 X143.514 Y75.997 E2.34318
G1 X144.305 Y76.502 E2.37439
G1 X145.049 Y77.073 E2.40559
G1 X145.742 Y77.705 E2.43678
G1 X146.379 Y78.393 E2.46797
G1 X146.954 Y79.134 E2.49916
G1 X147.465 Y79.92 E2.53034
G1 X147.907 Y80.748 E2.56156
G1 X148.276 Y81.61 E2.59275
G1 X148.571 Y82.5 E2.62393
G1 X148.789 Y83.412 E2.65512
G1 X148.929 Y84.34 E2.68634
G1 X148.987 Y85.201 E2.71504
G1 X148.996 Y85.521 E2.72569
G1 X149 Y85.83 E2.73596
G1 X148.999 Y133.9 E4.33478
G1 X148.99 Y134.627 E4.35896
G1 X148.939 Y135.564 E4.39017
G1 X148.807 Y136.492 E4.42135
G1 X148.598 Y137.406 E4.45253
G1 X148.311 Y138.299 E4.48373
G1 X147.949 Y139.165 E4.51495
G1 X147.515 Y139.996 E4.54613
G1 X147.011 Y140.787 E4.57732
G1 X146.442 Y141.532 E4.6085
G1 X145.811 Y142.227 E4.63973
G1 X145.124 Y142.865 E4.67091
G1 X144.385 Y143.442 E4.70209
G1 X143.599 Y143.954 E4.73329
G1 X142.773 Y144.397 E4.76447
G1 X141.911 Y144.769 E4.79569
G1 X141.022 Y145.065 E4.82686
G1 X140.11 Y145.285 E4.85806
G1 X139.183 Y145.426 E4.88925
G1 X138.299 Y145.487 E4.91872
G1 X137.978 Y145.496 E4.9294
G1 X137.67 Y145.5 E4.93965
G1 X82.565 Y145.499 E6.77244
G1 X81.867 Y145.49 E6.79566
G1 X80.931 Y145.438 E6.82684
G1 X80.002 Y145.306 E6.85805
G1 X79.088 Y145.096 E6.88924
G1 X78.195 Y144.809 E6.92044
G1 X77.33 Y144.446 E6.95164
G1 X76.499 Y144.012 E6.98282
G1 X75.708 Y143.508 E7.01402
G1 X74.963 Y142.938 E7.04522
G1 X74.269 Y142.307 E7.07641
G1 X73.632 Y141.62 E7.10758
G1 X73.055 Y140.88 E7.13879
G1 X72.543 Y140.094 E7.16998
G1 X72.1 Y139.267 E7.20119
G1 X71.729 Y138.406 E7.23237
G1 X71.433 Y137.516 E7.26357
G1 X71.214 Y136.604 E7.29476
G1 X71.073 Y135.677 E7.32595
G1 X71.013 Y134.788 E7.35558
G1 X71.004 Y134.455 E7.36666
G1 X71 Y134.158 E7.37654
G1 X71.001 Y86.025 E8.97745
G1 X71.01 Y85.36 E8.99957
G1 X71.063 Y84.424 E9.03076
G1 X71.195 Y83.495 E9.06196
G1 X71.406 Y82.581 E9.09316
G1 X71.694 Y81.689 E9.12434
G1 X72.057 Y80.824 E9.15554
G1 X72.492 Y79.993 E9.18674
G1 X72.996 Y79.203 E9.2179
G1 X73.566 Y78.458 E9.2491
G1 X74.198 Y77.764 E9.28032
G0 F6000 X74.589 Y77.939
G1 F1200 X75.274 Y77.323 E9.31096
G1 X76.01 Y76.77 E9.34158
G1 X76.791 Y76.282 E9.37221
G1 X77.611 Y75.864 E9.40283
G1 X78.465 Y75.519 E9.43346
G1 X79.345 Y75.249 E9.46408
G1 X80.245 Y75.057 E9.49468
G1 X81.159 Y74.943 E9.52532
G1 X81.712 Y74.913 E9.54374
G1 X82.033 Y74.904 E9.55442
G1 X82.33 Y74.9 E9.5643
G1 X137.293 Y74.9 E11.39238
G1 X138.143 Y74.911 E11.42065
G1 X139.062 Y74.964 E11.45127
G1 X139.973 Y75.097 E11.48189
G1 X140.869 Y75.308 E11.5125
G1 X141.743 Y75.596 E11.54311
G1 X142.59 Y75.959 E11.57376
G1 X143.401 Y76.394 E11.60437
G1 X144.171 Y76.898 E11.63498
G1 X144.895 Y77.467 E11.6656
G1 X145.567 Y78.097 E11.69624
G1 X146.182 Y78.782 E11.72686
G1 X146.735 Y79.518 E11.75748
G1 X147.222 Y80.299 E11.78809
G1 X147.639 Y81.12 E11.81872
G1 X147.984 Y81.974 E11.84935
G1 X148.253 Y82.854 E11.87996
G1 X148.445 Y83.755 E11.9106
G1 X148.558 Y84.668 E11.9412
G1 X148.587 Y85.212 E11.95932
G1 X148.596 Y85.532 E11.96996
G1 X148.6 Y85.83 E11.97988
G1 X148.599 Y133.895 E13.57852
G1 X148.59 Y134.622 E13.60271
G1 X148.539 Y135.541 E13.63332
G1 X148.408 Y136.453 E13.66396
G1 X148.198 Y137.349 E13.69457
G1 X147.912 Y138.224 E13.72519
G1 X147.551 Y139.071 E13.75581
G1 X147.117 Y139.883 E13.78644
G1 X146.615 Y140.655 E13.81706
G1 X146.047 Y141.38 E13.8477
G1 X145.419 Y142.053 E13.87831
G1 X144.735 Y142.669 E13.90893
G1 X144 Y143.223 E13.93954
G1 X143.22 Y143.712 E13.97016
G1 X142.4 Y144.131 E14.00079
G1 X141.547 Y144.477 E14.03141
G1 X140.667 Y144.748 E14.06203
G1 X139.767 Y144.941 E14.09265
G1 X138.853 Y145.056 E14.12328
G1 X138.288 Y145.087 E14.1421
G1 X137.967 Y145.096 E14.15279
G1 X137.67 Y145.1 E14.16266
G1 X82.57 Y145.099 E15.9953
G1 X81.872 Y145.09 E16.01852
G1 X80.953 Y145.038 E16.04913
G1 X80.042 Y144.907 E16.07974
G1 X79.146 Y144.697 E16.11035
G1 X78.271 Y144.41 E16.14098
G1 X77.424 Y144.048 E16.17162
G1 X76.612 Y143.614 E16.20224
G1 X75.841 Y143.112 E16.23284
G1 X75.116 Y142.544 E16.26347
G1 X74.443 Y141.915 E16.29411
G1 X73.828 Y141.231 E16.3247
G1 X73.274 Y140.496 E16.35532
G1 X72.786 Y139.715 E16.38595
G1 X72.367 Y138.895 E16.41657
G1 X72.021 Y138.042 E16.44719
G1 X71.751 Y137.162 E16.47781
G1 X71.558 Y136.261 E16.50845
G1 X71.444 Y135.348 E16.53905
G1 X71.413 Y134.777 E16.55807
G1 X71.404 Y134.444 E16.56915
G1 X71.4 Y134.158 E16.57867
G1 X71.401 Y86.031 E18.17938
G1 X71.41 Y85.366 E18.2015
G1 X71.462 Y84.446 E18.23215
G1 X71.594 Y83.535 E18.26276
G1 X71.805 Y82.639 E18.29338
G1 X72.092 Y81.764 E18.32401
G1 X72.455 Y80.918 E18.35463
G1 X72.889 Y80.106 E18.38525
G1 X73.392 Y79.335 E18.41587
G1 X73.961 Y78.611 E18.44649
G1 X74.589 Y77.939 E18.47709
G0 F6000 X74.981 Y78.117
G1 F1200 X75.662 Y77.524 E18.50712
G1 X76.394 Y76.994 E18.53718
G1 X77.169 Y76.531 E18.5672
G1 X77.982 Y76.138 E18.59724
G1 X78.827 Y75.818 E18.62729
G1 X79.696 Y75.575 E18.6573
G1 X80.584 Y75.409 E18.68735
G1 X81.723 Y75.313 E18.72537
G1 X82.044 Y75.304 E18.73605
G1 X82.33 Y75.3 E18.74556
G1 X137.293 Y75.3 E20.57364
G1 X138.137 Y75.311 E20.60171
G1 X139.039 Y75.364 E20.63176
G1 X139.932 Y75.496 E20.66179
G1 X140.81 Y75.707 E20.69182
G1 X141.666 Y75.995 E20.72186
G1 X142.493 Y76.357 E20.75189
G1 X143.285 Y76.792 E20.78194
G1 X144.036 Y77.294 E20.81198
G1 X144.739 Y77.861 E20.84202
G1 X145.389 Y78.488 E20.87206
G1 X145.981 Y79.17 E20.9021
G1 X146.511 Y79.901 E20.93213
G1 X146.973 Y80.677 E20.96217
G1 X147.366 Y81.49 E20.9922
G1 X147.684 Y82.335 E21.02223
G1 X147.927 Y83.205 E21.05228
G1 X148.092 Y84.093 E21.08232
G1 X148.187 Y85.223 E21.12003
G1 X148.196 Y85.543 E21.13068
G1 X148.2 Y85.83 E21.14023
G1 X148.199 Y133.89 E22.73871
G1 X148.19 Y134.617 E22.76289
G1 X148.139 Y135.519 E22.79294
G1 X148.008 Y136.413 E22.82299
G1 X147.799 Y137.291 E22.85301
G1 X147.513 Y138.148 E22.88306
G1 X147.152 Y138.976 E22.9131
G1 X146.72 Y139.768 E22.94311
G1 X146.219 Y140.52 E22.97316
G1 X145.653 Y141.224 E23.00321
G1 X145.028 Y141.875 E23.03322
G1 X144.347 Y142.469 E23.06328
G1 X143.616 Y143 E23.09333
G1 X142.842 Y143.464 E23.12334
G1 X142.029 Y143.858 E23.15339
G1 X141.185 Y144.178 E23.18341
G1 X140.315 Y144.423 E23.21347
G1 X139.428 Y144.589 E23.24349
G1 X138.277 Y144.687 E23.28191
G1 X137.956 Y144.696 E23.29259
G1 X137.67 Y144.7 E23.3021
G1 X82.575 Y144.699 E25.13457
G1 X81.877 Y144.69 E25.15779
G1 X80.976 Y144.639 E25.1878
G1 X80.082 Y144.507 E25.21786
G1 X79.204 Y144.298 E25.24788
G1 X78.347 Y144.011 E25.27794
G1 X77.52 Y143.65 E25.30795
G1 X76.727 Y143.217 E25.338
G1 X75.976 Y142.716 E25.36803
G1 X75.272 Y142.15 E25.39807
G1 X74.621 Y141.524 E25.42811
G1 X74.028 Y140.843 E25.45815
G1 X73.498 Y140.112 E25.48818
G1 X73.034 Y139.337 E25.51822
G1 X72.64 Y138.524 E25.54827
G1 X72.32 Y137.68 E25.57829
G1 X72.076 Y136.81 E25.60834
G1 X71.91 Y135.922 E25.63839
G1 X71.813 Y134.767 E25.67694
G1 X71.804 Y134.434 E25.68802
G1 X71.8 Y134.158 E25.6972
G1 X71.801 Y86.036 E27.29775
G1 X71.81 Y85.371 E27.31987
G1 X71.862 Y84.469 E27.34992
G1 X71.994 Y83.576 E27.37994
G1 X72.204 Y82.698 E27.40997
G1 X72.491 Y81.841 E27.44003
G1 X72.853 Y81.014 E27.47005
G1 X73.286 Y80.222 E27.50007
G1 X73.788 Y79.471 E27.53012
G1 X74.355 Y78.767 E27.56018
G1 X74.981 Y78.117 E27.5902
G1 F2700 E22.5902
;MESH:MotorHolder.stl
G0 F6000 X109.209 Y94.481
G0 X107.742 Y94.481
G0 X108.422 Y95.702
G0 X108.81 Y96.209
G0 X109.221 Y96.523
G0 X110.539 Y97.086
;TYPE:WALL-INNER
G1 F2700 E27.5902
G1 F1200 X111.212 Y96.998 E27.61277
G1 X111.842 Y96.737 E27.63545
G1 X112.381 Y96.323 E27.65806
G1 X112.796 Y95.783 E27.68071
G1 X113.055 Y95.154 E27.70334
G1 X113.145 Y94.481 E27.72592
G1 X113.055 Y93.807 E27.74853
G1 X112.796 Y93.178 E27.77116
G1 X112.381 Y92.639 E27.79379
G1 X111.842 Y92.225 E27.81639
G1 X111.212 Y91.964 E27.83907
G1 X110.539 Y91.876 E27.86165
G1 X109.865 Y91.964 E27.88425
G1 X109.236 Y92.225 E27.9069
G1 X108.696 Y92.639 E27.92953
G1 X108.281 Y93.178 E27.95216
G1 X108.022 Y93.807 E27.97479
G1 X107.934 Y94.481 E27.99739
G1 X108.022 Y95.154 E28.01997
G1 X108.281 Y95.783 E28.04259
G1 X108.696 Y96.323 E28.06524
G1 X109.236 Y96.737 E28.08788
G1 X109.865 Y96.998 E28.11053
G1 X110.539 Y97.086 E28.13313
G0 F6000 X110.539 Y96.683
;TYPE:WALL-OUTER
G1 F1200 X111.108 Y96.608 E28.15222
G1 X111.64 Y96.388 E28.17137
G1 X112.096 Y96.038 E28.19049
G1 X112.446 Y95.582 E28.20961
G1 X112.665 Y95.05 E28.22874
G1 X112.741 Y94.481 E28.24784
G1 X112.665 Y93.911 E28.26696
G1 X112.446 Y93.38 E28.28607
G1 X112.096 Y92.924 E28.30519
G1 X111.64 Y92.574 E28.3243
G1 X111.108 Y92.354 E28.34345
G1 X110.539 Y92.279 E28.36254
G1 X109.969 Y92.354 E28.38166
G1 X109.438 Y92.574 E28.40078
G1 X108.981 Y92.924 E28.41992
G1 X108.631 Y93.38 E28.43904
G1 X108.412 Y93.911 E28.45815
G1 X108.337 Y94.481 E28.47727
G1 X108.412 Y95.05 E28.49636
G1 X108.631 Y95.582 E28.51549
G1 X108.981 Y96.038 E28.53461
G1 X109.438 Y96.388 E28.55376
G1 X109.969 Y96.608 E28.57287
G1 X110.539 Y96.683 E28.592
G0 F6000 X110.539 Y97.123
G1 F2700 E23.592
G0 F6000 X109.815 Y97.184
G0 X109.266 Y99.515
G0 X110.968 Y100.084
G0 X110.968 Y119.878
G0 X107.342 Y120.93
G0 X106.213 Y122.347
G0 X105.102 Y124.938
;TYPE:WALL-INNER
G1 F2700 E28.592
G1 F1200 X105.463 Y123.643 E28.63671
G1 X105.804 Y122.888 E28.66426
G1 X106.253 Y122.198 E28.69165
G1 X106.803 Y121.583 E28.71909
G1 X107.438 Y121.061 E28.74643
G1 X108.146 Y120.642 E28.77379
G1 X108.912 Y120.334 E28.80125
G1 X109.722 Y120.146 E28.82891
G1 X111.139 Y120.036 E28.87618
G1 X111.139 Y99.925 E29.54507
G1 X109.718 Y99.817 E29.59247
G1 X108.914 Y99.628 E29.61994
G1 X108.148 Y99.321 E29.64739
G1 X107.438 Y98.9 E29.67484
G1 X106.803 Y98.378 E29.70218
G1 X106.253 Y97.763 E29.72962
G1 X105.804 Y97.073 E29.75701
G1 X105.463 Y96.318 E29.78456
G1 X105.102 Y95.023 E29.82927
G1 X105.039 Y94.796 E29.83711
G1 X104.826 Y94.896 E29.84195
G1 X102.929 Y95.792 E29.91172
G1 X101.515 Y96.646 E29.96667
G1 X100.194 Y97.643 E30.02171
G1 X98.984 Y98.769 E30.07669
G1 X97.895 Y100.012 E30.13165
G1 X96.94 Y101.362 E30.18665
G1 X96.128 Y102.801 E30.24161
G1 X95.467 Y104.317 E30.29661
G1 X94.966 Y105.891 E30.35155
G1 X94.628 Y107.51 E30.40656
G1 X94.459 Y109.154 E30.46153
G1 X94.459 Y110.807 E30.51651
G1 X94.628 Y112.452 E30.57151
G1 X94.966 Y114.07 E30.62649
G1 X95.467 Y115.645 E30.68146
G1 X96.128 Y117.161 E30.73646
G1 X96.94 Y118.6 E30.79142
G1 X97.895 Y119.95 E30.84642
G1 X98.984 Y121.193 E30.90138
G1 X100.194 Y122.319 E30.95636
G1 X101.515 Y123.315 E31.01139
G1 X102.929 Y124.169 E31.06633
G1 X104.826 Y125.065 E31.13611
G1 X105.039 Y125.165 E31.14393
G1 X105.102 Y124.938 E31.14877
G0 F6000 X104.781 Y124.601
;TYPE:WALL-OUTER
G1 F1200 X105.088 Y123.5 E31.18679
G1 X105.449 Y122.701 E31.21595
G1 X105.936 Y121.952 E31.24567
G1 X106.525 Y121.294 E31.27504
G1 X107.207 Y120.733 E31.30441
G1 X107.968 Y120.283 E31.33382
G1 X108.795 Y119.95 E31.36347
G1 X109.659 Y119.749 E31.39297
G1 X110.739 Y119.666 E31.429
G1 X110.739 Y100.296 E32.07325
G1 X109.661 Y100.214 E32.10921
G1 X108.791 Y100.01 E32.13893
G1 X107.97 Y99.68 E32.16836
G1 X107.207 Y99.228 E32.19785
G1 X106.525 Y98.667 E32.22723
G1 X105.936 Y98.009 E32.2566
G1 X105.449 Y97.26 E32.28631
G1 X105.088 Y96.461 E32.31547
G1 X104.781 Y95.36 E32.35349
G1 X103.118 Y96.145 E32.41465
G1 X101.739 Y96.978 E32.46824
G1 X100.451 Y97.95 E32.52191
G1 X99.271 Y99.048 E32.57552
G1 X98.21 Y100.26 E32.62909
G1 X97.278 Y101.576 E32.68273
G1 X96.486 Y102.98 E32.73634
G1 X95.842 Y104.458 E32.78996
G1 X95.353 Y105.993 E32.84355
G1 X95.024 Y107.571 E32.89716
G1 X94.859 Y109.175 E32.95079
G1 X94.859 Y110.786 E33.00437
G1 X95.024 Y112.391 E33.05804
G1 X95.353 Y113.968 E33.11162
G1 X95.842 Y115.504 E33.16523
G1 X96.486 Y116.982 E33.21885
G1 X97.278 Y118.386 E33.27247
G1 X98.21 Y119.702 E33.3261
G1 X99.271 Y120.914 E33.37968
G1 X100.451 Y122.012 E33.43329
G1 X101.739 Y122.983 E33.48694
G1 X103.118 Y123.816 E33.54052
G1 X104.781 Y124.601 E33.60169
G1 F2700 E28.60169
G0 F6000 X105.069 Y124.681
G0 X105.166 Y125.443
G0 X107.836 Y126.204
G0 X108.81 Y127.209
G0 X109.221 Y127.523
G0 X110.539 Y128.086
;TYPE:WALL-INNER
G1 F2700 E33.60169
G1 F1200 X111.212 Y127.998 E33.62426
G1 X111.842 Y127.737 E33.64694
G1 X112.381 Y127.323 E33.66955
G1 X112.796 Y126.783 E33.6922
G1 X113.055 Y126.154 E33.71482
G1 X113.145 Y125.481 E33.73741
G1 X113.055 Y124.807 E33.76002
G1 X112.796 Y124.178 E33.78265
G1 X112.381 Y123.639 E33.80527
G1 X111.842 Y123.225 E33.82788
G1 X111.212 Y122.964 E33.85056
G1 X110.539 Y122.876 E33.87313
G1 X109.865 Y122.964 E33.89574
G1 X109.236 Y123.225 E33.91839
G1 X108.696 Y123.639 E33.94102
G1 X108.281 Y124.178 E33.96365
G1 X108.022 Y124.807 E33.98627
G1 X107.934 Y125.481 E34.00888
G1 X108.022 Y126.154 E34.03146
G1 X108.281 Y126.783 E34.05408
G1 X108.696 Y127.323 E34.07673
G1 X109.236 Y127.737 E34.09936
G1 X109.865 Y127.998 E34.12201
G1 X110.539 Y128.086 E34.14462
G0 F6000 X110.539 Y127.683
;TYPE:WALL-OUTER
G1 F1200 X111.108 Y127.608 E34.16371
G1 X111.64 Y127.388 E34.18286
G1 X112.096 Y127.038 E34.20198
G1 X112.446 Y126.582 E34.2211
G1 X112.665 Y126.05 E34.24023
G1 X112.741 Y125.481 E34.25932
G1 X112.665 Y124.911 E34.27845
G1 X112.446 Y124.38 E34.29755
G1 X112.096 Y123.924 E34.31667
G1 X111.64 Y123.574 E34.33579
G1 X111.108 Y123.354 E34.35494
G1 X110.539 Y123.279 E34.37403
G1 X109.969 Y123.354 E34.39315
G1 X109.438 Y123.574 E34.41227
G1 X108.981 Y123.924 E34.43141
G1 X108.631 Y124.38 E34.45053
G1 X108.412 Y124.911 E34.46964
G1 X108.337 Y125.481 E34.48876
G1 X108.412 Y126.05 E34.50785
G1 X108.631 Y126.582 E34.52698
G1 X108.981 Y127.038 E34.5461
G1 X109.438 Y127.388 E34.56525
G1 X109.969 Y127.608 E34.58436
G1 X110.539 Y127.683 E34.60348
G0 F6000 X110.539 Y128.123
G1 F2700 E29.60348
G0 F6000 X111.938 Y127.903
G0 X111.201 Y126.636
G0 X111.938 Y135.165
G0 X111.938 Y133.69
G0 X137.4 Y133.9
;TYPE:WALL-INNER
G1 F2700 E34.60348
G1 F1200 X82.6 Y133.9 E36.42614
G1 X82.6 Y86.1 E38.01597
G1 X137.4 Y86.1 E39.83863
G1 X137.4 Y133.9 E41.42846
G0 F6000 X137.8 Y134.3
;TYPE:WALL-OUTER
G1 F1200 X82.2 Y134.3 E43.27773
G1 X82.2 Y85.7 E44.89417
G1 X137.8 Y85.7 E46.74343
G1 X137.8 Y134.3 E48.35988
G0 F6000 X137.53 Y134.03
G0 X137.29 Y133.51
G0 X137.01 Y133.51
;TYPE:SKIN
G1 F1200 X82.99 Y133.51 E50.15659
G1 X82.99 Y86.49 E51.72048
G1 X137.01 Y86.49 E53.51719
G1 X137.01 Y133.51 E55.08108
G1 F2700 E50.08108
G0 F6000 X137.29 Y133.51
G0 X137.19 Y126.183
G0 X138.665 Y126.183
G0 X111.869 Y125.485
G0 X113.337 Y125.481
