;FLAVOR:Marlin
;TIME:4579
;Filament used: 2.78793m
;Layer height: 0.2
;MINX:66.281
;MINY:72.624
;MINZ:0.2
;MAXX:153.73
;MAXY:147.374
;MAXZ:14.2
;Generated with Creality Slicer 4.8.2-218
M140 S80
M105
M190 S80
M104 S245
M105
M109 S245
M82 ;absolute extrusion mode

G28 ;Home

G92 E0 ;Reset Extruder
G1 Z2.0 F3000 ;Move Z Axis up
G1 X10.1 Y20 Z0.28 F5000.0 ;Move to start position
G1 X10.1 Y200.0 Z0.28 F1500.0 E15 ;Draw the first line
G1 X10.4 Y200.0 Z0.28 F5000.0 ;Move to side a little
G1 X10.4 Y20 Z0.28 F1500.0 E30 ;Draw the second line
G92 E0 ;Reset Extruder
G1 Z2.0 F3000 ;Move Z Axis up

G92 E0
G92 E0
G1 F2700 E-5
;LAYER_COUNT:71
;LAYER:0
M107
G0 F6000 X76.335 Y78.381 Z0.2
;TYPE:SKIRT
G1 F2700 E0
G1 F1200 X76.742 Y77.986 E0.01886
G1 X76.949 Y77.795 E0.02823
G1 X77.208 Y77.563 E0.0398
G1 X77.573 Y77.247 E0.05585
G1 X78.045 Y76.861 E0.07613
G1 X78.239 Y76.711 E0.08429
G1 X78.455 Y76.548 E0.09329
G1 X78.794 Y76.299 E0.10728
G1 X79.173 Y76.032 E0.1227
G1 X79.377 Y75.895 E0.13087
G1 X79.777 Y75.639 E0.14667
G1 X80.152 Y75.41 E0.16128
G1 X80.619 Y75.14 E0.17922
G1 X80.984 Y74.941 E0.19305
G1 X81.317 Y74.767 E0.20555
G1 X81.604 Y74.623 E0.21623
G1 X82.048 Y74.413 E0.23256
G1 X82.303 Y74.299 E0.24185
G1 X82.655 Y74.149 E0.25458
G1 X83.059 Y73.985 E0.26908
G1 X83.572 Y73.791 E0.28732
G1 X83.893 Y73.679 E0.29863
G1 X84.29 Y73.549 E0.31253
G1 X84.681 Y73.429 E0.32613
G1 X85.218 Y73.279 E0.34467
G1 X85.551 Y73.195 E0.3561
G1 X85.851 Y73.124 E0.36635
G1 X86.188 Y73.049 E0.37783
G1 X86.68 Y72.951 E0.39452
G1 X86.994 Y72.896 E0.40512
G1 X87.417 Y72.83 E0.41936
G1 X87.853 Y72.771 E0.43399
G1 X88.472 Y72.705 E0.4547
G1 X88.805 Y72.679 E0.46581
G1 X89.072 Y72.662 E0.47471
G1 X89.445 Y72.642 E0.48713
G1 X89.876 Y72.627 E0.50147
G1 X90.175 Y72.624 E0.51142
G1 X90.386 Y72.625 E0.51844
G1 X90.666 Y72.63 E0.52775
G1 X91.097 Y72.643 E0.54209
G1 X91.721 Y72.68 E0.56288
G1 X92.065 Y72.71 E0.57437
G1 X92.399 Y72.744 E0.58554
G1 X92.797 Y72.791 E0.59887
G1 X93.366 Y72.873 E0.61799
G1 X93.646 Y72.921 E0.62743
G1 X93.963 Y72.98 E0.63816
G1 X94.409 Y73.07 E0.65329
G1 X95.029 Y73.214 E0.67446
G1 X95.303 Y73.286 E0.68388
G1 X95.58 Y73.363 E0.69345
G1 X95.989 Y73.482 E0.70761
G1 X96.554 Y73.663 E0.72735
G1 X97.472 Y73.985 E0.7597
G1 X99.975 Y74.824 E0.84751
G1 X102.359 Y75.549 E0.93038
G1 X104.791 Y76.214 E1.01424
G1 X107.28 Y76.821 E1.09945
G1 X109.668 Y77.329 E1.18066
G1 X112.203 Y77.796 E1.26639
G1 X114.669 Y78.178 E1.34939
G1 X117.14 Y78.49 E1.43222
G1 X119.669 Y78.737 E1.51674
G1 X122.182 Y78.91 E1.60052
G1 X124.703 Y79.013 E1.68444
G1 X127.125 Y79.045 E1.765
G1 X142.196 Y79.046 E2.26627
G1 X142.894 Y79.057 E2.28948
G1 X143.831 Y79.112 E2.3207
G1 X144.759 Y79.246 E2.35189
G1 X145.672 Y79.459 E2.38307
G1 X146.564 Y79.749 E2.41427
G1 X147.428 Y80.114 E2.44546
G1 X148.258 Y80.551 E2.47666
G1 X149.047 Y81.057 E2.50784
G1 X149.791 Y81.629 E2.53905
G1 X150.483 Y82.262 E2.57024
G1 X151.119 Y82.951 E2.60143
G1 X151.694 Y83.693 E2.63265
G1 X152.203 Y84.48 E2.66382
G1 X152.644 Y85.308 E2.69503
G1 X153.012 Y86.17 E2.7262
G1 X153.305 Y87.061 E2.7574
G1 X153.522 Y87.974 E2.78861
G1 X153.66 Y88.901 E2.81978
G1 X153.717 Y89.746 E2.84795
G1 X153.726 Y90.065 E2.85856
G1 X153.73 Y90.375 E2.86887
G1 X153.729 Y93.495 E2.97265
G1 X153.719 Y94.197 E2.996
G1 X153.666 Y95.133 E3.02718
G1 X153.535 Y96.052 E3.05805
G1 X153.428 Y96.628 E3.07754
G1 X152.994 Y99.156 E3.16285
G1 X152.636 Y101.665 E3.24715
G1 X152.352 Y104.165 E3.33083
G1 X152.137 Y106.678 E3.41472
G1 X151.996 Y109.181 E3.4981
G1 X151.924 Y111.687 E3.58149
G1 X151.918 Y113.941 E3.65645
G1 X151.917 Y124.872 E4.02002
G1 X151.907 Y125.599 E4.0442
G1 X151.854 Y126.536 E4.07542
G1 X151.722 Y127.464 E4.10659
G1 X151.511 Y128.378 E4.13779
G1 X151.222 Y129.27 E4.16898
G1 X150.859 Y130.135 E4.20018
G1 X150.424 Y130.966 E4.23138
G1 X149.919 Y131.756 E4.26256
G1 X149.349 Y132.501 E4.29376
G1 X148.718 Y133.195 E4.32496
G1 X148.029 Y133.832 E4.35617
G1 X147.289 Y134.408 E4.38736
G1 X146.503 Y134.919 E4.41854
G1 X145.676 Y135.361 E4.44973
G1 X144.814 Y135.731 E4.48093
G1 X143.924 Y136.026 E4.51211
G1 X143.012 Y136.245 E4.54331
G1 X142.085 Y136.385 E4.57449
G1 X141.224 Y136.443 E4.60319
G1 X140.737 Y136.457 E4.6194
G1 X138.091 Y136.572 E4.70749
G1 X135.556 Y136.755 E4.79202
G1 X133.099 Y137.001 E4.87415
G1 X130.568 Y137.327 E4.95903
G1 X128.068 Y137.723 E5.04321
G1 X125.627 Y138.18 E5.12581
G1 X123.148 Y138.716 E5.21017
G1 X120.765 Y139.301 E5.29178
G1 X118.257 Y139.995 E5.37833
G1 X115.91 Y140.717 E5.46
G1 X113.499 Y141.532 E5.54465
G1 X111.12 Y142.413 E5.62903
G1 X108.811 Y143.343 E5.71182
G1 X106.477 Y144.362 E5.79653
G1 X106.249 Y144.467 E5.80487
G1 X104.987 Y145.035 E5.8509
G1 X104.57 Y145.212 E5.86597
G1 X103.763 Y145.536 E5.8949
G1 X103.452 Y145.656 E5.90598
G1 X103.182 Y145.755 E5.91555
G1 X102.777 Y145.896 E5.92981
G1 X101.86 Y146.189 E5.96183
G1 X101.569 Y146.278 E5.97195
G1 X101.287 Y146.359 E5.98171
G1 X100.844 Y146.477 E5.99696
G1 X100.657 Y146.524 E6.00337
G1 X99.922 Y146.7 E6.02851
G1 X99.383 Y146.818 E6.04686
G1 X99.033 Y146.887 E6.05872
G1 X98.726 Y146.941 E6.06909
G1 X97.987 Y147.063 E6.094
G1 X97.678 Y147.11 E6.1044
G1 X97.406 Y147.147 E6.11353
G1 X96.983 Y147.197 E6.1277
G1 X96.735 Y147.222 E6.13599
G1 X96.333 Y147.258 E6.14941
G1 X95.967 Y147.285 E6.16162
G1 X94.824 Y147.349 E6.19969
G1 X94.441 Y147.364 E6.21244
G1 X94.062 Y147.372 E6.22505
G1 X93.737 Y147.374 E6.23586
G1 X93.384 Y147.371 E6.2476
G1 X92.935 Y147.358 E6.26254
G1 X92.084 Y147.316 E6.29088
G1 X91.72 Y147.292 E6.30301
G1 X91.268 Y147.252 E6.31811
G1 X90.847 Y147.206 E6.33219
G1 X90.396 Y147.15 E6.34731
G1 X89.991 Y147.092 E6.36091
G1 X88.905 Y146.916 E6.39751
G1 X88.524 Y146.848 E6.41038
G1 X88.146 Y146.773 E6.4232
G1 X87.816 Y146.702 E6.43442
G1 X87.43 Y146.613 E6.4476
G1 X86.995 Y146.503 E6.46252
G1 X86.21 Y146.288 E6.48959
G1 X85.883 Y146.193 E6.50092
G1 X85.535 Y146.086 E6.51303
G1 X85.121 Y145.95 E6.52752
G1 X84.33 Y145.672 E6.55541
G1 X83.997 Y145.549 E6.56721
G1 X83.711 Y145.438 E6.57742
G1 X83.407 Y145.314 E6.58834
G1 X83.098 Y145.183 E6.5995
G1 X82.455 Y144.901 E6.62285
G1 X82.134 Y144.754 E6.6346
G1 X81.78 Y144.585 E6.64764
G1 X81.393 Y144.391 E6.66204
G1 X80.662 Y144.006 E6.68952
G1 X80.392 Y143.858 E6.69976
G1 X80.138 Y143.715 E6.70946
G1 X79.779 Y143.505 E6.72329
G1 X79.595 Y143.393 E6.73045
G1 X78.976 Y143.007 E6.75472
G1 X78.755 Y142.866 E6.76344
G1 X78.475 Y142.682 E6.77458
G1 X78.168 Y142.472 E6.78695
G1 X77.902 Y142.283 E6.7978
G1 X77.376 Y141.901 E6.81943
G1 X77.089 Y141.685 E6.83137
G1 X76.582 Y141.288 E6.85279
G1 X76.34 Y141.089 E6.86321
G1 X75.829 Y140.659 E6.88542
G1 X75.588 Y140.45 E6.89603
G1 X75.384 Y140.268 E6.90513
G1 X75.19 Y140.091 E6.91386
G1 X74.86 Y139.779 E6.92897
G1 X74.358 Y139.29 E6.95227
G1 X74.153 Y139.085 E6.96192
G1 X73.928 Y138.854 E6.97264
G1 X73.606 Y138.509 E6.98834
G1 X73.026 Y137.86 E7.01729
G1 X72.803 Y137.603 E7.02861
G1 X72.599 Y137.36 E7.03916
G1 X72.402 Y137.118 E7.04954
G1 X72.181 Y136.837 E7.06143
G1 X71.789 Y136.327 E7.08282
G1 X71.604 Y136.079 E7.09311
G1 X71.388 Y135.781 E7.10535
G1 X71.13 Y135.409 E7.12041
G1 X70.658 Y134.698 E7.1488
G1 X70.461 Y134.391 E7.16093
G1 X70.173 Y133.92 E7.17929
G1 X69.958 Y133.549 E7.19355
G1 X69.623 Y132.95 E7.21638
G1 X69.489 Y132.703 E7.22573
G1 X69.338 Y132.416 E7.23651
G1 X69.196 Y132.136 E7.24695
G1 X69.042 Y131.818 E7.25871
G1 X68.739 Y131.173 E7.28241
G1 X68.603 Y130.872 E7.29339
G1 X68.492 Y130.616 E7.30267
G1 X68.388 Y130.368 E7.31162
G1 X68.23 Y129.972 E7.3258
G1 X67.982 Y129.325 E7.34884
G1 X67.882 Y129.055 E7.35842
G1 X67.777 Y128.758 E7.3689
G1 X67.677 Y128.462 E7.37929
G1 X67.576 Y128.141 E7.39048
G1 X67.361 Y127.433 E7.41509
G1 X67.276 Y127.139 E7.42527
G1 X67.209 Y126.894 E7.43372
G1 X67.135 Y126.608 E7.44355
G1 X67.028 Y126.165 E7.4587
G1 X66.882 Y125.516 E7.48083
G1 X66.824 Y125.242 E7.49014
G1 X66.753 Y124.884 E7.50228
G1 X66.691 Y124.541 E7.51388
G1 X66.642 Y124.24 E7.52402
G1 X66.54 Y123.569 E7.54659
G1 X66.499 Y123.276 E7.55643
G1 X66.463 Y122.987 E7.56612
G1 X66.416 Y122.539 E7.5811
G1 X66.398 Y122.343 E7.58765
G1 X66.338 Y121.587 E7.61287
G1 X66.317 Y121.254 E7.62397
G1 X66.3 Y120.906 E7.63556
G1 X66.287 Y120.449 E7.65076
G1 X66.281 Y119.624 E7.6782
G1 X66.284 Y119.296 E7.68911
G1 X66.293 Y118.897 E7.70239
G1 X66.306 Y118.553 E7.71384
G1 X66.317 Y118.348 E7.72067
G1 X66.364 Y117.621 E7.7449
G1 X66.387 Y117.324 E7.7548
G1 X66.412 Y117.052 E7.76389
G1 X66.446 Y116.734 E7.77453
G1 X66.495 Y116.345 E7.78757
G1 X66.589 Y115.666 E7.81037
G1 X66.636 Y115.36 E7.82066
G1 X66.732 Y114.8 E7.83956
G1 X66.808 Y114.412 E7.85271
G1 X66.956 Y113.715 E7.87641
G1 X67.025 Y113.412 E7.88675
G1 X67.101 Y113.098 E7.89749
G1 X67.176 Y112.804 E7.90758
G1 X67.361 Y112.122 E7.93109
G1 X67.409 Y111.921 E7.93796
G1 X67.774 Y110.59 E7.98386
G1 X68.378 Y108.125 E8.06827
G1 X68.896 Y105.703 E8.15065
G1 X69.358 Y103.208 E8.23505
G1 X69.742 Y100.748 E8.31786
G1 X70.062 Y98.236 E8.40208
G1 X70.304 Y95.768 E8.48456
G1 X70.521 Y92.521 E8.5928
G1 X70.581 Y91.302 E8.63339
G1 X70.601 Y90.986 E8.64392
G1 X70.622 Y90.717 E8.6529
G1 X70.651 Y90.404 E8.66335
G1 X70.699 Y89.955 E8.67837
G1 X70.777 Y89.372 E8.69793
G1 X70.822 Y89.093 E8.70733
G1 X70.877 Y88.784 E8.71777
G1 X70.991 Y88.195 E8.73773
G1 X71.012 Y88.096 E8.74109
G1 X71.106 Y87.691 E8.75492
G1 X71.169 Y87.441 E8.7635
G1 X71.243 Y87.163 E8.77306
G1 X71.348 Y86.788 E8.78602
G1 X71.528 Y86.21 E8.80615
G1 X71.657 Y85.831 E8.81947
G1 X71.764 Y85.531 E8.83006
G1 X71.88 Y85.22 E8.8411
G1 X72.067 Y84.752 E8.85786
G1 X72.168 Y84.515 E8.86643
G1 X72.317 Y84.181 E8.8786
G1 X72.509 Y83.769 E8.89371
G1 X72.778 Y83.23 E8.91375
G1 X72.933 Y82.94 E8.92469
G1 X73.102 Y82.635 E8.93628
G1 X73.318 Y82.26 E8.95068
G1 X73.626 Y81.756 E8.97032
G1 X73.78 Y81.519 E8.97972
G1 X73.974 Y81.232 E8.99125
G1 X74.239 Y80.851 E9.00668
G1 X74.581 Y80.385 E9.02591
G1 X74.734 Y80.188 E9.0342
G1 X74.918 Y79.958 E9.044
G1 X75.183 Y79.635 E9.0579
G1 X75.546 Y79.214 E9.07638
G1 X75.755 Y78.984 E9.08672
G1 X76.03 Y78.693 E9.10004
G1 X76.335 Y78.381 E9.11455
G0 F6000 X76.621 Y78.66
G1 F1200 X77.013 Y78.28 E9.13271
G1 X77.22 Y78.089 E9.14208
G1 X77.47 Y77.865 E9.15324
G1 X77.835 Y77.549 E9.1693
G1 X78.289 Y77.177 E9.18882
G1 X78.483 Y77.027 E9.19698
G1 X78.692 Y76.87 E9.20567
G1 X79.031 Y76.621 E9.21966
G1 X79.396 Y76.364 E9.23451
G1 X79.6 Y76.227 E9.24268
G1 X79.986 Y75.98 E9.25792
G1 X80.361 Y75.751 E9.27254
G1 X80.811 Y75.491 E9.28982
G1 X81.176 Y75.292 E9.30365
G1 X81.496 Y75.125 E9.31565
G1 X81.783 Y74.981 E9.32633
G1 X82.211 Y74.778 E9.34209
G1 X82.466 Y74.664 E9.35138
G1 X82.805 Y74.519 E9.36364
G1 X83.209 Y74.355 E9.37815
G1 X83.704 Y74.169 E9.39573
G1 X84.025 Y74.057 E9.40704
G1 X84.407 Y73.932 E9.42041
G1 X84.798 Y73.812 E9.43401
G1 X85.315 Y73.667 E9.45187
G1 X85.648 Y73.583 E9.46329
G1 X85.938 Y73.514 E9.47321
G1 X86.275 Y73.439 E9.48469
G1 X86.749 Y73.345 E9.50076
G1 X87.063 Y73.29 E9.51137
G1 X87.471 Y73.227 E9.5251
G1 X87.907 Y73.168 E9.53973
G1 X88.503 Y73.104 E9.55967
G1 X88.836 Y73.078 E9.57078
G1 X89.093 Y73.061 E9.57934
G1 X89.466 Y73.041 E9.59177
G1 X89.885 Y73.027 E9.60571
G1 X90.173 Y73.024 E9.61529
G1 X90.384 Y73.025 E9.62231
G1 X90.654 Y73.03 E9.63129
G1 X91.085 Y73.043 E9.64563
G1 X91.686 Y73.078 E9.66566
G1 X92.03 Y73.108 E9.67714
G1 X92.352 Y73.141 E9.68791
G1 X92.75 Y73.188 E9.70124
G1 X93.298 Y73.267 E9.71965
G1 X93.578 Y73.315 E9.7291
G1 X93.884 Y73.372 E9.73945
G1 X94.33 Y73.462 E9.75459
G1 X94.927 Y73.601 E9.77497
G1 X95.201 Y73.673 E9.7844
G1 X95.468 Y73.747 E9.79361
G1 X95.877 Y73.866 E9.80778
G1 X96.422 Y74.041 E9.82682
G1 X97.362 Y74.37 E9.85994
G1 X99.815 Y75.193 E9.946
G1 X102.275 Y75.94 E10.03151
G1 X104.696 Y76.603 E10.11499
G1 X107.174 Y77.207 E10.19983
G1 X109.618 Y77.727 E10.28293
G1 X112.101 Y78.185 E10.36691
G1 X114.594 Y78.571 E10.45082
G1 X117.123 Y78.89 E10.5356
G1 X119.638 Y79.136 E10.61965
G1 X122.172 Y79.311 E10.70413
G1 X124.682 Y79.413 E10.78768
G1 X127.12 Y79.445 E10.86878
G1 X142.19 Y79.446 E11.37001
G1 X142.888 Y79.457 E11.39322
G1 X143.807 Y79.512 E11.42384
G1 X144.718 Y79.646 E11.45447
G1 X145.614 Y79.858 E11.48509
G1 X146.488 Y80.148 E11.51572
G1 X147.333 Y80.512 E11.54632
G1 X148.144 Y80.948 E11.57695
G1 X148.914 Y81.453 E11.60758
G1 X149.637 Y82.023 E11.6382
G1 X150.308 Y82.653 E11.66881
G1 X150.922 Y83.34 E11.69946
G1 X151.473 Y84.077 E11.73006
G1 X151.959 Y84.859 E11.76068
G1 X152.375 Y85.68 E11.7913
G1 X152.719 Y86.534 E11.82192
G1 X152.987 Y87.415 E11.85255
G1 X153.177 Y88.316 E11.88317
G1 X153.289 Y89.229 E11.91377
G1 X153.317 Y89.757 E11.93135
G1 X153.326 Y90.076 E11.94197
G1 X153.33 Y90.375 E11.95191
G1 X153.329 Y93.489 E12.05549
G1 X153.319 Y94.191 E12.07884
G1 X153.266 Y95.11 E12.10945
G1 X153.141 Y95.978 E12.13862
G1 X153.051 Y96.46 E12.15493
G1 X152.599 Y99.098 E12.24395
G1 X152.237 Y101.634 E12.32915
G1 X151.954 Y104.122 E12.41244
G1 X151.74 Y106.621 E12.49586
G1 X151.597 Y109.148 E12.58004
G1 X151.524 Y111.714 E12.66542
G1 X151.518 Y113.94 E12.73946
G1 X151.517 Y124.867 E13.10289
G1 X151.507 Y125.594 E13.12707
G1 X151.454 Y126.513 E13.15769
G1 X151.322 Y127.424 E13.18831
G1 X151.111 Y128.32 E13.21892
G1 X150.824 Y129.195 E13.24955
G1 X150.461 Y130.041 E13.28017
G1 X150.027 Y130.853 E13.31079
G1 X149.523 Y131.624 E13.34143
G1 X148.955 Y132.348 E13.37204
G1 X148.326 Y133.02 E13.40265
G1 X147.641 Y133.635 E13.43327
G1 X146.905 Y134.188 E13.46389
G1 X146.124 Y134.676 E13.49452
G1 X145.304 Y135.094 E13.52513
G1 X144.45 Y135.439 E13.55576
G1 X143.57 Y135.708 E13.58637
G1 X142.669 Y135.901 E13.61702
G1 X141.756 Y136.014 E13.64762
G1 X141.213 Y136.044 E13.6657
G1 X140.64 Y136.06 E13.68477
G1 X138.078 Y136.172 E13.77006
G1 X135.527 Y136.356 E13.85513
G1 X133.041 Y136.605 E13.93823
G1 X130.521 Y136.93 E14.02274
G1 X128.01 Y137.327 E14.10729
G1 X125.533 Y137.79 E14.1911
G1 X123.081 Y138.321 E14.27455
G1 X120.628 Y138.924 E14.35856
G1 X118.18 Y139.601 E14.44304
G1 X115.769 Y140.342 E14.52693
G1 X113.338 Y141.164 E14.61229
G1 X111.011 Y142.026 E14.69482
G1 X108.638 Y142.982 E14.77991
G1 X106.311 Y143.998 E14.86436
G1 X106.085 Y144.102 E14.87264
G1 X104.823 Y144.67 E14.91867
G1 X104.421 Y144.841 E14.9332
G1 X103.614 Y145.165 E14.96212
G1 X103.314 Y145.28 E14.97281
G1 X103.044 Y145.379 E14.98237
G1 X102.648 Y145.517 E14.99632
G1 X102.432 Y145.588 E15.00388
G1 X101.739 Y145.808 E15.02807
G1 X101.458 Y145.893 E15.03783
G1 X101.176 Y145.974 E15.04759
G1 X100.899 Y146.05 E15.05714
G1 X100.563 Y146.135 E15.06867
G1 X99.828 Y146.311 E15.09381
G1 X99.576 Y146.368 E15.1024
G1 X99.3 Y146.427 E15.11179
G1 X98.962 Y146.493 E15.12324
G1 X98.661 Y146.546 E15.13341
G1 X97.922 Y146.668 E15.15832
G1 X97.624 Y146.713 E15.16834
G1 X97.107 Y146.781 E15.18569
G1 X96.699 Y146.824 E15.19933
G1 X96.297 Y146.86 E15.21276
G1 X95.945 Y146.885 E15.22449
G1 X94.802 Y146.949 E15.26257
G1 X94.433 Y146.964 E15.27485
G1 X94.054 Y146.972 E15.28746
G1 X93.74 Y146.974 E15.2979
G1 X93.387 Y146.971 E15.30964
G1 X92.954 Y146.958 E15.32405
G1 X92.103 Y146.916 E15.35239
G1 X91.753 Y146.893 E15.36406
G1 X91.309 Y146.854 E15.37888
G1 X90.896 Y146.809 E15.3927
G1 X90.445 Y146.753 E15.40782
G1 X90.055 Y146.697 E15.42092
G1 X88.969 Y146.521 E15.45751
G1 X88.602 Y146.455 E15.46991
G1 X88.224 Y146.38 E15.48273
G1 X87.905 Y146.312 E15.49358
G1 X87.519 Y146.223 E15.50676
G1 X87.101 Y146.117 E15.5211
G1 X86.316 Y145.902 E15.54817
G1 X86.001 Y145.811 E15.55907
G1 X85.653 Y145.704 E15.57118
G1 X85.253 Y145.572 E15.58519
G1 X84.462 Y145.294 E15.61308
G1 X84.142 Y145.176 E15.62442
