;FLAVOR:Marlin
;TIME:3332
;Filament used: 1.28505m
;Layer height: 0.12
;MINX:74
;MINY:88.707
;MINZ:0.12
;MAXX:146
;MAXY:130.627
;MAXZ:8.52
;Generated with Creality Slicer 4.8.2-218
M140 S80
M105
M190 S80
M104 S245
M105
M109 S245
M82 ;absolute extrusion mode

G28 ;Home

G92 E0 ;Reset Extruder
G1 Z2.0 F3000 ;Move Z Axis up
G1 X10.1 Y20 Z0.28 F5000.0 ;Move to start position
G1 X10.1 Y200.0 Z0.28 F1500.0 E15 ;Draw the first line
G1 X10.4 Y200.0 Z0.28 F5000.0 ;Move to side a little
G1 X10.4 Y20 Z0.28 F1500.0 E30 ;Draw the second line
G92 E0 ;Reset Extruder
G1 Z2.0 F3000 ;Move Z Axis up

G92 E0
G92 E0
G1 F2700 E-5
;LAYER_COUNT:71
;LAYER:0
M107
G0 F6000 X77.899 Y91.323 Z0.12
;TYPE:SKIRT
G1 F2700 E0
G1 F1200 X78.64 Y90.748 E0.01872
G1 X79.427 Y90.238 E0.03743
G1 X80.255 Y89.797 E0.05615
G1 X81.117 Y89.428 E0.07487
G1 X82.008 Y89.134 E0.09359
G1 X82.92 Y88.916 E0.1123
G1 X83.847 Y88.778 E0.131
G1 X84.701 Y88.72 E0.14809
G1 X85.021 Y88.711 E0.15448
G1 X85.33 Y88.707 E0.16064
G1 X134.293 Y88.707 E1.13775
G1 X135.149 Y88.718 E1.15484
G1 X136.085 Y88.772 E1.17355
G1 X137.013 Y88.904 E1.19225
G1 X137.927 Y89.116 E1.21098
G1 X138.819 Y89.405 E1.22969
G1 X139.684 Y89.768 E1.24841
G1 X140.514 Y90.204 E1.26712
G1 X141.305 Y90.709 E1.28585
G1 X142.049 Y91.28 E1.30456
G1 X142.742 Y91.912 E1.32328
G1 X143.379 Y92.6 E1.34199
G1 X143.954 Y93.341 E1.36071
G1 X144.465 Y94.127 E1.37942
G1 X144.907 Y94.955 E1.39815
G1 X145.276 Y95.817 E1.41686
G1 X145.571 Y96.707 E1.43557
G1 X145.789 Y97.619 E1.45428
G1 X145.929 Y98.547 E1.47301
G1 X145.987 Y99.408 E1.49023
G1 X145.996 Y99.728 E1.49662
G1 X146 Y100.037 E1.50279
G1 X145.999 Y107.079 E1.64332
G1 X145.982 Y108.285 E1.66739
G1 X145.982 Y110.927 E1.72011
G1 X145.998 Y111.677 E1.73508
G1 X146 Y111.934 E1.74021
G1 X145.999 Y119.025 E1.88172
G1 X145.99 Y119.74 E1.89599
G1 X145.938 Y120.677 E1.91472
G1 X145.807 Y121.606 E1.93344
G1 X145.597 Y122.52 E1.95215
G1 X145.31 Y123.412 E1.97085
G1 X144.948 Y124.278 E1.98958
G1 X144.513 Y125.109 E2.0083
G1 X144.01 Y125.9 E2.02701
G1 X143.44 Y126.645 E2.04573
G1 X142.81 Y127.339 E2.06443
G1 X142.122 Y127.977 E2.08316
G1 X141.383 Y128.554 E2.10187
G1 X140.597 Y129.066 E2.12059
G1 X139.77 Y129.509 E2.13931
G1 X138.909 Y129.881 E2.15803
G1 X138.019 Y130.177 E2.17675
G1 X137.108 Y130.396 E2.19544
G1 X136.18 Y130.538 E2.21418
G1 X135.24 Y130.599 E2.23298
G1 X134.021 Y130.625 E2.25731
G1 X133.444 Y130.627 E2.26882
G1 X129.776 Y130.613 E2.34202
G1 X89.784 Y130.614 E3.14011
G1 X86.457 Y130.626 E3.2065
G1 X85.491 Y130.624 E3.22578
G1 X84.85 Y130.614 E3.23857
G1 X83.914 Y130.559 E3.25728
G1 X82.986 Y130.425 E3.27599
G1 X82.072 Y130.212 E3.29472
G1 X81.18 Y129.922 E3.31344
G1 X80.316 Y129.558 E3.33215
G1 X79.487 Y129.121 E3.35085
G1 X78.697 Y128.615 E3.36957
G1 X77.953 Y128.043 E3.3883
G1 X77.261 Y127.41 E3.40702
G1 X76.625 Y126.721 E3.42573
G1 X76.05 Y125.98 E3.44445
G1 X75.541 Y125.193 E3.46315
G1 X75.1 Y124.365 E3.48187
G1 X74.732 Y123.502 E3.50059
G1 X74.438 Y122.611 E3.51932
G1 X74.221 Y121.699 E3.53803
G1 X74.083 Y120.771 E3.55675
G1 X74.024 Y119.842 E3.57533
G1 X74.002 Y118.774 E3.59664
G1 X74 Y118.547 E3.60117
G1 X74.001 Y112.275 E3.72634
G1 X74.025 Y110.634 E3.75909
G1 X74.012 Y107.236 E3.8269
G1 X74 Y106.568 E3.84023
G1 X74.001 Y100.216 E3.967
G1 X74.011 Y99.551 E3.98027
G1 X74.065 Y98.614 E3.999
G1 X74.199 Y97.686 E4.01771
G1 X74.411 Y96.772 E4.03643
G1 X74.7 Y95.88 E4.05514
G1 X75.065 Y95.016 E4.07386
G1 X75.501 Y94.186 E4.09257
G1 X76.007 Y93.396 E4.11129
G1 X76.578 Y92.652 E4.13001
G1 X77.21 Y91.959 E4.14873
G1 X77.899 Y91.323 E4.16744
G0 F6000 X78.288 Y91.52
G1 F1200 X79.024 Y90.968 E4.1858
G1 X79.806 Y90.481 E4.20418
G1 X80.627 Y90.065 E4.22255
G1 X81.481 Y89.721 E4.24092
G1 X82.361 Y89.452 E4.25929
G1 X83.262 Y89.261 E4.27767
G1 X84.176 Y89.149 E4.29604
G1 X84.712 Y89.12 E4.30676
G1 X85.032 Y89.111 E4.31314
G1 X85.33 Y89.107 E4.31909
G1 X134.293 Y89.107 E5.2962
G1 X135.143 Y89.118 E5.31316
G1 X136.062 Y89.171 E5.33153
G1 X136.973 Y89.304 E5.34991
G1 X137.869 Y89.515 E5.36828
G1 X138.743 Y89.803 E5.38664
G1 X139.59 Y90.166 E5.40503
G1 X140.401 Y90.601 E5.4234
G1 X141.171 Y91.105 E5.44176
G1 X141.895 Y91.674 E5.46014
G1 X142.567 Y92.304 E5.47852
G1 X143.182 Y92.989 E5.49689
G1 X143.735 Y93.725 E5.51526
G1 X144.222 Y94.506 E5.53363
G1 X144.639 Y95.327 E5.55201
G1 X144.984 Y96.181 E5.57039
G1 X145.253 Y97.061 E5.58875
G1 X145.445 Y97.962 E5.60713
G1 X145.558 Y98.875 E5.62549
G1 X145.587 Y99.419 E5.63637
G1 X145.596 Y99.739 E5.64275
G1 X145.6 Y100.037 E5.6487
G1 X145.599 Y107.073 E5.78911
G1 X145.582 Y108.279 E5.81318
G1 X145.582 Y110.936 E5.8662
G1 X145.598 Y111.681 E5.88108
G1 X145.6 Y111.938 E5.8862
G1 X145.599 Y119.02 E6.02753
G1 X145.59 Y119.735 E6.0418
G1 X145.539 Y120.655 E6.06019
G1 X145.407 Y121.566 E6.07856
G1 X145.198 Y122.462 E6.09692
G1 X144.911 Y123.337 E6.1153
G1 X144.55 Y124.184 E6.13367
G1 X144.116 Y124.996 E6.15205
G1 X143.613 Y125.767 E6.17042
G1 X143.046 Y126.492 E6.18878
G1 X142.418 Y127.165 E6.20715
G1 X141.733 Y127.781 E6.22554
G1 X140.998 Y128.335 E6.24391
G1 X140.218 Y128.824 E6.26228
G1 X139.398 Y129.243 E6.28065
G1 X138.545 Y129.589 E6.29902
G1 X137.665 Y129.859 E6.31739
G1 X136.765 Y130.053 E6.33577
G1 X135.851 Y130.167 E6.35415
G1 X135.231 Y130.199 E6.36654
G1 X134.019 Y130.225 E6.39073
G1 X133.446 Y130.227 E6.40216
G1 X129.778 Y130.213 E6.47536
G1 X89.783 Y130.214 E7.27351
G1 X86.458 Y130.226 E7.33986
G1 X85.498 Y130.224 E7.35902
G1 X84.857 Y130.214 E7.37181
G1 X83.938 Y130.159 E7.39018
G1 X83.027 Y130.026 E7.40856
G1 X82.131 Y129.813 E7.42694
G1 X81.257 Y129.524 E7.44531
G1 X80.411 Y129.16 E7.46369
G1 X79.6 Y128.724 E7.48206
G1 X78.831 Y128.219 E7.50042
G1 X78.107 Y127.649 E7.51881
G1 X77.436 Y127.019 E7.53718
G1 X76.822 Y126.333 E7.55555
G1 X76.27 Y125.596 E7.57392
G1 X75.785 Y124.814 E7.59229
G1 X75.368 Y123.993 E7.61066
G1 X75.025 Y123.139 E7.62903
G1 X74.757 Y122.258 E7.64741
G1 X74.566 Y121.357 E7.66579
G1 X74.454 Y120.443 E7.68416
G1 X74.424 Y119.833 E7.69635
G1 X74.402 Y118.765 E7.71767
G1 X74.4 Y118.547 E7.72202
G1 X74.401 Y112.28 E7.84708
G1 X74.425 Y110.638 E7.87986
G1 X74.412 Y107.282 E7.94683
G1 X74.402 Y106.794 E7.95657
G1 X74.4 Y106.568 E7.96108
G1 X74.401 Y100.222 E8.08772
G1 X74.411 Y99.557 E8.10099
G1 X74.465 Y98.638 E8.11936
G1 X74.598 Y97.727 E8.13774
G1 X74.81 Y96.831 E8.15611
G1 X75.099 Y95.956 E8.1745
G1 X75.463 Y95.111 E8.19286
G1 X75.898 Y94.3 E8.21123
G1 X76.403 Y93.529 E8.22962
G1 X76.972 Y92.806 E8.24798
G1 X77.602 Y92.134 E8.26636
G1 X78.288 Y91.52 E8.28474
G0 F6000 X78.675 Y91.721
G1 F1200 X79.407 Y91.192 E8.30276
G1 X80.183 Y90.73 E8.32078
G1 X80.997 Y90.339 E8.3388
G1 X81.842 Y90.02 E8.35683
G1 X82.712 Y89.778 E8.37485
G1 X83.6 Y89.614 E8.39287
G1 X84.723 Y89.52 E8.41536
G1 X85.043 Y89.511 E8.42175
G1 X85.33 Y89.507 E8.42747
G1 X134.293 Y89.507 E9.40458
G1 X135.137 Y89.518 E9.42143
G1 X136.039 Y89.571 E9.43946
G1 X136.932 Y89.703 E9.45747
G1 X137.81 Y89.914 E9.47549
G1 X138.666 Y90.202 E9.49352
G1 X139.493 Y90.564 E9.51153
G1 X140.285 Y90.999 E9.52956
G1 X141.036 Y91.501 E9.54759
G1 X141.739 Y92.068 E9.56562
G1 X142.389 Y92.695 E9.58364
G1 X142.981 Y93.377 E9.60166
G1 X143.511 Y94.108 E9.61968
G1 X143.973 Y94.884 E9.6377
G1 X144.366 Y95.697 E9.65572
G1 X144.684 Y96.542 E9.67374
G1 X144.927 Y97.412 E9.69177
G1 X145.092 Y98.3 E9.70979
G1 X145.187 Y99.43 E9.73242
G1 X145.196 Y99.75 E9.73881
G1 X145.2 Y100.037 E9.74454
G1 X145.199 Y107.068 E9.88485
G1 X145.182 Y108.274 E9.90892
G1 X145.182 Y110.899 E9.9613
G1 X145.198 Y111.684 E9.97697
G1 X145.2 Y111.941 E9.9821
G1 X145.199 Y119.015 E10.12327
G1 X145.19 Y119.73 E10.13754
G1 X145.139 Y120.632 E10.15557
G1 X145.008 Y121.526 E10.1736
G1 X144.799 Y122.404 E10.19161
G1 X144.512 Y123.261 E10.20965
G1 X144.151 Y124.088 E10.22765
G1 X143.719 Y124.881 E10.24567
G1 X143.217 Y125.632 E10.2637
G1 X142.652 Y126.336 E10.28172
G1 X142.026 Y126.988 E10.29975
G1 X141.345 Y127.581 E10.31777
G1 X140.615 Y128.112 E10.33579
G1 X139.84 Y128.576 E10.35381
G1 X139.027 Y128.97 E10.37184
G1 X138.183 Y129.29 E10.38986
G1 X137.313 Y129.534 E10.40789
G1 X136.426 Y129.701 E10.4259
G1 X135.222 Y129.799 E10.45001
G1 X134.018 Y129.825 E10.47404
G1 X133.447 Y129.827 E10.48543
G1 X129.779 Y129.813 E10.55863
G1 X89.781 Y129.814 E11.35684
G1 X86.458 Y129.826 E11.42315
G1 X85.504 Y129.824 E11.44219
G1 X84.863 Y129.814 E11.45498
G1 X83.961 Y129.76 E11.47302
G1 X83.068 Y129.626 E11.49104
G1 X82.19 Y129.414 E11.50906
G1 X81.335 Y129.125 E11.52707
G1 X80.508 Y128.762 E11.54509
G1 X79.717 Y128.327 E11.56311
G1 X78.967 Y127.823 E11.58114
G1 X78.265 Y127.255 E11.59916
G1 X77.615 Y126.628 E11.61719
G1 X77.024 Y125.945 E11.63521
G1 X76.495 Y125.213 E11.65323
G1 X76.034 Y124.437 E11.67125
G1 X75.642 Y123.623 E11.68928
G1 X75.325 Y122.777 E11.7073
G1 X75.083 Y121.907 E11.72533
G1 X74.919 Y121.019 E11.74335
G1 X74.824 Y119.825 E11.76725
G1 X74.802 Y118.757 E11.78857
G1 X74.8 Y118.547 E11.79276
G1 X74.801 Y112.286 E11.9177
G1 X74.825 Y110.643 E11.95049
G1 X74.812 Y107.272 E12.01777
G1 X74.802 Y106.786 E12.02747
G1 X74.8 Y106.568 E12.03182
G1 X74.801 Y100.228 E12.15834
G1 X74.811 Y99.563 E12.17161
G1 X74.865 Y98.661 E12.18964
G1 X74.998 Y97.768 E12.20766
G1 X75.209 Y96.89 E12.22568
G1 X75.498 Y96.034 E12.24371
G1 X75.861 Y95.207 E12.26174
G1 X76.295 Y94.416 E12.27974
G1 X76.798 Y93.665 E12.29778
G1 X77.366 Y92.963 E12.3158
G1 X77.993 Y92.313 E12.33382
G1 X78.675 Y91.721 E12.35184
G1 F2700 E7.35184
;MESH:BlindsSlider.stl
G0 F6000 X85.414 Y111.042
G0 X85.414 Y112.121
G0 X86 Y118.625
;TYPE:WALL-INNER
G1 F2700 E12.35184
G1 F1200 X86 Y112.707 E12.46994
G1 X134 Y112.707 E13.42784
G1 X134 Y118.625 E13.54594
G1 X133.337 Y118.627 E13.55917
G1 X130.003 Y118.613 E13.6257
G1 X89.998 Y118.613 E14.42404
G1 X86.663 Y118.626 E14.4906
G1 X86 Y118.625 E14.50383
G0 F6000 X85.6 Y119.025
G1 F1200 X85.6 Y112.307 E14.63789
G1 X134.4 Y112.307 E15.61175
G1 X134.4 Y119.024 E15.7458
G1 X133.336 Y119.027 E15.76703
G1 X130.002 Y119.013 E15.83356
G1 X89.999 Y119.013 E16.63187
G1 X86.665 Y119.026 E16.6984
G1 X85.6 Y119.025 E16.71965
G0 F6000 X85.2 Y119.424
;TYPE:WALL-OUTER
G1 F1200 X85.2 Y111.907 E16.86966
G1 X134.8 Y111.907 E17.85949
G1 X134.8 Y119.423 E18.00948
G1 X133.335 Y119.427 E18.03871
G1 X130.001 Y119.413 E18.10524
G1 X90 Y119.413 E18.90351
G1 X86.666 Y119.426 E18.97004
G1 X85.2 Y119.424 E18.9993
G0 F6000 X85.47 Y119.154
G0 X86.11 Y118.235
G0 X86.39 Y118.235
;TYPE:SKIN
G1 F1200 X86.39 Y113.097 E19.10183
G1 X133.61 Y113.097 E20.04416
G1 X133.61 Y118.236 E20.14671
G1 X133.338 Y118.237 E20.15214
G1 X130.005 Y118.223 E20.21865
G1 X89.998 Y118.223 E21.01704
G1 X86.661 Y118.236 E21.08363
G1 X86.39 Y118.235 E21.08904
G0 F6000 X86.96 Y118.073
G1 F1200 X86.549 Y117.662 E21.10064
G0 F6000 X86.549 Y117.096
G1 F1200 X87.524 Y118.071 E21.12816
G0 F6000 X88.087 Y118.069
G1 F1200 X86.549 Y116.531 E21.17156
G0 F6000 X86.549 Y115.965
G1 F1200 X88.651 Y118.067 E21.23088
G0 F6000 X89.214 Y118.064
G1 F1200 X86.549 Y115.399 E21.3061
G0 F6000 X86.549 Y114.834
G1 F1200 X89.778 Y118.062 E21.39721
G0 F6000 X90.343 Y118.062
G1 F1200 X86.549 Y114.268 E21.50429
G0 F6000 X86.549 Y113.702
G1 F1200 X90.909 Y118.062 E21.62734
G0 F6000 X91.474 Y118.062
G1 F1200 X86.669 Y113.256 E21.76296
G0 F6000 X87.235 Y113.256
G1 F1200 X92.04 Y118.062 E21.89858
G0 F6000 X92.606 Y118.062
G1 F1200 X87.8 Y113.256 E22.03421
G0 F6000 X88.366 Y113.256
G1 F1200 X93.171 Y118.062 E22.16984
G0 F6000 X93.737 Y118.062
G1 F1200 X88.932 Y113.256 E22.30546
G0 F6000 X89.497 Y113.256
G1 F1200 X94.303 Y118.062 E22.44109
G0 F6000 X94.868 Y118.062
G1 F1200 X90.063 Y113.256 E22.57671
G0 F6000 X90.629 Y113.256
G1 F1200 X95.434 Y118.062 E22.71234
G0 F6000 X96 Y118.062
G1 F1200 X91.194 Y113.256 E22.84797
G0 F6000 X91.76 Y113.256
G1 F1200 X96.566 Y118.062 E22.98361
G0 F6000 X97.131 Y118.062
G1 F1200 X92.326 Y113.256 E23.11923
G0 F6000 X92.891 Y113.256
G1 F1200 X97.697 Y118.062 E23.25487
G0 F6000 X98.263 Y118.062
G1 F1200 X93.457 Y113.256 E23.3905
G0 F6000 X94.023 Y113.256
G1 F1200 X98.828 Y118.062 E23.52612
G0 F6000 X99.394 Y118.062
G1 F1200 X94.588 Y113.256 E23.66176
G0 F6000 X95.154 Y113.256
G1 F1200 X99.96 Y118.062 E23.79739
G0 F6000 X100.525 Y118.062
G1 F1200 X95.72 Y113.256 E23.93302
G0 F6000 X96.286 Y113.256
G1 F1200 X101.091 Y118.062 E24.06864
G0 F6000 X101.657 Y118.062
G1 F1200 X96.851 Y113.256 E24.20427
G0 F6000 X97.417 Y113.256
G1 F1200 X102.222 Y118.062 E24.33989
G0 F6000 X102.788 Y118.062
G1 F1200 X97.983 Y113.256 E24.47552
G0 F6000 X98.548 Y113.256
G1 F1200 X103.354 Y118.062 E24.61115
G0 F6000 X103.919 Y118.062
G1 F1200 X99.114 Y113.256 E24.74677
G0 F6000 X99.68 Y113.256
G1 F1200 X104.485 Y118.062 E24.88239
G0 F6000 X105.051 Y118.062
G1 F1200 X100.245 Y113.256 E25.01803
G0 F6000 X100.811 Y113.256
G1 F1200 X105.617 Y118.062 E25.15367
G0 F6000 X106.182 Y118.062
G1 F1200 X101.377 Y113.256 E25.28929
G0 F6000 X101.942 Y113.256
G1 F1200 X106.748 Y118.062 E25.42492
G0 F6000 X107.314 Y118.062
G1 F1200 X102.508 Y113.256 E25.56056
G0 F6000 X103.074 Y113.256
G1 F1200 X107.879 Y118.062 E25.69618
G0 F6000 X108.445 Y118.062
G1 F1200 X103.639 Y113.256 E25.83182
G0 F6000 X104.205 Y113.256
G1 F1200 X109.011 Y118.062 E25.96745
G0 F6000 X109.576 Y118.062
G1 F1200 X104.771 Y113.256 E26.10307
G0 F6000 X105.336 Y113.256
G1 F1200 X110.143 Y118.062 E26.23872
G0 F6000 X110.708 Y118.062
G1 F1200 X105.902 Y113.256 E26.37436
G0 F6000 X106.468 Y113.256
G1 F1200 X111.274 Y118.062 E26.50999
G0 F6000 X111.84 Y118.062
G1 F1200 X107.034 Y113.256 E26.64563
G0 F6000 X107.599 Y113.256
G1 F1200 X112.405 Y118.062 E26.78127
G0 F6000 X112.971 Y118.062
G1 F1200 X108.165 Y113.256 E26.9169
G0 F6000 X108.731 Y113.256
G1 F1200 X113.537 Y118.062 E27.05254
G0 F6000 X114.102 Y118.062
G1 F1200 X109.296 Y113.256 E27.18817
G0 F6000 X109.862 Y113.256
G1 F1200 X114.668 Y118.062 E27.32381
G0 F6000 X115.234 Y118.062
G1 F1200 X110.428 Y113.257 E27.45943
G0 F6000 X110.994 Y113.257
G1 F1200 X115.8 Y118.062 E27.59505
G0 F6000 X116.365 Y118.062
G1 F1200 X111.56 Y113.257 E27.73066
G0 F6000 X112.125 Y113.257
G1 F1200 X116.931 Y118.062 E27.86628
G0 F6000 X117.497 Y118.062
G1 F1200 X112.691 Y113.257 E28.0019
G0 F6000 X113.257 Y113.257
G1 F1200 X118.062 Y118.062 E28.13751
G0 F6000 X118.628 Y118.062
G1 F1200 X113.822 Y113.257 E28.27313
G0 F6000 X114.388 Y113.257
G1 F1200 X119.194 Y118.062 E28.40875
G0 F6000 X119.759 Y118.062
G1 F1200 X114.954 Y113.257 E28.54436
G0 F6000 X115.52 Y113.257
G1 F1200 X120.325 Y118.062 E28.67997
G0 F6000 X120.891 Y118.062
G1 F1200 X116.085 Y113.257 E28.81559
G0 F6000 X116.651 Y113.257
G1 F1200 X121.456 Y118.062 E28.9512
G0 F6000 X122.022 Y118.062
G1 F1200 X117.217 Y113.257 E29.08681
G0 F6000 X117.782 Y113.257
G1 F1200 X122.588 Y118.062 E29.22243
G0 F6000 X123.153 Y118.062
G1 F1200 X118.348 Y113.257 E29.35803
G0 F6000 X118.914 Y113.257
G1 F1200 X123.719 Y118.062 E29.49364
G0 F6000 X124.285 Y118.062
G1 F1200 X119.479 Y113.257 E29.62926
G0 F6000 X120.045 Y113.257
G1 F1200 X124.851 Y118.062 E29.76488
G0 F6000 X125.416 Y118.062
G1 F1200 X120.611 Y113.257 E29.90049
G0 F6000 X121.176 Y113.257
G1 F1200 X125.982 Y118.062 E30.03611
G0 F6000 X126.548 Y118.062
G1 F1200 X121.742 Y113.257 E30.17174
G0 F6000 X122.308 Y113.257
G1 F1200 X127.113 Y118.062 E30.30734
G0 F6000 X127.679 Y118.062
G1 F1200 X122.873 Y113.257 E30.44296
G0 F6000 X123.439 Y113.257
G1 F1200 X128.245 Y118.062 E30.57859
G0 F6000 X128.81 Y118.062
G1 F1200 X124.005 Y113.257 E30.71419
G0 F6000 X124.571 Y113.257
G1 F1200 X129.376 Y118.062 E30.8498
G0 F6000 X129.942 Y118.062
G1 F1200 X125.136 Y113.257 E30.98542
