;FLAVOR:Marlin
;TIME:7629
;Filament used: 4.83586m
;Layer height: 0.2
;MINX:63.5
;MINY:63.3
;MINZ:0.2
;MAXX:156.5
;MAXY:156.7
;MAXZ:14
;Generated with Creality Slicer 4.8.2-218
M140 S80
M105
M190 S80
M104 S245
M105
M109 S245
M82 ;absolute extrusion mode

G28 ;Home

G92 E0 ;Reset Extruder
G1 Z2.0 F3000 ;Move Z Axis up
G1 X10.1 Y20 Z0.28 F5000.0 ;Move to start position
G1 X10.1 Y200.0 Z0.28 F1500.0 E15 ;Draw the first line
G1 X10.4 Y200.0 Z0.28 F5000.0 ;Move to side a little
G1 X10.4 Y20 Z0.28 F1500.0 E30 ;Draw the second line
G92 E0 ;Reset Extruder
G1 Z2.0 F3000 ;Move Z Axis up

G92 E0
G92 E0
G1 F2700 E-5
;LAYER_COUNT:70
;LAYER:0
M107
G0 F6000 X68.133 Y87.342 Z0.2
;TYPE:SKIRT
G1 F2700 E0
G1 F1200 X68.875 Y86.858 E0.02947
G1 X69.405 Y86.542 E0.04999
G1 X71.642 Y85.162 E0.13741
G1 X73.743 Y83.783 E0.221
G1 X75.827 Y82.329 E0.30551
G1 X77.828 Y80.848 E0.38831
G1 X79.806 Y79.294 E0.47198
G1 X81.737 Y77.688 E0.55551
G1 X83.634 Y76.015 E0.63964
G1 X85.478 Y74.297 E0.72346
G1 X87.252 Y72.544 E0.80641
G1 X89.015 Y70.705 E0.89115
G1 X90.7 Y68.843 E0.97467
G1 X91.958 Y67.371 E1.03907
G1 X92.233 Y67.058 E1.05293
G1 X92.882 Y66.38 E1.08415
G1 X93.909 Y65.509 E1.12894
G1 X94.683 Y64.979 E1.16014
G1 X95.499 Y64.516 E1.19134
G1 X96.351 Y64.125 E1.22252
G1 X97.234 Y63.808 E1.25372
G1 X98.14 Y63.567 E1.28491
G1 X99.064 Y63.404 E1.31611
G1 X100.201 Y63.313 E1.35405
G1 X100.522 Y63.304 E1.36473
G1 X100.83 Y63.3 E1.37498
G1 X107.316 Y63.3 E1.5907
G1 X108.614 Y63.317 E1.63388
G1 X111.254 Y63.317 E1.72168
G1 X111.961 Y63.302 E1.7452
G1 X112.232 Y63.3 E1.75422
G1 X118.95 Y63.301 E1.97766
G1 X119.652 Y63.311 E2.00101
G1 X120.588 Y63.364 E2.03219
G1 X121.516 Y63.497 E2.06337
G1 X122.43 Y63.709 E2.09458
G1 X123.323 Y63.997 E2.12579
G1 X124.187 Y64.361 E2.15697
G1 X125.018 Y64.797 E2.18818
G1 X125.808 Y65.302 E2.21937
G1 X126.552 Y65.872 E2.25054
G1 X127.245 Y66.504 E2.28174
G1 X127.85 Y67.155 E2.31129
G1 X128.485 Y67.897 E2.34378
G1 X130.226 Y69.872 E2.43134
G1 X131.939 Y71.709 E2.51489
G1 X133.697 Y73.489 E2.5981
G1 X135.527 Y75.242 E2.68238
G1 X137.399 Y76.935 E2.76633
G1 X139.303 Y78.562 E2.84963
G1 X141.272 Y80.15 E2.93376
G1 X143.261 Y81.662 E3.01686
G1 X145.295 Y83.122 E3.10014
G1 X147.395 Y84.539 E3.1844
G1 X149.543 Y85.903 E3.26903
G1 X150.579 Y86.521 E3.30915
G1 X151.262 Y86.942 E3.33584
G1 X152.039 Y87.468 E3.36704
G1 X152.768 Y88.058 E3.39824
G1 X153.444 Y88.708 E3.42943
G1 X154.062 Y89.413 E3.46061
G1 X154.618 Y90.168 E3.4918
G1 X155.108 Y90.968 E3.523
G1 X155.528 Y91.807 E3.5542
G1 X155.874 Y92.678 E3.58538
G1 X156.146 Y93.576 E3.61658
G1 X156.34 Y94.493 E3.64776
G1 X156.455 Y95.424 E3.67896
G1 X156.485 Y95.967 E3.69705
G1 X156.495 Y96.291 E3.70783
G1 X156.5 Y96.63 E3.7191
G1 X156.499 Y123.108 E4.59977
G1 X156.489 Y123.844 E4.62425
G1 X156.436 Y124.781 E4.65546
G1 X156.304 Y125.709 E4.68664
G1 X156.093 Y126.623 E4.71784
G1 X155.805 Y127.516 E4.74905
G1 X155.442 Y128.381 E4.78025
G1 X155.007 Y129.211 E4.81141
G1 X154.502 Y130.002 E4.84263
G1 X153.932 Y130.747 E4.87383
G1 X153.301 Y131.44 E4.905
G1 X152.613 Y132.077 E4.93618
G1 X151.873 Y132.654 E4.96739
G1 X151.125 Y133.142 E4.9971
G1 X150.583 Y133.465 E5.01808
G1 X148.362 Y134.835 E5.10488
G1 X146.239 Y136.229 E5.18935
G1 X144.196 Y137.654 E5.2722
G1 X142.168 Y139.155 E5.35612
G1 X140.194 Y140.706 E5.43961
G1 X138.248 Y142.325 E5.52381
G1 X136.376 Y143.974 E5.60678
G1 X134.521 Y145.704 E5.69115
G1 X132.742 Y147.461 E5.77431
G1 X131.002 Y149.278 E5.85799
G1 X129.279 Y151.182 E5.94339
G1 X128.058 Y152.61 E6.00588
G1 X127.766 Y152.943 E6.02061
G1 X127.118 Y153.621 E6.05181
G1 X126.415 Y154.242 E6.08301
G1 X125.661 Y154.8 E6.1142
G1 X124.863 Y155.292 E6.14538
G1 X124.025 Y155.715 E6.17661
G1 X123.155 Y156.064 E6.20778
G1 X122.258 Y156.338 E6.23898
G1 X121.341 Y156.535 E6.27017
G1 X120.41 Y156.653 E6.30139
G1 X119.799 Y156.687 E6.32174
G1 X119.474 Y156.696 E6.33255
G1 X119.17 Y156.7 E6.34267
G1 X112.53 Y156.699 E6.56351
G1 X111.386 Y156.683 E6.60157
G1 X108.746 Y156.683 E6.68937
G1 X108.039 Y156.698 E6.71289
G1 X107.768 Y156.7 E6.72191
G1 X101.05 Y156.699 E6.94535
G1 X100.348 Y156.689 E6.9687
G1 X99.412 Y156.636 E6.99988
G1 X98.484 Y156.503 E7.03106
G1 X97.57 Y156.291 E7.06227
G1 X96.677 Y156.003 E7.09348
G1 X95.813 Y155.639 E7.12466
G1 X94.982 Y155.203 E7.15587
G1 X94.192 Y154.698 E7.18706
G1 X93.448 Y154.128 E7.21823
G1 X92.755 Y153.496 E7.24943
G1 X92.15 Y152.845 E7.27898
G1 X91.515 Y152.103 E7.31147
G1 X89.774 Y150.128 E7.39903
G1 X88.06 Y148.29 E7.48262
G1 X86.303 Y146.511 E7.56579
G1 X84.472 Y144.757 E7.65012
G1 X82.601 Y143.065 E7.73402
G1 X80.697 Y141.438 E7.81732
G1 X78.728 Y139.85 E7.90145
G1 X76.739 Y138.338 E7.98455
G1 X74.705 Y136.878 E8.06783
G1 X72.605 Y135.461 E8.15209
G1 X70.457 Y134.097 E8.23672
G1 X69.417 Y133.477 E8.27699
G1 X68.733 Y133.055 E8.30372
G1 X67.957 Y132.529 E8.3349
G1 X67.228 Y131.938 E8.36611
G1 X66.552 Y131.288 E8.39731
G1 X65.934 Y130.583 E8.42849
G1 X65.378 Y129.827 E8.4597
G1 X64.889 Y129.027 E8.49089
G1 X64.469 Y128.188 E8.52209
G1 X64.123 Y127.317 E8.55326
G1 X63.852 Y126.419 E8.58446
G1 X63.659 Y125.501 E8.61566
G1 X63.544 Y124.57 E8.64686
G1 X63.513 Y123.999 E8.66588
G1 X63.504 Y123.676 E8.67663
G1 X63.5 Y123.37 E8.68681
G1 X63.501 Y96.85 E9.56887
G1 X63.511 Y96.148 E9.59222
G1 X63.564 Y95.212 E9.6234
G1 X63.697 Y94.284 E9.65458
G1 X63.909 Y93.37 E9.68579
G1 X64.197 Y92.477 E9.71699
G1 X64.561 Y91.613 E9.74818
G1 X64.997 Y90.782 E9.77939
G1 X65.502 Y89.992 E9.81057
G1 X66.072 Y89.248 E9.84175
G1 X66.704 Y88.555 E9.87294
G1 X67.393 Y87.918 E9.90415
G1 X68.133 Y87.342 E9.93534
G0 F6000 X68.517 Y87.562
G1 F1200 X69.08 Y87.202 E9.95757
G1 X69.614 Y86.884 E9.97824
G1 X71.849 Y85.504 E10.0656
G1 X73.962 Y84.118 E10.14965
G1 X76.048 Y82.662 E10.23426
G1 X78.068 Y81.168 E10.31783
G1 X80.063 Y79.6 E10.40222
G1 X82.012 Y77.979 E10.48654
G1 X83.908 Y76.307 E10.57062
G1 X85.749 Y74.591 E10.65432
G1 X87.539 Y72.823 E10.738
G1 X89.299 Y70.986 E10.82262
G1 X90.986 Y69.123 E10.90621
G1 X92.161 Y67.747 E10.96639
G1 X92.534 Y67.322 E10.9852
G1 X93.171 Y66.657 E11.01583
G1 X94.149 Y65.829 E11.05845
G1 X94.909 Y65.309 E11.08908
G1 X95.711 Y64.857 E11.1197
G1 X96.549 Y64.476 E11.15032
G1 X97.417 Y64.17 E11.18093
G1 X98.309 Y63.94 E11.21157
G1 X99.217 Y63.788 E11.24219
G1 X100.212 Y63.713 E11.27537
G1 X100.533 Y63.704 E11.28605
G1 X100.83 Y63.7 E11.29593
G1 X107.316 Y63.7 E11.51166
G1 X108.608 Y63.717 E11.55463
G1 X111.263 Y63.717 E11.64294
G1 X111.964 Y63.702 E11.66626
G1 X112.235 Y63.7 E11.67527
G1 X118.944 Y63.701 E11.89842
G1 X119.646 Y63.711 E11.92177
G1 X120.565 Y63.764 E11.95238
G1 X121.476 Y63.897 E11.98301
G1 X122.372 Y64.108 E12.01362
G1 X123.247 Y64.396 E12.04426
G1 X124.093 Y64.759 E12.07488
G1 X124.904 Y65.194 E12.10549
G1 X125.675 Y65.698 E12.13612
G1 X126.399 Y66.266 E12.16673
G1 X127.071 Y66.896 E12.19737
G1 X127.546 Y67.415 E12.22077
G1 X128.195 Y68.173 E12.25396
G1 X129.934 Y70.146 E12.34143
G1 X131.644 Y71.981 E12.42486
G1 X133.418 Y73.776 E12.5088
G1 X135.265 Y75.545 E12.59386
G1 X137.099 Y77.204 E12.67611
G1 X139.056 Y78.875 E12.7617
G1 X141.025 Y80.464 E12.84586
G1 X143.031 Y81.99 E12.92969
G1 X145.083 Y83.462 E13.01368
G1 X147.178 Y84.876 E13.09775
G1 X149.303 Y86.225 E13.18146
G1 X150.23 Y86.777 E13.21735
G1 X151.052 Y87.283 E13.24945
G1 X151.814 Y87.799 E13.28006
G1 X152.528 Y88.38 E13.31068
G1 X153.19 Y89.021 E13.34133
G1 X153.793 Y89.716 E13.37193
G1 X154.333 Y90.462 E13.40256
G1 X154.807 Y91.251 E13.43317
G1 X155.21 Y92.078 E13.46377
G1 X155.541 Y92.938 E13.49442
G1 X155.795 Y93.823 E13.52504
G1 X155.972 Y94.726 E13.55565
G1 X156.085 Y95.979 E13.59749
G1 X156.095 Y96.303 E13.60828
G1 X156.1 Y96.63 E13.61915
G1 X156.099 Y123.103 E14.49965
G1 X156.089 Y123.839 E14.52413
G1 X156.037 Y124.758 E14.55474
G1 X155.905 Y125.669 E14.58536
G1 X155.694 Y126.566 E14.61601
G1 X155.406 Y127.44 E14.64662
G1 X155.044 Y128.286 E14.67722
G1 X154.61 Y129.098 E14.70785
G1 X154.106 Y129.869 E14.73848
G1 X153.538 Y130.593 E14.76909
G1 X152.909 Y131.266 E14.79973
G1 X152.224 Y131.881 E14.83035
G1 X151.488 Y132.434 E14.86096
G1 X150.92 Y132.798 E14.8834
G1 X150.374 Y133.124 E14.90455
G1 X148.155 Y134.492 E14.99126
G1 X146.02 Y135.893 E15.07619
G1 X143.975 Y137.32 E15.15913
G1 X141.929 Y138.835 E15.2438
G1 X139.933 Y140.403 E15.32823
G1 X137.994 Y142.015 E15.41209
G1 X136.085 Y143.698 E15.49674
G1 X134.249 Y145.409 E15.58021
G1 X132.472 Y147.164 E15.66328
G1 X130.683 Y149.033 E15.74933
G1 X128.994 Y150.899 E15.83304
G1 X127.757 Y152.347 E15.89638
G1 X127.465 Y152.68 E15.91112
G1 X126.828 Y153.345 E15.94174
G1 X126.137 Y153.952 E15.97233
G1 X125.395 Y154.497 E16.00296
G1 X124.608 Y154.976 E16.0336
G1 X123.783 Y155.385 E16.06422
G1 X122.926 Y155.72 E16.09483
G1 X122.043 Y155.98 E16.12544
G1 X121.14 Y156.163 E16.15609
G1 X119.788 Y156.287 E16.20125
G1 X119.463 Y156.296 E16.21206
G1 X119.17 Y156.3 E16.2218
G1 X112.536 Y156.299 E16.44245
G1 X111.392 Y156.283 E16.48051
G1 X108.737 Y156.283 E16.56881
G1 X108.036 Y156.298 E16.59213
G1 X107.765 Y156.3 E16.60115
G1 X101.056 Y156.299 E16.82429
G1 X100.354 Y156.289 E16.84764
G1 X99.435 Y156.236 E16.87826
G1 X98.524 Y156.103 E16.90888
G1 X97.628 Y155.892 E16.93949
G1 X96.753 Y155.604 E16.97013
G1 X95.907 Y155.241 E17.00075
G1 X95.096 Y154.806 E17.03136
G1 X94.325 Y154.302 E17.062
G1 X93.601 Y153.734 E17.0926
G1 X92.929 Y153.104 E17.12324
G1 X92.454 Y152.585 E17.14664
G1 X91.805 Y151.827 E17.17983
G1 X90.066 Y149.854 E17.2673
G1 X88.355 Y148.018 E17.35078
G1 X86.6 Y146.241 E17.43384
G1 X84.735 Y144.456 E17.51971
G1 X82.881 Y142.779 E17.60286
G1 X80.944 Y141.125 E17.68757
G1 X78.975 Y139.536 E17.77173
G1 X76.969 Y138.01 E17.85556
G1 X74.917 Y136.538 E17.93955
G1 X72.822 Y135.124 E18.02362
G1 X70.697 Y133.775 E18.10733
G1 X69.627 Y133.136 E18.14879
G1 X68.943 Y132.714 E18.17552
G1 X68.181 Y132.197 E18.20614
G1 X67.467 Y131.616 E18.23676
G1 X66.806 Y130.975 E18.26739
G1 X66.204 Y130.279 E18.29799
G1 X65.663 Y129.534 E18.32862
G1 X65.19 Y128.744 E18.35924
G1 X64.787 Y127.917 E18.38984
G1 X64.457 Y127.057 E18.42048
G1 X64.203 Y126.172 E18.4511
G1 X64.027 Y125.269 E18.4817
G1 X63.913 Y123.988 E18.52447
G1 X63.904 Y123.665 E18.53522
G1 X63.9 Y123.37 E18.54503
G1 X63.901 Y96.856 E19.42689
G1 X63.911 Y96.154 E19.45024
G1 X63.964 Y95.235 E19.48086
G1 X64.097 Y94.324 E19.51148
G1 X64.308 Y93.428 E19.5421
G1 X64.596 Y92.553 E19.57274
G1 X64.959 Y91.707 E19.60336
G1 X65.394 Y90.896 E19.63396
G1 X65.898 Y90.125 E19.6646
G1 X66.466 Y89.401 E19.69521
G1 X67.096 Y88.729 E19.72584
G1 X67.781 Y88.115 E19.75644
G1 X68.517 Y87.562 E19.78706
G0 F6000 X68.901 Y87.786
G1 F1200 X69.285 Y87.545 E19.80214
G1 X69.823 Y87.224 E19.82298
G1 X72.074 Y85.836 E19.91093
G1 X74.188 Y84.448 E19.99505
G1 X76.292 Y82.98 E20.08038
G1 X78.307 Y81.488 E20.16377
G1 X80.321 Y79.907 E20.24893
G1 X82.249 Y78.303 E20.33234
G1 X84.181 Y76.599 E20.41802
G1 X86.019 Y74.886 E20.50159
G1 X87.845 Y73.082 E20.58696
G1 X89.586 Y71.266 E20.67064
G1 X91.286 Y69.388 E20.75489
G1 X92.559 Y67.899 E20.82005
G1 X92.834 Y67.586 E20.8339
G1 X93.46 Y66.934 E20.86397
G1 X94.389 Y66.149 E20.90442
G1 X95.135 Y65.64 E20.93446
G1 X95.923 Y65.198 E20.96451
G1 X96.747 Y64.828 E20.99455
G1 X97.6 Y64.533 E21.02457
G1 X98.476 Y64.314 E21.0546
G1 X99.368 Y64.173 E21.08464
G1 X100.223 Y64.113 E21.11315
G1 X100.544 Y64.104 E21.12383
G1 X100.83 Y64.1 E21.13334
G1 X107.316 Y64.1 E21.34907
G1 X108.603 Y64.117 E21.39187
G1 X111.227 Y64.117 E21.47915
G1 X111.967 Y64.102 E21.50377
G1 X112.238 Y64.1 E21.51278
G1 X118.938 Y64.101 E21.73562
G1 X119.64 Y64.111 E21.75897
G1 X120.542 Y64.164 E21.78903
G1 X121.435 Y64.296 E21.81905
G1 X122.313 Y64.507 E21.84908
G1 X123.169 Y64.795 E21.87912
G1 X123.997 Y65.157 E21.90918
G1 X124.789 Y65.591 E21.93922
G1 X125.539 Y66.094 E21.96925
G1 X126.242 Y66.66 E21.99927
G1 X126.892 Y67.287 E22.02931
G1 X127.242 Y67.675 E22.04669
G1 X127.875 Y68.414 E22.07905
G1 X129.625 Y70.399 E22.16707
G1 X131.384 Y72.287 E22.25289
G1 X133.122 Y74.046 E22.33514
G1 X134.984 Y75.829 E22.42088
G1 X136.854 Y77.521 E22.50476
G1 X138.811 Y79.193 E22.59037
G1 X140.755 Y80.761 E22.67344
G1 X142.802 Y82.317 E22.75896
G1 X144.849 Y83.786 E22.84276
G1 X146.97 Y85.218 E22.92788
G1 X149.106 Y86.574 E23.01203
G1 X150.159 Y87.202 E23.05281
G1 X150.842 Y87.623 E23.07949
G1 X151.589 Y88.13 E23.10952
G1 X152.288 Y88.702 E23.13956
G1 X152.934 Y89.333 E23.1696
G1 X153.522 Y90.019 E23.19965
G1 X154.047 Y90.754 E23.22969
G1 X154.504 Y91.533 E23.25973
G1 X154.891 Y92.349 E23.28977
G1 X155.204 Y93.196 E23.3198
G1 X155.441 Y94.067 E23.34982
G1 X155.6 Y94.956 E23.37986
G1 X155.685 Y95.991 E23.4144
G1 X155.695 Y96.315 E23.42518
G1 X155.7 Y96.63 E23.43566
G1 X155.699 Y123.098 E24.31599
G1 X155.689 Y123.834 E24.34047
G1 X155.637 Y124.735 E24.37049
G1 X155.505 Y125.629 E24.40055
G1 X155.295 Y126.507 E24.43057
G1 X155.008 Y127.363 E24.4606
G1 X154.646 Y128.191 E24.49066
G1 X154.212 Y128.983 E24.5207
G1 X153.71 Y129.734 E24.55074
G1 X153.144 Y130.437 E24.58076
G1 X152.518 Y131.088 E24.6108
G1 X151.836 Y131.68 E24.64083
G1 X151.105 Y132.21 E24.67087
G1 X150.715 Y132.455 E24.68618
G1 X150.165 Y132.783 E24.70748
G1 X147.931 Y134.161 E24.79478
G1 X145.793 Y135.564 E24.87984
G1 X143.73 Y137.003 E24.9635
G1 X141.689 Y138.514 E25.04796
G1 X139.697 Y140.079 E25.13222
G1 X137.737 Y141.709 E25.217
G1 X135.812 Y143.406 E25.30236
G1 X133.961 Y145.131 E25.38651
G1 X132.185 Y146.886 E25.46956
G1 X130.396 Y148.754 E25.55558
G1 X128.694 Y150.635 E25.63995
G1 X127.456 Y152.083 E25.70332
G1 X127.164 Y152.416 E25.71805
G1 X126.539 Y153.068 E25.74809
G1 X125.859 Y153.662 E25.77812
G1 X125.129 Y154.194 E25.80816
G1 X124.355 Y154.659 E25.83819
G1 X123.543 Y155.053 E25.86821
G1 X122.699 Y155.375 E25.89826
G1 X121.83 Y155.62 E25.92829
G1 X120.942 Y155.788 E25.95835
G1 X119.777 Y155.887 E25.99723
G1 X119.452 Y155.896 E26.00805
G1 X119.17 Y155.9 E26.01743
G1 X112.541 Y155.899 E26.23791
G1 X111.397 Y155.883 E26.27596
G1 X108.773 Y155.883 E26.36324
G1 X108.033 Y155.898 E26.38786
G1 X107.762 Y155.9 E26.39687
G1 X101.062 Y155.899 E26.61971
G1 X100.36 Y155.889 E26.64306
G1 X99.458 Y155.836 E26.67312
G1 X98.565 Y155.704 E26.70314
G1 X97.687 Y155.493 E26.73317
G1 X96.831 Y155.205 E26.76321
G1 X96.003 Y154.843 E26.79327
G1 X95.211 Y154.409 E26.82331
G1 X94.461 Y153.906 E26.85334
G1 X93.758 Y153.34 E26.88336
G1 X93.108 Y152.713 E26.9134
G1 X92.758 Y152.325 E26.93078
G1 X92.125 Y151.586 E26.96314
G1 X90.358 Y149.581 E27.05203
G1 X88.633 Y147.73 E27.13618
G1 X86.878 Y145.954 E27.21923
G1 X85.015 Y144.17 E27.30502
G1 X83.146 Y142.479 E27.38885
G1 X81.189 Y140.807 E27.47446
G1 X79.245 Y139.239 E27.55753
G1 X77.198 Y137.683 E27.64305
G1 X75.151 Y136.214 E27.72685
G1 X73.03 Y134.782 E27.81197
G1 X70.894 Y133.426 E27.89612
G1 X69.837 Y132.796 E27.93705
G1 X69.153 Y132.374 E27.96378
G1 X68.406 Y131.866 E27.99382
G1 X67.707 Y131.294 E28.02387
G1 X67.062 Y130.663 E28.05388
G1 X66.474 Y129.977 E28.08393
G1 X65.95 Y129.241 E28.11398
G1 X65.493 Y128.463 E28.14399
G1 X65.106 Y127.646 E28.17406
G1 X64.793 Y126.799 E28.20409
G1 X64.557 Y125.928 E28.2341
G1 X64.398 Y125.039 E28.26414
G1 X64.313 Y123.977 E28.29958
G1 X64.304 Y123.654 E28.31032
G1 X64.3 Y123.37 E28.31977
G1 X64.301 Y96.862 E29.20143
G1 X64.311 Y96.16 E29.22478
G1 X64.364 Y95.258 E29.25483
G1 X64.496 Y94.365 E29.28486
G1 X64.707 Y93.487 E29.31489
G1 X64.995 Y92.631 E29.34493
G1 X65.357 Y91.803 E29.37499
G1 X65.791 Y91.011 E29.40502
G1 X66.294 Y90.261 E29.43506
G1 X66.86 Y89.558 E29.46508
G1 X67.487 Y88.908 E29.49512
G1 X68.169 Y88.316 E29.52515
